( Made using CamBam - http://www.cambam.co.uk )
( batis 4/8/2015 10:19:51 PM )
( T0 : 2.0 )
G21 G90 G64 G40
G0 Z3.0
( T0 : 2.0 )
T0 M6
( Contour3 )
G17
M3 S1000
G0 X115.378 Y71.4343
G0 Z1.0
G1 F300.0 Z-0.3
G2 F800.0 X114.853 Y71.1312 I-0.35 J0.0
G2 Y71.7374 I0.175 J0.3031
G2 X115.378 Y71.4343 I0.175 J-0.3031
G1 F300.0 Z-0.6
G2 F800.0 X114.853 Y71.1312 I-0.35 J0.0
G2 Y71.7374 I0.175 J0.3031
G2 X115.378 Y71.4343 I0.175 J-0.3031
G1 F300.0 Z-0.9
G2 F800.0 X114.853 Y71.1312 I-0.35 J0.0
G2 Y71.7374 I0.175 J0.3031
G2 X115.378 Y71.4343 I0.175 J-0.3031
G1 F300.0 Z-1.2
G2 F800.0 X114.853 Y71.1312 I-0.35 J0.0
G2 Y71.7374 I0.175 J0.3031
G2 X115.378 Y71.4343 I0.175 J-0.3031
G1 F300.0 Z-1.5
G2 F800.0 X114.853 Y71.1312 I-0.35 J0.0
G2 Y71.7374 I0.175 J0.3031
G2 X115.378 Y71.4343 I0.175 J-0.3031
G1 F300.0 Z-1.8
G2 F800.0 X114.853 Y71.1312 I-0.35 J0.0
G2 Y71.7374 I0.175 J0.3031
G2 X115.378 Y71.4343 I0.175 J-0.3031
G1 F300.0 Z-2.1
G2 F800.0 X114.853 Y71.1312 I-0.35 J0.0
G2 Y71.7374 I0.175 J0.3031
G2 X115.378 Y71.4343 I0.175 J-0.3031
G1 F300.0 Z-2.4
G2 F800.0 X114.853 Y71.1312 I-0.35 J0.0
G2 Y71.7374 I0.175 J0.3031
G2 X115.378 Y71.4343 I0.175 J-0.3031
G1 F300.0 Z-2.7
G2 F800.0 X114.853 Y71.1312 I-0.35 J0.0
G2 Y71.7374 I0.175 J0.3031
G2 X115.378 Y71.4343 I0.175 J-0.3031
G1 F300.0 Z-3.0
G2 F800.0 X114.853 Y71.1312 I-0.35 J0.0
G2 Y71.7374 I0.175 J0.3031
G2 X115.378 Y71.4343 I0.175 J-0.3031
G1 F300.0 Z-3.3
G2 F800.0 X114.853 Y71.1312 I-0.35 J0.0
G2 Y71.7374 I0.175 J0.3031
G2 X115.378 Y71.4343 I0.175 J-0.3031
G1 F300.0 Z-3.6
G2 F800.0 X114.853 Y71.1312 I-0.35 J0.0
G2 Y71.7374 I0.175 J0.3031
G2 X115.378 Y71.4343 I0.175 J-0.3031
G1 F300.0 Z-3.9
G2 F800.0 X114.853 Y71.1312 I-0.35 J0.0
G2 Y71.7374 I0.175 J0.3031
G2 X115.378 Y71.4343 I0.175 J-0.3031
G1 F300.0 Z-4.2
G2 F800.0 X114.853 Y71.1312 I-0.35 J0.0
G2 Y71.7374 I0.175 J0.3031
G2 X115.378 Y71.4343 I0.175 J-0.3031
G1 F300.0 Z-4.5
G2 F800.0 X114.853 Y71.1312 I-0.35 J0.0
G2 Y71.7374 I0.175 J0.3031
G2 X115.378 Y71.4343 I0.175 J-0.3031
G1 F300.0 Z-4.8
G2 F800.0 X114.853 Y71.1312 I-0.35 J0.0
G2 Y71.7374 I0.175 J0.3031
G2 X115.378 Y71.4343 I0.175 J-0.3031
G1 F300.0 Z-5.1
G2 F800.0 X114.853 Y71.1312 I-0.35 J0.0
G2 Y71.7374 I0.175 J0.3031
G2 X115.378 Y71.4343 I0.175 J-0.3031
G1 F300.0 Z-5.3
G2 F800.0 X114.853 Y71.1312 I-0.35 J0.0
G2 Y71.7374 I0.175 J0.3031
G2 X115.378 Y71.4343 I0.175 J-0.3031
G0 Z3.0
G0 X132.678
G0 Z1.0
G1 F300.0 Z-0.3
G2 F800.0 X132.853 Y71.7374 I0.35 J0.0
G2 X133.378 Y71.4343 I0.175 J-0.3031
G2 X132.853 Y71.1312 I-0.35 J0.0
G2 X132.678 Y71.4343 I0.175 J0.3031
G1 F300.0 Z-0.6
G2 F800.0 X132.853 Y71.7374 I0.35 J0.0
G2 X133.378 Y71.4343 I0.175 J-0.3031
G2 X132.853 Y71.1312 I-0.35 J0.0
G2 X132.678 Y71.4343 I0.175 J0.3031
G1 F300.0 Z-0.9
G2 F800.0 X132.853 Y71.7374 I0.35 J0.0
G2 X133.378 Y71.4343 I0.175 J-0.3031
G2 X132.853 Y71.1312 I-0.35 J0.0
G2 X132.678 Y71.4343 I0.175 J0.3031
G1 F300.0 Z-1.2
G2 F800.0 X132.853 Y71.7374 I0.35 J0.0
G2 X133.378 Y71.4343 I0.175 J-0.3031
G2 X132.853 Y71.1312 I-0.35 J0.0
G2 X132.678 Y71.4343 I0.175 J0.3031
G1 F300.0 Z-1.5
G2 F800.0 X132.853 Y71.7374 I0.35 J0.0
G2 X133.378 Y71.4343 I0.175 J-0.3031
G2 X132.853 Y71.1312 I-0.35 J0.0
G2 X132.678 Y71.4343 I0.175 J0.3031
G1 F300.0 Z-1.8
G2 F800.0 X132.853 Y71.7374 I0.35 J0.0
G2 X133.378 Y71.4343 I0.175 J-0.3031
G2 X132.853 Y71.1312 I-0.35 J0.0
G2 X132.678 Y71.4343 I0.175 J0.3031
G1 F300.0 Z-2.1
G2 F800.0 X132.853 Y71.7374 I0.35 J0.0
G2 X133.378 Y71.4343 I0.175 J-0.3031
G2 X132.853 Y71.1312 I-0.35 J0.0
G2 X132.678 Y71.4343 I0.175 J0.3031
G1 F300.0 Z-2.4
G2 F800.0 X132.853 Y71.7374 I0.35 J0.0
G2 X133.378 Y71.4343 I0.175 J-0.3031
G2 X132.853 Y71.1312 I-0.35 J0.0
G2 X132.678 Y71.4343 I0.175 J0.3031
G1 F300.0 Z-2.7
G2 F800.0 X132.853 Y71.7374 I0.35 J0.0
G2 X133.378 Y71.4343 I0.175 J-0.3031
G2 X132.853 Y71.1312 I-0.35 J0.0
G2 X132.678 Y71.4343 I0.175 J0.3031
G1 F300.0 Z-3.0
G2 F800.0 X132.853 Y71.7374 I0.35 J0.0
G2 X133.378 Y71.4343 I0.175 J-0.3031
G2 X132.853 Y71.1312 I-0.35 J0.0
G2 X132.678 Y71.4343 I0.175 J0.3031
G1 F300.0 Z-3.3
G2 F800.0 X132.853 Y71.7374 I0.35 J0.0
G2 X133.378 Y71.4343 I0.175 J-0.3031
G2 X132.853 Y71.1312 I-0.35 J0.0
G2 X132.678 Y71.4343 I0.175 J0.3031
G1 F300.0 Z-3.6
G2 F800.0 X132.853 Y71.7374 I0.35 J0.0
G2 X133.378 Y71.4343 I0.175 J-0.3031
G2 X132.853 Y71.1312 I-0.35 J0.0
G2 X132.678 Y71.4343 I0.175 J0.3031
G1 F300.0 Z-3.9
G2 F800.0 X132.853 Y71.7374 I0.35 J0.0
G2 X133.378 Y71.4343 I0.175 J-0.3031
G2 X132.853 Y71.1312 I-0.35 J0.0
G2 X132.678 Y71.4343 I0.175 J0.3031
G1 F300.0 Z-4.2
G2 F800.0 X132.853 Y71.7374 I0.35 J0.0
G2 X133.378 Y71.4343 I0.175 J-0.3031
G2 X132.853 Y71.1312 I-0.35 J0.0
G2 X132.678 Y71.4343 I0.175 J0.3031
G1 F300.0 Z-4.5
G2 F800.0 X132.853 Y71.7374 I0.35 J0.0
G2 X133.378 Y71.4343 I0.175 J-0.3031
G2 X132.853 Y71.1312 I-0.35 J0.0
G2 X132.678 Y71.4343 I0.175 J0.3031
G1 F300.0 Z-4.8
G2 F800.0 X132.853 Y71.7374 I0.35 J0.0
G2 X133.378 Y71.4343 I0.175 J-0.3031
G2 X132.853 Y71.1312 I-0.35 J0.0
G2 X132.678 Y71.4343 I0.175 J0.3031
G1 F300.0 Z-5.1
G2 F800.0 X132.853 Y71.7374 I0.35 J0.0
G2 X133.378 Y71.4343 I0.175 J-0.3031
G2 X132.853 Y71.1312 I-0.35 J0.0
G2 X132.678 Y71.4343 I0.175 J0.3031
G1 F300.0 Z-5.3
G2 F800.0 X132.853 Y71.7374 I0.35 J0.0
G2 X133.378 Y71.4343 I0.175 J-0.3031
G2 X132.853 Y71.1312 I-0.35 J0.0
G2 X132.678 Y71.4343 I0.175 J0.3031
G0 Z3.0
G0 X189.7049 Y95.1997
G0 Z1.0
G1 F300.0 Z-0.3
G2 F800.0 X189.853 Y95.6375 I0.3231 J0.1346
G2 X190.378 Y95.3344 I0.175 J-0.3031
G2 X189.853 Y95.0312 I-0.35 J0.0
G2 X189.7049 Y95.1997 I0.175 J0.3031
G1 F300.0 Z-0.6
G2 F800.0 X189.853 Y95.6375 I0.3231 J0.1346
G2 X190.378 Y95.3344 I0.175 J-0.3031
G2 X189.853 Y95.0312 I-0.35 J0.0
G2 X189.7049 Y95.1997 I0.175 J0.3031
G1 F300.0 Z-0.9
G2 F800.0 X189.853 Y95.6375 I0.3231 J0.1346
G2 X190.378 Y95.3344 I0.175 J-0.3031
G2 X189.853 Y95.0312 I-0.35 J0.0
G2 X189.7049 Y95.1997 I0.175 J0.3031
G1 F300.0 Z-1.2
G2 F800.0 X189.853 Y95.6375 I0.3231 J0.1346
G2 X190.378 Y95.3344 I0.175 J-0.3031
G2 X189.853 Y95.0312 I-0.35 J0.0
G2 X189.7049 Y95.1997 I0.175 J0.3031
G1 F300.0 Z-1.5
G2 F800.0 X189.853 Y95.6375 I0.3231 J0.1346
G2 X190.378 Y95.3344 I0.175 J-0.3031
G2 X189.853 Y95.0312 I-0.35 J0.0
G2 X189.7049 Y95.1997 I0.175 J0.3031
G1 F300.0 Z-1.8
G2 F800.0 X189.853 Y95.6375 I0.3231 J0.1346
G2 X190.378 Y95.3344 I0.175 J-0.3031
G2 X189.853 Y95.0312 I-0.35 J0.0
G2 X189.7049 Y95.1997 I0.175 J0.3031
G1 F300.0 Z-2.1
G2 F800.0 X189.853 Y95.6375 I0.3231 J0.1346
G2 X190.378 Y95.3344 I0.175 J-0.3031
G2 X189.853 Y95.0312 I-0.35 J0.0
G2 X189.7049 Y95.1997 I0.175 J0.3031
G1 F300.0 Z-2.4
G2 F800.0 X189.853 Y95.6375 I0.3231 J0.1346
G2 X190.378 Y95.3344 I0.175 J-0.3031
G2 X189.853 Y95.0312 I-0.35 J0.0
G2 X189.7049 Y95.1997 I0.175 J0.3031
G1 F300.0 Z-2.7
G2 F800.0 X189.853 Y95.6375 I0.3231 J0.1346
G2 X190.378 Y95.3344 I0.175 J-0.3031
G2 X189.853 Y95.0312 I-0.35 J0.0
G2 X189.7049 Y95.1997 I0.175 J0.3031
G1 F300.0 Z-3.0
G2 F800.0 X189.853 Y95.6375 I0.3231 J0.1346
G2 X190.378 Y95.3344 I0.175 J-0.3031
G2 X189.853 Y95.0312 I-0.35 J0.0
G2 X189.7049 Y95.1997 I0.175 J0.3031
G1 F300.0 Z-3.3
G2 F800.0 X189.853 Y95.6375 I0.3231 J0.1346
G2 X190.378 Y95.3344 I0.175 J-0.3031
G2 X189.853 Y95.0312 I-0.35 J0.0
G2 X189.7049 Y95.1997 I0.175 J0.3031
G1 F300.0 Z-3.6
G2 F800.0 X189.853 Y95.6375 I0.3231 J0.1346
G2 X190.378 Y95.3344 I0.175 J-0.3031
G2 X189.853 Y95.0312 I-0.35 J0.0
G2 X189.7049 Y95.1997 I0.175 J0.3031
G1 F300.0 Z-3.9
G2 F800.0 X189.853 Y95.6375 I0.3231 J0.1346
G2 X190.378 Y95.3344 I0.175 J-0.3031
G2 X189.853 Y95.0312 I-0.35 J0.0
G2 X189.7049 Y95.1997 I0.175 J0.3031
G1 F300.0 Z-4.2
G2 F800.0 X189.853 Y95.6375 I0.3231 J0.1346
G2 X190.378 Y95.3344 I0.175 J-0.3031
G2 X189.853 Y95.0312 I-0.35 J0.0
G2 X189.7049 Y95.1997 I0.175 J0.3031
G1 F300.0 Z-4.5
G2 F800.0 X189.853 Y95.6375 I0.3231 J0.1346
G2 X190.378 Y95.3344 I0.175 J-0.3031
G2 X189.853 Y95.0312 I-0.35 J0.0
G2 X189.7049 Y95.1997 I0.175 J0.3031
G1 F300.0 Z-4.8
G2 F800.0 X189.853 Y95.6375 I0.3231 J0.1346
G2 X190.378 Y95.3344 I0.175 J-0.3031
G2 X189.853 Y95.0312 I-0.35 J0.0
G2 X189.7049 Y95.1997 I0.175 J0.3031
G1 F300.0 Z-5.1
G2 F800.0 X189.853 Y95.6375 I0.3231 J0.1346
G2 X190.378 Y95.3344 I0.175 J-0.3031
G2 X189.853 Y95.0312 I-0.35 J0.0
G2 X189.7049 Y95.1997 I0.175 J0.3031
G1 F300.0 Z-5.3
G2 F800.0 X189.853 Y95.6375 I0.3231 J0.1346
G2 X190.378 Y95.3344 I0.175 J-0.3031
G2 X189.853 Y95.0312 I-0.35 J0.0
G2 X189.7049 Y95.1997 I0.175 J0.3031
G0 Z3.0
G0 X207.678 Y95.3318
G0 Z1.0
G1 F300.0 Z-0.3
G2 F800.0 X207.853 Y95.6375 I0.35 J0.0026
G2 X208.378 Y95.3344 I0.175 J-0.3031
G2 X207.853 Y95.0312 I-0.35 J0.0
G2 X207.678 Y95.3318 I0.175 J0.3031
G1 F300.0 Z-0.6
G2 F800.0 X207.853 Y95.6375 I0.35 J0.0026
G2 X208.378 Y95.3344 I0.175 J-0.3031
G2 X207.853 Y95.0312 I-0.35 J0.0
G2 X207.678 Y95.3318 I0.175 J0.3031
G1 F300.0 Z-0.9
G2 F800.0 X207.853 Y95.6375 I0.35 J0.0026
G2 X208.378 Y95.3344 I0.175 J-0.3031
G2 X207.853 Y95.0312 I-0.35 J0.0
G2 X207.678 Y95.3318 I0.175 J0.3031
G1 F300.0 Z-1.2
G2 F800.0 X207.853 Y95.6375 I0.35 J0.0026
G2 X208.378 Y95.3344 I0.175 J-0.3031
G2 X207.853 Y95.0312 I-0.35 J0.0
G2 X207.678 Y95.3318 I0.175 J0.3031
G1 F300.0 Z-1.5
G2 F800.0 X207.853 Y95.6375 I0.35 J0.0026
G2 X208.378 Y95.3344 I0.175 J-0.3031
G2 X207.853 Y95.0312 I-0.35 J0.0
G2 X207.678 Y95.3318 I0.175 J0.3031
G1 F300.0 Z-1.8
G2 F800.0 X207.853 Y95.6375 I0.35 J0.0026
G2 X208.378 Y95.3344 I0.175 J-0.3031
G2 X207.853 Y95.0312 I-0.35 J0.0
G2 X207.678 Y95.3318 I0.175 J0.3031
G1 F300.0 Z-2.1
G2 F800.0 X207.853 Y95.6375 I0.35 J0.0026
G2 X208.378 Y95.3344 I0.175 J-0.3031
G2 X207.853 Y95.0312 I-0.35 J0.0
G2 X207.678 Y95.3318 I0.175 J0.3031
G1 F300.0 Z-2.4
G2 F800.0 X207.853 Y95.6375 I0.35 J0.0026
G2 X208.378 Y95.3344 I0.175 J-0.3031
G2 X207.853 Y95.0312 I-0.35 J0.0
G2 X207.678 Y95.3318 I0.175 J0.3031
G1 F300.0 Z-2.7
G2 F800.0 X207.853 Y95.6375 I0.35 J0.0026
G2 X208.378 Y95.3344 I0.175 J-0.3031
G2 X207.853 Y95.0312 I-0.35 J0.0
G2 X207.678 Y95.3318 I0.175 J0.3031
G1 F300.0 Z-3.0
G2 F800.0 X207.853 Y95.6375 I0.35 J0.0026
G2 X208.378 Y95.3344 I0.175 J-0.3031
G2 X207.853 Y95.0312 I-0.35 J0.0
G2 X207.678 Y95.3318 I0.175 J0.3031
G1 F300.0 Z-3.3
G2 F800.0 X207.853 Y95.6375 I0.35 J0.0026
G2 X208.378 Y95.3344 I0.175 J-0.3031
G2 X207.853 Y95.0312 I-0.35 J0.0
G2 X207.678 Y95.3318 I0.175 J0.3031
G1 F300.0 Z-3.6
G2 F800.0 X207.853 Y95.6375 I0.35 J0.0026
G2 X208.378 Y95.3344 I0.175 J-0.3031
G2 X207.853 Y95.0312 I-0.35 J0.0
G2 X207.678 Y95.3318 I0.175 J0.3031
G1 F300.0 Z-3.9
G2 F800.0 X207.853 Y95.6375 I0.35 J0.0026
G2 X208.378 Y95.3344 I0.175 J-0.3031
G2 X207.853 Y95.0312 I-0.35 J0.0
G2 X207.678 Y95.3318 I0.175 J0.3031
G1 F300.0 Z-4.2
G2 F800.0 X207.853 Y95.6375 I0.35 J0.0026
G2 X208.378 Y95.3344 I0.175 J-0.3031
G2 X207.853 Y95.0312 I-0.35 J0.0
G2 X207.678 Y95.3318 I0.175 J0.3031
G1 F300.0 Z-4.5
G2 F800.0 X207.853 Y95.6375 I0.35 J0.0026
G2 X208.378 Y95.3344 I0.175 J-0.3031
G2 X207.853 Y95.0312 I-0.35 J0.0
G2 X207.678 Y95.3318 I0.175 J0.3031
G1 F300.0 Z-4.8
G2 F800.0 X207.853 Y95.6375 I0.35 J0.0026
G2 X208.378 Y95.3344 I0.175 J-0.3031
G2 X207.853 Y95.0312 I-0.35 J0.0
G2 X207.678 Y95.3318 I0.175 J0.3031
G1 F300.0 Z-5.1
G2 F800.0 X207.853 Y95.6375 I0.35 J0.0026
G2 X208.378 Y95.3344 I0.175 J-0.3031
G2 X207.853 Y95.0312 I-0.35 J0.0
G2 X207.678 Y95.3318 I0.175 J0.3031
G1 F300.0 Z-5.3
G2 F800.0 X207.853 Y95.6375 I0.35 J0.0026
G2 X208.378 Y95.3344 I0.175 J-0.3031
G2 X207.853 Y95.0312 I-0.35 J0.0
G2 X207.678 Y95.3318 I0.175 J0.3031
( Poche1 )
S1000
G0 Z3.0
G0 X126.028 Y31.4843
G0 Z1.0
G1 F300.0 Z-0.3
G2 F800.0 X124.028 Y33.4843 I0.0 J2.0
G1 Y60.2843
G1 F300.0 Y61.4843
G1 F800.0 X125.228
G1 Y33.3843
G3 X125.3863 Y32.2843 I3.9 J0.0
G1 X122.6696
G3 X122.828 Y33.3843 I-3.7417 J1.1
G1 Y61.4843
G1 X124.028
G1 F300.0 Y62.6843
G1 F800.0 X126.428
G1 Y33.3843
G3 X127.7138 Y31.0843 I2.7 J0.0
G1 X120.3422
G3 X121.628 Y33.3843 I-1.4142 J2.3
G1 Y62.6843
G1 X124.028
G2 X126.028 Y60.6843 I0.0 J-2.0
G0 Z3.0
G0 X151.928 Y39.0843
G0 Z1.0
G1 F300.0 Z-0.3
G2 F800.0 X153.928 Y41.0843 I2.0 J0.0
G1 X169.1203
G1 Y40.6843
G1 X153.928
G1 Y41.0843
G1 F300.0 Y42.2843
G1 F800.0 X170.3203
G1 Y39.4843
G1 X152.728
G1 Y42.2843
G1 X153.928
G1 F300.0 Y43.4843
G1 F800.0 X171.5203
G1 Y38.2843
G1 X151.528
G1 Y43.4843
G1 X153.928
G1 F300.0 Y44.6843
G1 F800.0 X172.7203
G1 Y37.0843
G1 X150.328
G1 Y44.6843
G1 X153.928
G1 F300.0 Y45.8843
G1 F800.0 X173.9203
G1 Y35.8843
G1 X149.128
G1 Y45.8843
G1 X153.928
G1 F300.0 Y47.0843
G1 F800.0 X175.1203
G1 Y34.6843
G1 X147.928
G1 Y47.0843
G1 X153.928
G1 F300.0 Y48.2843
G1 F800.0 X176.3203
G1 Y33.4843
G1 X146.728
G1 Y48.2843
G1 X153.928
G1 F300.0 Y49.4843
G1 F800.0 X177.5203
G1 Y33.3843
G3 X177.6786 Y32.2843 I3.9 J0.0
G1 X145.3696
G3 X145.528 Y33.3843 I-3.7417 J1.1
G1 Y49.4843
G1 X153.928
G1 F300.0 Y50.6843
G1 F800.0 X178.7203
G1 Y33.3843
G3 X180.0061 Y31.0843 I2.7 J0.0
G1 X143.0422
G3 X144.328 Y33.3843 I-1.4142 J2.3
G1 Y50.6843
G1 X153.928
G1 F300.0 Y51.8843
G1 F800.0 X179.9203
G1 Y33.3843
G3 X181.4203 Y31.8843 I1.5 J0.0
G1 X210.528
G1 Y29.8843
G1 X112.528
G1 Y31.8843
G1 X118.928
G3 X120.428 Y33.3843 I0.0 J1.5
G1 Y63.8843
G1 X127.628
G1 Y33.3843
G3 X129.128 Y31.8843 I1.5 J0.0
G1 X141.628
G3 X143.128 Y33.3843 I0.0 J1.5
G1 Y51.8843
G1 X153.928
G2 X155.928 Y49.8843 I0.0 J-2.0
G0 Z3.0
G0 X151.928 Y39.0843
G0 Z0.7
G1 F300.0 Z-0.6
G2 F800.0 X153.928 Y41.0843 I2.0 J0.0
G1 X169.1203
G1 Y40.6843
G1 X153.928
G1 Y41.0843
G1 F300.0 Y42.2843
G1 F800.0 X170.3203
G1 Y39.4843
G1 X152.728
G1 Y42.2843
G1 X153.928
G1 F300.0 Y43.4843
G1 F800.0 X171.5203
G1 Y38.2843
G1 X151.528
G1 Y43.4843
G1 X153.928
G1 F300.0 Y44.6843
G1 F800.0 X172.7203
G1 Y37.0843
G1 X150.328
G1 Y44.6843
G1 X153.928
G1 F300.0 Y45.8843
G1 F800.0 X173.9203
G1 Y35.8843
G1 X149.128
G1 Y45.8843
G1 X153.928
G1 F300.0 Y47.0843
G1 F800.0 X175.1203
G1 Y34.6843
G1 X147.928
G1 Y47.0843
G1 X153.928
G1 F300.0 Y48.2843
G1 F800.0 X176.3203
G1 Y33.4843
G1 X146.728
G1 Y48.2843
G1 X153.928
G1 F300.0 Y49.4843
G1 F800.0 X177.5203
G1 Y33.3843
G3 X177.6786 Y32.2843 I3.9 J0.0
G1 X145.3696
G3 X145.528 Y33.3843 I-3.7417 J1.1
G1 Y49.4843
G1 X153.928
G1 F300.0 Y50.6843
G1 F800.0 X178.7203
G1 Y33.3843
G3 X180.0061 Y31.0843 I2.7 J0.0
G1 X143.0422
G3 X144.328 Y33.3843 I-1.4142 J2.3
G1 Y50.6843
G1 X153.928
G2 X155.928 Y48.6843 I0.0 J-2.0
G0 Z3.0
G0 X126.028 Y31.4843
G0 Z0.7
G1 F300.0 Z-0.6
G2 F800.0 X124.028 Y33.4843 I0.0 J2.0
G1 Y60.2843
G1 F300.0 Y61.4843
G1 F800.0 X125.228
G1 Y33.3843
G3 X125.3863 Y32.2843 I3.9 J0.0
G1 X122.6696
G3 X122.828 Y33.3843 I-3.7417 J1.1
G1 Y61.4843
G1 X124.028
G1 F300.0 Y62.6843
G1 F800.0 X126.428
G1 Y33.3843
G3 X127.7138 Y31.0843 I2.7 J0.0
G1 X120.3422
G3 X121.628 Y33.3843 I-1.4142 J2.3
G1 Y62.6843
G1 X124.028
G2 X126.028 Y60.6843 I0.0 J-2.0
G0 Z3.0
G0 X122.028 Y61.8843
G0 Z0.7
G1 F300.0 Z-0.6
G2 F800.0 X124.028 Y63.8843 I2.0 J0.0
G1 X127.628
G1 Y33.3843
G3 X129.128 Y31.8843 I1.5 J0.0
G1 X141.628
G3 X143.128 Y33.3843 I0.0 J1.5
G1 Y51.8843
G1 X179.9203
G1 Y33.3843
G3 X181.4203 Y31.8843 I1.5 J0.0
G1 X210.528
G1 Y29.8843
G1 X112.528
G1 Y31.8843
G1 X118.928
G3 X120.428 Y33.3843 I0.0 J1.5
G1 Y63.8843
G1 X124.028
G2 X126.028 Y61.8843 I0.0 J-2.0
G0 Z3.0
G0 Y31.4843
G0 Z0.4
G1 F300.0 Z-0.9
G2 F800.0 X124.028 Y33.4843 I0.0 J2.0
G1 Y60.2843
G1 F300.0 Y61.4843
G1 F800.0 X125.228
G1 Y33.3843
G3 X125.3863 Y32.2843 I3.9 J0.0
G1 X122.6696
G3 X122.828 Y33.3843 I-3.7417 J1.1
G1 Y61.4843
G1 X124.028
G1 F300.0 Y62.6843
G1 F800.0 X126.428
G1 Y33.3843
G3 X127.7138 Y31.0843 I2.7 J0.0
G1 X120.3422
G3 X121.628 Y33.3843 I-1.4142 J2.3
G1 Y62.6843
G1 X124.028
G2 X126.028 Y60.6843 I0.0 J-2.0
G0 Z3.0
G0 X151.928 Y39.0843
G0 Z0.4
G1 F300.0 Z-0.9
G2 F800.0 X153.928 Y41.0843 I2.0 J0.0
G1 X169.1203
G1 Y40.6843
G1 X153.928
G1 Y41.0843
G1 F300.0 Y42.2843
G1 F800.0 X170.3203
G1 Y39.4843
G1 X152.728
G1 Y42.2843
G1 X153.928
G1 F300.0 Y43.4843
G1 F800.0 X171.5203
G1 Y38.2843
G1 X151.528
G1 Y43.4843
G1 X153.928
G1 F300.0 Y44.6843
G1 F800.0 X172.7203
G1 Y37.0843
G1 X150.328
G1 Y44.6843
G1 X153.928
G1 F300.0 Y45.8843
G1 F800.0 X173.9203
G1 Y35.8843
G1 X149.128
G1 Y45.8843
G1 X153.928
G1 F300.0 Y47.0843
G1 F800.0 X175.1203
G1 Y34.6843
G1 X147.928
G1 Y47.0843
G1 X153.928
G1 F300.0 Y48.2843
G1 F800.0 X176.3203
G1 Y33.4843
G1 X146.728
G1 Y48.2843
G1 X153.928
G1 F300.0 Y49.4843
G1 F800.0 X177.5203
G1 Y33.3843
G3 X177.6786 Y32.2843 I3.9 J0.0
G1 X145.3696
G3 X145.528 Y33.3843 I-3.7417 J1.1
G1 Y49.4843
G1 X153.928
G1 F300.0 Y50.6843
G1 F800.0 X178.7203
G1 Y33.3843
G3 X180.0061 Y31.0843 I2.7 J0.0
G1 X143.0422
G3 X144.328 Y33.3843 I-1.4142 J2.3
G1 Y50.6843
G1 X153.928
G2 X155.928 Y48.6843 I0.0 J-2.0
G0 Z3.0
G0 X151.928 Y49.8843
G0 Z0.4
G1 F300.0 Z-0.9
G2 F800.0 X153.928 Y51.8843 I2.0 J0.0
G1 X179.9203
G1 Y33.3843
G3 X181.4203 Y31.8843 I1.5 J0.0
G1 X210.528
G1 Y29.8843
G1 X112.528
G1 Y31.8843
G1 X118.928
G3 X120.428 Y33.3843 I0.0 J1.5
G1 Y63.8843
G1 X127.628
G1 Y33.3843
G3 X129.128 Y31.8843 I1.5 J0.0
G1 X141.628
G3 X143.128 Y33.3843 I0.0 J1.5
G1 Y51.8843
G1 X153.928
G2 X155.928 Y49.8843 I0.0 J-2.0
G0 Z3.0
G0 X151.928 Y39.0843
G0 Z0.1
G1 F300.0 Z-1.0
G2 F800.0 X153.928 Y41.0843 I2.0 J0.0
G1 X169.1203
G1 Y40.6843
G1 X153.928
G1 Y41.0843
G1 F300.0 Y42.2843
G1 F800.0 X170.3203
G1 Y39.4843
G1 X152.728
G1 Y42.2843
G1 X153.928
G1 F300.0 Y43.4843
G1 F800.0 X171.5203
G1 Y38.2843
G1 X151.528
G1 Y43.4843
G1 X153.928
G1 F300.0 Y44.6843
G1 F800.0 X172.7203
G1 Y37.0843
G1 X150.328
G1 Y44.6843
G1 X153.928
G1 F300.0 Y45.8843
G1 F800.0 X173.9203
G1 Y35.8843
G1 X149.128
G1 Y45.8843
G1 X153.928
G1 F300.0 Y47.0843
G1 F800.0 X175.1203
G1 Y34.6843
G1 X147.928
G1 Y47.0843
G1 X153.928
G1 F300.0 Y48.2843
G1 F800.0 X176.3203
G1 Y33.4843
G1 X146.728
G1 Y48.2843
G1 X153.928
G1 F300.0 Y49.4843
G1 F800.0 X177.5203
G1 Y33.3843
G3 X177.6786 Y32.2843 I3.9 J0.0
G1 X145.3696
G3 X145.528 Y33.3843 I-3.7417 J1.1
G1 Y49.4843
G1 X153.928
G1 F300.0 Y50.6843
G1 F800.0 X178.7203
G1 Y33.3843
G3 X180.0061 Y31.0843 I2.7 J0.0
G1 X143.0422
G3 X144.328 Y33.3843 I-1.4142 J2.3
G1 Y50.6843
G1 X153.928
G2 X155.928 Y48.6843 I0.0 J-2.0
G0 Z3.0
G0 X126.028 Y31.4843
G0 Z0.1
G1 F300.0 Z-1.0
G2 F800.0 X124.028 Y33.4843 I0.0 J2.0
G1 Y60.2843
G1 F300.0 Y61.4843
G1 F800.0 X125.228
G1 Y33.3843
G3 X125.3863 Y32.2843 I3.9 J0.0
G1 X122.6696
G3 X122.828 Y33.3843 I-3.7417 J1.1
G1 Y61.4843
G1 X124.028
G1 F300.0 Y62.6843
G1 F800.0 X126.428
G1 Y33.3843
G3 X127.7138 Y31.0843 I2.7 J0.0
G1 X120.3422
G3 X121.628 Y33.3843 I-1.4142 J2.3
G1 Y62.6843
G1 X124.028
G2 X126.028 Y60.6843 I0.0 J-2.0
G0 Z3.0
G0 X122.028 Y61.8843
G0 Z0.3
G1 F300.0 Z-1.0
G2 F800.0 X124.028 Y63.8843 I2.0 J0.0
G1 X127.628
G1 Y33.3843
G3 X129.128 Y31.8843 I1.5 J0.0
G1 X141.628
G3 X143.128 Y33.3843 I0.0 J1.5
G1 Y51.8843
G1 X179.9203
G1 Y33.3843
G3 X181.4203 Y31.8843 I1.5 J0.0
G1 X210.528
G1 Y29.8843
G1 X112.528
G1 Y31.8843
G1 X118.928
G3 X120.428 Y33.3843 I0.0 J1.5
G1 Y63.8843
G1 X124.028
G2 X126.028 Y61.8843 I0.0 J-2.0
( Contour1 )
S1000
G0 Z3.0
G0 X151.0034 Y46.6343
G0 Z1.0
G1 F300.0 Z-0.3
G2 F800.0 X150.7034 Y46.4611 I-0.2 J0.0
G2 Y46.8075 I0.1 J0.1732
G2 X151.0034 Y46.6343 I0.1 J-0.1732
G1 F300.0 Z-0.6
G2 F800.0 X150.7034 Y46.4611 I-0.2 J0.0
G2 Y46.8075 I0.1 J0.1732
G2 X151.0034 Y46.6343 I0.1 J-0.1732
G1 F300.0 Z-0.9
G2 F800.0 X150.7034 Y46.4611 I-0.2 J0.0
G2 Y46.8075 I0.1 J0.1732
G2 X151.0034 Y46.6343 I0.1 J-0.1732
G1 F300.0 Z-1.2
G2 F800.0 X150.7034 Y46.4611 I-0.2 J0.0
G2 Y46.8075 I0.1 J0.1732
G2 X151.0034 Y46.6343 I0.1 J-0.1732
G1 F300.0 Z-1.5
G2 F800.0 X150.7034 Y46.4611 I-0.2 J0.0
G2 Y46.8075 I0.1 J0.1732
G2 X151.0034 Y46.6343 I0.1 J-0.1732
G1 F300.0 Z-1.8
G2 F800.0 X150.7034 Y46.4611 I-0.2 J0.0
G2 Y46.8075 I0.1 J0.1732
G2 X151.0034 Y46.6343 I0.1 J-0.1732
G1 F300.0 Z-2.1
G2 F800.0 X150.7034 Y46.4611 I-0.2 J0.0
G2 Y46.8075 I0.1 J0.1732
G2 X151.0034 Y46.6343 I0.1 J-0.1732
G1 F300.0 Z-2.4
G2 F800.0 X150.7034 Y46.4611 I-0.2 J0.0
G2 Y46.8075 I0.1 J0.1732
G2 X151.0034 Y46.6343 I0.1 J-0.1732
G1 F300.0 Z-2.7
G2 F800.0 X150.7034 Y46.4611 I-0.2 J0.0
G2 Y46.8075 I0.1 J0.1732
G2 X151.0034 Y46.6343 I0.1 J-0.1732
G1 F300.0 Z-3.0
G2 F800.0 X150.7034 Y46.4611 I-0.2 J0.0
G2 Y46.8075 I0.1 J0.1732
G2 X151.0034 Y46.6343 I0.1 J-0.1732
G1 F300.0 Z-3.3
G2 F800.0 X150.7034 Y46.4611 I-0.2 J0.0
G2 Y46.8075 I0.1 J0.1732
G2 X151.0034 Y46.6343 I0.1 J-0.1732
G1 F300.0 Z-3.6
G2 F800.0 X150.7034 Y46.4611 I-0.2 J0.0
G2 Y46.8075 I0.1 J0.1732
G2 X151.0034 Y46.6343 I0.1 J-0.1732
G1 F300.0 Z-3.9
G2 F800.0 X150.7034 Y46.4611 I-0.2 J0.0
G2 Y46.8075 I0.1 J0.1732
G2 X151.0034 Y46.6343 I0.1 J-0.1732
G1 F300.0 Z-4.2
G2 F800.0 X150.7034 Y46.4611 I-0.2 J0.0
G2 Y46.8075 I0.1 J0.1732
G2 X151.0034 Y46.6343 I0.1 J-0.1732
G1 F300.0 Z-4.5
G2 F800.0 X150.7034 Y46.4611 I-0.2 J0.0
G2 Y46.8075 I0.1 J0.1732
G2 X151.0034 Y46.6343 I0.1 J-0.1732
G1 F300.0 Z-4.8
G2 F800.0 X150.7034 Y46.4611 I-0.2 J0.0
G2 Y46.8075 I0.1 J0.1732
G2 X151.0034 Y46.6343 I0.1 J-0.1732
G1 F300.0 Z-5.1
G2 F800.0 X150.7034 Y46.4611 I-0.2 J0.0
G2 Y46.8075 I0.1 J0.1732
G2 X151.0034 Y46.6343 I0.1 J-0.1732
G1 F300.0 Z-5.3
G2 F800.0 X150.7034 Y46.4611 I-0.2 J0.0
G2 Y46.8075 I0.1 J0.1732
G2 X151.0034 Y46.6343 I0.1 J-0.1732
G0 Z3.0
G0 X171.2526
G0 Z1.0
G1 F300.0 Z-0.3
G2 F800.0 X171.3526 Y46.8075 I0.2 J0.0
G2 X171.6526 Y46.6343 I0.1 J-0.1732
G2 X171.3526 Y46.4611 I-0.2 J0.0
G2 X171.2526 Y46.6343 I0.1 J0.1732
G1 F300.0 Z-0.6
G2 F800.0 X171.3526 Y46.8075 I0.2 J0.0
G2 X171.6526 Y46.6343 I0.1 J-0.1732
G2 X171.3526 Y46.4611 I-0.2 J0.0
G2 X171.2526 Y46.6343 I0.1 J0.1732
G1 F300.0 Z-0.9
G2 F800.0 X171.3526 Y46.8075 I0.2 J0.0
G2 X171.6526 Y46.6343 I0.1 J-0.1732
G2 X171.3526 Y46.4611 I-0.2 J0.0
G2 X171.2526 Y46.6343 I0.1 J0.1732
G1 F300.0 Z-1.2
G2 F800.0 X171.3526 Y46.8075 I0.2 J0.0
G2 X171.6526 Y46.6343 I0.1 J-0.1732
G2 X171.3526 Y46.4611 I-0.2 J0.0
G2 X171.2526 Y46.6343 I0.1 J0.1732
G1 F300.0 Z-1.5
G2 F800.0 X171.3526 Y46.8075 I0.2 J0.0
G2 X171.6526 Y46.6343 I0.1 J-0.1732
G2 X171.3526 Y46.4611 I-0.2 J0.0
G2 X171.2526 Y46.6343 I0.1 J0.1732
G1 F300.0 Z-1.8
G2 F800.0 X171.3526 Y46.8075 I0.2 J0.0
G2 X171.6526 Y46.6343 I0.1 J-0.1732
G2 X171.3526 Y46.4611 I-0.2 J0.0
G2 X171.2526 Y46.6343 I0.1 J0.1732
G1 F300.0 Z-2.1
G2 F800.0 X171.3526 Y46.8075 I0.2 J0.0
G2 X171.6526 Y46.6343 I0.1 J-0.1732
G2 X171.3526 Y46.4611 I-0.2 J0.0
G2 X171.2526 Y46.6343 I0.1 J0.1732
G1 F300.0 Z-2.4
G2 F800.0 X171.3526 Y46.8075 I0.2 J0.0
G2 X171.6526 Y46.6343 I0.1 J-0.1732
G2 X171.3526 Y46.4611 I-0.2 J0.0
G2 X171.2526 Y46.6343 I0.1 J0.1732
G1 F300.0 Z-2.7
G2 F800.0 X171.3526 Y46.8075 I0.2 J0.0
G2 X171.6526 Y46.6343 I0.1 J-0.1732
G2 X171.3526 Y46.4611 I-0.2 J0.0
G2 X171.2526 Y46.6343 I0.1 J0.1732
G1 F300.0 Z-3.0
G2 F800.0 X171.3526 Y46.8075 I0.2 J0.0
G2 X171.6526 Y46.6343 I0.1 J-0.1732
G2 X171.3526 Y46.4611 I-0.2 J0.0
G2 X171.2526 Y46.6343 I0.1 J0.1732
G1 F300.0 Z-3.3
G2 F800.0 X171.3526 Y46.8075 I0.2 J0.0
G2 X171.6526 Y46.6343 I0.1 J-0.1732
G2 X171.3526 Y46.4611 I-0.2 J0.0
G2 X171.2526 Y46.6343 I0.1 J0.1732
G1 F300.0 Z-3.6
G2 F800.0 X171.3526 Y46.8075 I0.2 J0.0
G2 X171.6526 Y46.6343 I0.1 J-0.1732
G2 X171.3526 Y46.4611 I-0.2 J0.0
G2 X171.2526 Y46.6343 I0.1 J0.1732
G1 F300.0 Z-3.9
G2 F800.0 X171.3526 Y46.8075 I0.2 J0.0
G2 X171.6526 Y46.6343 I0.1 J-0.1732
G2 X171.3526 Y46.4611 I-0.2 J0.0
G2 X171.2526 Y46.6343 I0.1 J0.1732
G1 F300.0 Z-4.2
G2 F800.0 X171.3526 Y46.8075 I0.2 J0.0
G2 X171.6526 Y46.6343 I0.1 J-0.1732
G2 X171.3526 Y46.4611 I-0.2 J0.0
G2 X171.2526 Y46.6343 I0.1 J0.1732
G1 F300.0 Z-4.5
G2 F800.0 X171.3526 Y46.8075 I0.2 J0.0
G2 X171.6526 Y46.6343 I0.1 J-0.1732
G2 X171.3526 Y46.4611 I-0.2 J0.0
G2 X171.2526 Y46.6343 I0.1 J0.1732
G1 F300.0 Z-4.8
G2 F800.0 X171.3526 Y46.8075 I0.2 J0.0
G2 X171.6526 Y46.6343 I0.1 J-0.1732
G2 X171.3526 Y46.4611 I-0.2 J0.0
G2 X171.2526 Y46.6343 I0.1 J0.1732
G1 F300.0 Z-5.1
G2 F800.0 X171.3526 Y46.8075 I0.2 J0.0
G2 X171.6526 Y46.6343 I0.1 J-0.1732
G2 X171.3526 Y46.4611 I-0.2 J0.0
G2 X171.2526 Y46.6343 I0.1 J0.1732
G1 F300.0 Z-5.3
G2 F800.0 X171.3526 Y46.8075 I0.2 J0.0
G2 X171.6526 Y46.6343 I0.1 J-0.1732
G2 X171.3526 Y46.4611 I-0.2 J0.0
G2 X171.2526 Y46.6343 I0.1 J0.1732
( Poche2 )
S1000
G0 Z3.0
G0 X197.028 Y135.2843
G0 Z1.0
G1 F300.0 Z-0.3
G2 F800.0 X199.028 Y133.2843 I0.0 J-2.0
G1 Y106.4843
G1 F300.0 Y105.2843
G1 F800.0 X197.828
G1 Y133.3843
G3 X197.6696 Y134.4843 I-3.9 J0.0
G1 X200.3863
G3 X200.228 Y133.3843 I3.7417 J-1.1
G1 Y105.2843
G1 X199.028
G1 F300.0 Y104.0843
G1 F800.0 X196.628
G1 Y133.3843
G3 X195.3422 Y135.6843 I-2.7 J0.0
G1 X202.7138
G3 X201.428 Y133.3843 I1.4142 J-2.3
G1 Y104.0843
G1 X199.028
G2 X197.028 Y106.0843 I0.0 J2.0
G0 Z3.0
G0 X171.128 Y127.6843
G0 Z1.0
G1 F300.0 Z-0.3
G2 F800.0 X169.128 Y125.6843 I-2.0 J0.0
G1 X153.728
G1 Y126.0843
G1 X169.128
G1 Y125.6843
G1 F300.0 X170.328
G1 F800.0 Y124.4843
G1 X152.528
G1 Y127.2843
G1 X170.328
G1 Y125.6843
G1 F300.0 X171.528
G1 F800.0 Y123.2843
G1 X151.328
G1 Y128.4843
G1 X171.528
G1 Y125.6843
G1 F300.0 X172.728
G1 F800.0 Y122.0843
G1 X150.128
G1 Y129.6843
G1 X172.728
G1 Y125.6843
G1 F300.0 X173.928
G1 F800.0 Y120.8843
G1 X148.928
G1 Y130.8843
G1 X173.928
G1 Y125.6843
G1 F300.0 X175.128
G1 F800.0 Y119.6843
G1 X147.728
G1 Y132.0843
G1 X175.128
G1 Y125.6843
G1 F300.0 X176.328
G1 F800.0 Y118.4843
G1 X146.528
G1 Y133.2843
G1 X176.328
G1 Y125.6843
G1 F300.0 X177.528
G1 F800.0 Y117.2843
G1 X145.328
G1 Y133.3843
G3 X145.1696 Y134.4843 I-3.9 J0.0
G1 X177.6863
G3 X177.528 Y133.3843 I3.7417 J-1.1
G1 Y125.6843
G1 F300.0 X178.728
G1 F800.0 Y116.0843
G1 X144.128
G1 Y133.3843
G3 X142.8422 Y135.6843 I-2.7 J0.0
G1 X180.0138
G3 X178.728 Y133.3843 I1.4142 J-2.3
G1 Y125.6843
G1 F300.0 X179.928
G1 F800.0 Y114.8843
G1 X142.928
G1 Y133.3843
G3 X141.428 Y134.8843 I-1.5 J0.0
G1 X112.528
G1 Y136.8843
G1 X210.528
G1 Y134.8843
G1 X204.128
G3 X202.628 Y133.3843 I0.0 J-1.5
G1 Y102.8843
G1 X195.428
G1 Y133.3843
G3 X193.928 Y134.8843 I-1.5 J0.0
G1 X181.428
G3 X179.928 Y133.3843 I0.0 J-1.5
G1 Y125.6843
G2 X177.928 Y123.6843 I-2.0 J0.0
G0 Z3.0
G0 X197.028 Y135.2843
G0 Z0.7
G1 F300.0 Z-0.6
G2 F800.0 X199.028 Y133.2843 I0.0 J-2.0
G1 Y106.4843
G1 F300.0 Y105.2843
G1 F800.0 X197.828
G1 Y133.3843
G3 X197.6696 Y134.4843 I-3.9 J0.0
G1 X200.3863
G3 X200.228 Y133.3843 I3.7417 J-1.1
G1 Y105.2843
G1 X199.028
G1 F300.0 Y104.0843
G1 F800.0 X196.628
G1 Y133.3843
G3 X195.3422 Y135.6843 I-2.7 J0.0
G1 X202.7138
G3 X201.428 Y133.3843 I1.4142 J-2.3
G1 Y104.0843
G1 X199.028
G2 X197.028 Y106.0843 I0.0 J2.0
G0 Z3.0
G0 X171.128 Y127.6843
G0 Z0.7
G1 F300.0 Z-0.6
G2 F800.0 X169.128 Y125.6843 I-2.0 J0.0
G1 X153.728
G1 Y126.0843
G1 X169.128
G1 Y125.6843
G1 F300.0 X170.328
G1 F800.0 Y124.4843
G1 X152.528
G1 Y127.2843
G1 X170.328
G1 Y125.6843
G1 F300.0 X171.528
G1 F800.0 Y123.2843
G1 X151.328
G1 Y128.4843
G1 X171.528
G1 Y125.6843
G1 F300.0 X172.728
G1 F800.0 Y122.0843
G1 X150.128
G1 Y129.6843
G1 X172.728
G1 Y125.6843
G1 F300.0 X173.928
G1 F800.0 Y120.8843
G1 X148.928
G1 Y130.8843
G1 X173.928
G1 Y125.6843
G1 F300.0 X175.128
G1 F800.0 Y119.6843
G1 X147.728
G1 Y132.0843
G1 X175.128
G1 Y125.6843
G1 F300.0 X176.328
G1 F800.0 Y118.4843
G1 X146.528
G1 Y133.2843
G1 X176.328
G1 Y125.6843
G1 F300.0 X177.528
G1 F800.0 Y117.2843
G1 X145.328
G1 Y133.3843
G3 X145.1696 Y134.4843 I-3.9 J0.0
G1 X177.6863
G3 X177.528 Y133.3843 I3.7417 J-1.1
G1 Y125.6843
G1 F300.0 X178.728
G1 F800.0 Y116.0843
G1 X144.128
G1 Y133.3843
G3 X142.8422 Y135.6843 I-2.7 J0.0
G1 X180.0138
G3 X178.728 Y133.3843 I1.4142 J-2.3
G1 Y125.6843
G1 F300.0 X179.928
G1 F800.0 Y114.8843
G1 X142.928
G1 Y133.3843
G3 X141.428 Y134.8843 I-1.5 J0.0
G1 X112.528
G1 Y136.8843
G1 X210.528
G1 Y134.8843
G1 X204.128
G3 X202.628 Y133.3843 I0.0 J-1.5
G1 Y102.8843
G1 X195.428
G1 Y133.3843
G3 X193.928 Y134.8843 I-1.5 J0.0
G1 X181.428
G3 X179.928 Y133.3843 I0.0 J-1.5
G1 Y125.6843
G2 X177.928 Y123.6843 I-2.0 J0.0
G0 Z3.0
G0 X197.028 Y135.2843
G0 Z0.4
G1 F300.0 Z-0.9
G2 F800.0 X199.028 Y133.2843 I0.0 J-2.0
G1 Y106.4843
G1 F300.0 Y105.2843
G1 F800.0 X197.828
G1 Y133.3843
G3 X197.6696 Y134.4843 I-3.9 J0.0
G1 X200.3863
G3 X200.228 Y133.3843 I3.7417 J-1.1
G1 Y105.2843
G1 X199.028
G1 F300.0 Y104.0843
G1 F800.0 X196.628
G1 Y133.3843
G3 X195.3422 Y135.6843 I-2.7 J0.0
G1 X202.7138
G3 X201.428 Y133.3843 I1.4142 J-2.3
G1 Y104.0843
G1 X199.028
G2 X197.028 Y106.0843 I0.0 J2.0
G0 Z3.0
G0 X171.128 Y127.6843
G0 Z0.4
G1 F300.0 Z-0.9
G2 F800.0 X169.128 Y125.6843 I-2.0 J0.0
G1 X153.728
G1 Y126.0843
G1 X169.128
G1 Y125.6843
G1 F300.0 X170.328
G1 F800.0 Y124.4843
G1 X152.528
G1 Y127.2843
G1 X170.328
G1 Y125.6843
G1 F300.0 X171.528
G1 F800.0 Y123.2843
G1 X151.328
G1 Y128.4843
G1 X171.528
G1 Y125.6843
G1 F300.0 X172.728
G1 F800.0 Y122.0843
G1 X150.128
G1 Y129.6843
G1 X172.728
G1 Y125.6843
G1 F300.0 X173.928
G1 F800.0 Y120.8843
G1 X148.928
G1 Y130.8843
G1 X173.928
G1 Y125.6843
G1 F300.0 X175.128
G1 F800.0 Y119.6843
G1 X147.728
G1 Y132.0843
G1 X175.128
G1 Y125.6843
G1 F300.0 X176.328
G1 F800.0 Y118.4843
G1 X146.528
G1 Y133.2843
G1 X176.328
G1 Y125.6843
G1 F300.0 X177.528
G1 F800.0 Y117.2843
G1 X145.328
G1 Y133.3843
G3 X145.1696 Y134.4843 I-3.9 J0.0
G1 X177.6863
G3 X177.528 Y133.3843 I3.7417 J-1.1
G1 Y125.6843
G1 F300.0 X178.728
G1 F800.0 Y116.0843
G1 X144.128
G1 Y133.3843
G3 X142.8422 Y135.6843 I-2.7 J0.0
G1 X180.0138
G3 X178.728 Y133.3843 I1.4142 J-2.3
G1 Y125.6843
G1 F300.0 X179.928
G1 F800.0 Y114.8843
G1 X142.928
G1 Y133.3843
G3 X141.428 Y134.8843 I-1.5 J0.0
G1 X112.528
G1 Y136.8843
G1 X210.528
G1 Y134.8843
G1 X204.128
G3 X202.628 Y133.3843 I0.0 J-1.5
G1 Y102.8843
G1 X195.428
G1 Y133.3843
G3 X193.928 Y134.8843 I-1.5 J0.0
G1 X181.428
G3 X179.928 Y133.3843 I0.0 J-1.5
G1 Y125.6843
G2 X177.928 Y123.6843 I-2.0 J0.0
G0 Z3.0
G0 X197.028 Y135.2843
G0 Z0.1
G1 F300.0 Z-1.0
G2 F800.0 X199.028 Y133.2843 I0.0 J-2.0
G1 Y106.4843
G1 F300.0 Y105.2843
G1 F800.0 X197.828
G1 Y133.3843
G3 X197.6696 Y134.4843 I-3.9 J0.0
G1 X200.3863
G3 X200.228 Y133.3843 I3.7417 J-1.1
G1 Y105.2843
G1 X199.028
G1 F300.0 Y104.0843
G1 F800.0 X196.628
G1 Y133.3843
G3 X195.3422 Y135.6843 I-2.7 J0.0
G1 X202.7138
G3 X201.428 Y133.3843 I1.4142 J-2.3
G1 Y104.0843
G1 X199.028
G2 X197.028 Y106.0843 I0.0 J2.0
G0 Z3.0
G0 X171.128 Y127.6843
G0 Z0.1
G1 F300.0 Z-1.0
G2 F800.0 X169.128 Y125.6843 I-2.0 J0.0
G1 X153.728
G1 Y126.0843
G1 X169.128
G1 Y125.6843
G1 F300.0 X170.328
G1 F800.0 Y124.4843
G1 X152.528
G1 Y127.2843
G1 X170.328
G1 Y125.6843
G1 F300.0 X171.528
G1 F800.0 Y123.2843
G1 X151.328
G1 Y128.4843
G1 X171.528
G1 Y125.6843
G1 F300.0 X172.728
G1 F800.0 Y122.0843
G1 X150.128
G1 Y129.6843
G1 X172.728
G1 Y125.6843
G1 F300.0 X173.928
G1 F800.0 Y120.8843
G1 X148.928
G1 Y130.8843
G1 X173.928
G1 Y125.6843
G1 F300.0 X175.128
G1 F800.0 Y119.6843
G1 X147.728
G1 Y132.0843
G1 X175.128
G1 Y125.6843
G1 F300.0 X176.328
G1 F800.0 Y118.4843
G1 X146.528
G1 Y133.2843
G1 X176.328
G1 Y125.6843
G1 F300.0 X177.528
G1 F800.0 Y117.2843
G1 X145.328
G1 Y133.3843
G3 X145.1696 Y134.4843 I-3.9 J0.0
G1 X177.6863
G3 X177.528 Y133.3843 I3.7417 J-1.1
G1 Y125.6843
G1 F300.0 X178.728
G1 F800.0 Y116.0843
G1 X144.128
G1 Y133.3843
G3 X142.8422 Y135.6843 I-2.7 J0.0
G1 X180.0138
G3 X178.728 Y133.3843 I1.4142 J-2.3
G1 Y125.6843
G1 F300.0 X179.928
G1 F800.0 Y114.8843
G1 X142.928
G1 Y133.3843
G3 X141.428 Y134.8843 I-1.5 J0.0
G1 X112.528
G1 Y136.8843
G1 X210.528
G1 Y134.8843
G1 X204.128
G3 X202.628 Y133.3843 I0.0 J-1.5
G1 Y102.8843
G1 X195.428
G1 Y133.3843
G3 X193.928 Y134.8843 I-1.5 J0.0
G1 X181.428
G3 X179.928 Y133.3843 I0.0 J-1.5
G1 Y125.6843
G2 X177.928 Y123.6843 I-2.0 J0.0
( Contour2 )
S1000
G0 Z3.0
G0 X151.3034 Y120.1343
G0 Z1.0
G1 F300.0 Z-0.3
G2 F800.0 X151.0034 Y119.9611 I-0.2 J0.0
G2 Y120.3075 I0.1 J0.1732
G2 X151.3034 Y120.1343 I0.1 J-0.1732
G1 F300.0 Z-0.6
G2 F800.0 X151.0034 Y119.9611 I-0.2 J0.0
G2 Y120.3075 I0.1 J0.1732
G2 X151.3034 Y120.1343 I0.1 J-0.1732
G1 F300.0 Z-0.9
G2 F800.0 X151.0034 Y119.9611 I-0.2 J0.0
G2 Y120.3075 I0.1 J0.1732
G2 X151.3034 Y120.1343 I0.1 J-0.1732
G1 F300.0 Z-1.2
G2 F800.0 X151.0034 Y119.9611 I-0.2 J0.0
G2 Y120.3075 I0.1 J0.1732
G2 X151.3034 Y120.1343 I0.1 J-0.1732
G1 F300.0 Z-1.5
G2 F800.0 X151.0034 Y119.9611 I-0.2 J0.0
G2 Y120.3075 I0.1 J0.1732
G2 X151.3034 Y120.1343 I0.1 J-0.1732
G1 F300.0 Z-1.8
G2 F800.0 X151.0034 Y119.9611 I-0.2 J0.0
G2 Y120.3075 I0.1 J0.1732
G2 X151.3034 Y120.1343 I0.1 J-0.1732
G1 F300.0 Z-2.1
G2 F800.0 X151.0034 Y119.9611 I-0.2 J0.0
G2 Y120.3075 I0.1 J0.1732
G2 X151.3034 Y120.1343 I0.1 J-0.1732
G1 F300.0 Z-2.4
G2 F800.0 X151.0034 Y119.9611 I-0.2 J0.0
G2 Y120.3075 I0.1 J0.1732
G2 X151.3034 Y120.1343 I0.1 J-0.1732
G1 F300.0 Z-2.7
G2 F800.0 X151.0034 Y119.9611 I-0.2 J0.0
G2 Y120.3075 I0.1 J0.1732
G2 X151.3034 Y120.1343 I0.1 J-0.1732
G1 F300.0 Z-3.0
G2 F800.0 X151.0034 Y119.9611 I-0.2 J0.0
G2 Y120.3075 I0.1 J0.1732
G2 X151.3034 Y120.1343 I0.1 J-0.1732
G1 F300.0 Z-3.3
G2 F800.0 X151.0034 Y119.9611 I-0.2 J0.0
G2 Y120.3075 I0.1 J0.1732
G2 X151.3034 Y120.1343 I0.1 J-0.1732
G1 F300.0 Z-3.6
G2 F800.0 X151.0034 Y119.9611 I-0.2 J0.0
G2 Y120.3075 I0.1 J0.1732
G2 X151.3034 Y120.1343 I0.1 J-0.1732
G1 F300.0 Z-3.9
G2 F800.0 X151.0034 Y119.9611 I-0.2 J0.0
G2 Y120.3075 I0.1 J0.1732
G2 X151.3034 Y120.1343 I0.1 J-0.1732
G1 F300.0 Z-4.2
G2 F800.0 X151.0034 Y119.9611 I-0.2 J0.0
G2 Y120.3075 I0.1 J0.1732
G2 X151.3034 Y120.1343 I0.1 J-0.1732
G1 F300.0 Z-4.5
G2 F800.0 X151.0034 Y119.9611 I-0.2 J0.0
G2 Y120.3075 I0.1 J0.1732
G2 X151.3034 Y120.1343 I0.1 J-0.1732
G1 F300.0 Z-4.8
G2 F800.0 X151.0034 Y119.9611 I-0.2 J0.0
G2 Y120.3075 I0.1 J0.1732
G2 X151.3034 Y120.1343 I0.1 J-0.1732
G1 F300.0 Z-5.1
G2 F800.0 X151.0034 Y119.9611 I-0.2 J0.0
G2 Y120.3075 I0.1 J0.1732
G2 X151.3034 Y120.1343 I0.1 J-0.1732
G1 F300.0 Z-5.3
G2 F800.0 X151.0034 Y119.9611 I-0.2 J0.0
G2 Y120.3075 I0.1 J0.1732
G2 X151.3034 Y120.1343 I0.1 J-0.1732
G0 Z3.0
G0 X171.5526
G0 Z1.0
G1 F300.0 Z-0.3
G2 F800.0 X171.6526 Y120.3075 I0.2 J0.0
G2 X171.9526 Y120.1343 I0.1 J-0.1732
G2 X171.6526 Y119.9611 I-0.2 J0.0
G2 X171.5526 Y120.1343 I0.1 J0.1732
G1 F300.0 Z-0.6
G2 F800.0 X171.6526 Y120.3075 I0.2 J0.0
G2 X171.9526 Y120.1343 I0.1 J-0.1732
G2 X171.6526 Y119.9611 I-0.2 J0.0
G2 X171.5526 Y120.1343 I0.1 J0.1732
G1 F300.0 Z-0.9
G2 F800.0 X171.6526 Y120.3075 I0.2 J0.0
G2 X171.9526 Y120.1343 I0.1 J-0.1732
G2 X171.6526 Y119.9611 I-0.2 J0.0
G2 X171.5526 Y120.1343 I0.1 J0.1732
G1 F300.0 Z-1.2
G2 F800.0 X171.6526 Y120.3075 I0.2 J0.0
G2 X171.9526 Y120.1343 I0.1 J-0.1732
G2 X171.6526 Y119.9611 I-0.2 J0.0
G2 X171.5526 Y120.1343 I0.1 J0.1732
G1 F300.0 Z-1.5
G2 F800.0 X171.6526 Y120.3075 I0.2 J0.0
G2 X171.9526 Y120.1343 I0.1 J-0.1732
G2 X171.6526 Y119.9611 I-0.2 J0.0
G2 X171.5526 Y120.1343 I0.1 J0.1732
G1 F300.0 Z-1.8
G2 F800.0 X171.6526 Y120.3075 I0.2 J0.0
G2 X171.9526 Y120.1343 I0.1 J-0.1732
G2 X171.6526 Y119.9611 I-0.2 J0.0
G2 X171.5526 Y120.1343 I0.1 J0.1732
G1 F300.0 Z-2.1
G2 F800.0 X171.6526 Y120.3075 I0.2 J0.0
G2 X171.9526 Y120.1343 I0.1 J-0.1732
G2 X171.6526 Y119.9611 I-0.2 J0.0
G2 X171.5526 Y120.1343 I0.1 J0.1732
G1 F300.0 Z-2.4
G2 F800.0 X171.6526 Y120.3075 I0.2 J0.0
G2 X171.9526 Y120.1343 I0.1 J-0.1732
G2 X171.6526 Y119.9611 I-0.2 J0.0
G2 X171.5526 Y120.1343 I0.1 J0.1732
G1 F300.0 Z-2.7
G2 F800.0 X171.6526 Y120.3075 I0.2 J0.0
G2 X171.9526 Y120.1343 I0.1 J-0.1732
G2 X171.6526 Y119.9611 I-0.2 J0.0
G2 X171.5526 Y120.1343 I0.1 J0.1732
G1 F300.0 Z-3.0
G2 F800.0 X171.6526 Y120.3075 I0.2 J0.0
G2 X171.9526 Y120.1343 I0.1 J-0.1732
G2 X171.6526 Y119.9611 I-0.2 J0.0
G2 X171.5526 Y120.1343 I0.1 J0.1732
G1 F300.0 Z-3.3
G2 F800.0 X171.6526 Y120.3075 I0.2 J0.0
G2 X171.9526 Y120.1343 I0.1 J-0.1732
G2 X171.6526 Y119.9611 I-0.2 J0.0
G2 X171.5526 Y120.1343 I0.1 J0.1732
G1 F300.0 Z-3.6
G2 F800.0 X171.6526 Y120.3075 I0.2 J0.0
G2 X171.9526 Y120.1343 I0.1 J-0.1732
G2 X171.6526 Y119.9611 I-0.2 J0.0
G2 X171.5526 Y120.1343 I0.1 J0.1732
G1 F300.0 Z-3.9
G2 F800.0 X171.6526 Y120.3075 I0.2 J0.0
G2 X171.9526 Y120.1343 I0.1 J-0.1732
G2 X171.6526 Y119.9611 I-0.2 J0.0
G2 X171.5526 Y120.1343 I0.1 J0.1732
G1 F300.0 Z-4.2
G2 F800.0 X171.6526 Y120.3075 I0.2 J0.0
G2 X171.9526 Y120.1343 I0.1 J-0.1732
G2 X171.6526 Y119.9611 I-0.2 J0.0
G2 X171.5526 Y120.1343 I0.1 J0.1732
G1 F300.0 Z-4.5
G2 F800.0 X171.6526 Y120.3075 I0.2 J0.0
G2 X171.9526 Y120.1343 I0.1 J-0.1732
G2 X171.6526 Y119.9611 I-0.2 J0.0
G2 X171.5526 Y120.1343 I0.1 J0.1732
G1 F300.0 Z-4.8
G2 F800.0 X171.6526 Y120.3075 I0.2 J0.0
G2 X171.9526 Y120.1343 I0.1 J-0.1732
G2 X171.6526 Y119.9611 I-0.2 J0.0
G2 X171.5526 Y120.1343 I0.1 J0.1732
G1 F300.0 Z-5.1
G2 F800.0 X171.6526 Y120.3075 I0.2 J0.0
G2 X171.9526 Y120.1343 I0.1 J-0.1732
G2 X171.6526 Y119.9611 I-0.2 J0.0
G2 X171.5526 Y120.1343 I0.1 J0.1732
G1 F300.0 Z-5.3
G2 F800.0 X171.6526 Y120.3075 I0.2 J0.0
G2 X171.9526 Y120.1343 I0.1 J-0.1732
G2 X171.6526 Y119.9611 I-0.2 J0.0
G2 X171.5526 Y120.1343 I0.1 J0.1732
( Contour4 )
S1000
G0 Z3.0
G0 X234.228 Y125.4976
G0 Z1.0
G1 F300.0 Z-0.3
G2 F800.0 X233.928 Y125.3244 I-0.2 J0.0
G2 Y125.6708 I0.1 J0.1732
G2 X234.228 Y125.4976 I0.1 J-0.1732
G1 F300.0 Z-0.6
G2 F800.0 X233.928 Y125.3244 I-0.2 J0.0
G2 Y125.6708 I0.1 J0.1732
G2 X234.228 Y125.4976 I0.1 J-0.1732
G1 F300.0 Z-0.9
G2 F800.0 X233.928 Y125.3244 I-0.2 J0.0
G2 Y125.6708 I0.1 J0.1732
G2 X234.228 Y125.4976 I0.1 J-0.1732
G1 F300.0 Z-1.2
G2 F800.0 X233.928 Y125.3244 I-0.2 J0.0
G2 Y125.6708 I0.1 J0.1732
G2 X234.228 Y125.4976 I0.1 J-0.1732
G1 F300.0 Z-1.5
G2 F800.0 X233.928 Y125.3244 I-0.2 J0.0
G2 Y125.6708 I0.1 J0.1732
G2 X234.228 Y125.4976 I0.1 J-0.1732
G1 F300.0 Z-1.8
G2 F800.0 X233.928 Y125.3244 I-0.2 J0.0
G2 Y125.6708 I0.1 J0.1732
G2 X234.228 Y125.4976 I0.1 J-0.1732
G1 F300.0 Z-2.1
G2 F800.0 X233.928 Y125.3244 I-0.2 J0.0
G2 Y125.6708 I0.1 J0.1732
G2 X234.228 Y125.4976 I0.1 J-0.1732
G1 F300.0 Z-2.4
G2 F800.0 X233.928 Y125.3244 I-0.2 J0.0
G2 Y125.6708 I0.1 J0.1732
G2 X234.228 Y125.4976 I0.1 J-0.1732
G1 F300.0 Z-2.7
G2 F800.0 X233.928 Y125.3244 I-0.2 J0.0
G2 Y125.6708 I0.1 J0.1732
G2 X234.228 Y125.4976 I0.1 J-0.1732
G1 F300.0 Z-3.0
G2 F800.0 X233.928 Y125.3244 I-0.2 J0.0
G2 Y125.6708 I0.1 J0.1732
G2 X234.228 Y125.4976 I0.1 J-0.1732
G1 F300.0 Z-3.3
G2 F800.0 X233.928 Y125.3244 I-0.2 J0.0
G2 Y125.6708 I0.1 J0.1732
G2 X234.228 Y125.4976 I0.1 J-0.1732
G1 F300.0 Z-3.6
G2 F800.0 X233.928 Y125.3244 I-0.2 J0.0
G2 Y125.6708 I0.1 J0.1732
G2 X234.228 Y125.4976 I0.1 J-0.1732
G1 F300.0 Z-3.9
G2 F800.0 X233.928 Y125.3244 I-0.2 J0.0
G2 Y125.6708 I0.1 J0.1732
G2 X234.228 Y125.4976 I0.1 J-0.1732
G1 F300.0 Z-4.2
G2 F800.0 X233.928 Y125.3244 I-0.2 J0.0
G2 Y125.6708 I0.1 J0.1732
G2 X234.228 Y125.4976 I0.1 J-0.1732
G1 F300.0 Z-4.5
G2 F800.0 X233.928 Y125.3244 I-0.2 J0.0
G2 Y125.6708 I0.1 J0.1732
G2 X234.228 Y125.4976 I0.1 J-0.1732
G1 F300.0 Z-4.8
G2 F800.0 X233.928 Y125.3244 I-0.2 J0.0
G2 Y125.6708 I0.1 J0.1732
G2 X234.228 Y125.4976 I0.1 J-0.1732
G1 F300.0 Z-5.1
G2 F800.0 X233.928 Y125.3244 I-0.2 J0.0
G2 Y125.6708 I0.1 J0.1732
G2 X234.228 Y125.4976 I0.1 J-0.1732
G1 F300.0 Z-5.3
G2 F800.0 X233.928 Y125.3244 I-0.2 J0.0
G2 Y125.6708 I0.1 J0.1732
G2 X234.228 Y125.4976 I0.1 J-0.1732
G0 Z3.0
G0 X234.0285 Y41.4711
G0 Z1.0
G1 F300.0 Z-0.3
G2 F800.0 X234.228 Y41.2711 I-0.0005 J-0.2
G2 X233.928 Y41.0979 I-0.2 J0.0
G2 Y41.4443 I0.1 J0.1732
G2 X234.0285 Y41.4711 I0.1 J-0.1732
G1 F300.0 Z-0.6
G2 F800.0 X234.228 Y41.2711 I-0.0005 J-0.2
G2 X233.928 Y41.0979 I-0.2 J0.0
G2 Y41.4443 I0.1 J0.1732
G2 X234.0285 Y41.4711 I0.1 J-0.1732
G1 F300.0 Z-0.9
G2 F800.0 X234.228 Y41.2711 I-0.0005 J-0.2
G2 X233.928 Y41.0979 I-0.2 J0.0
G2 Y41.4443 I0.1 J0.1732
G2 X234.0285 Y41.4711 I0.1 J-0.1732
G1 F300.0 Z-1.2
G2 F800.0 X234.228 Y41.2711 I-0.0005 J-0.2
G2 X233.928 Y41.0979 I-0.2 J0.0
G2 Y41.4443 I0.1 J0.1732
G2 X234.0285 Y41.4711 I0.1 J-0.1732
G1 F300.0 Z-1.5
G2 F800.0 X234.228 Y41.2711 I-0.0005 J-0.2
G2 X233.928 Y41.0979 I-0.2 J0.0
G2 Y41.4443 I0.1 J0.1732
G2 X234.0285 Y41.4711 I0.1 J-0.1732
G1 F300.0 Z-1.8
G2 F800.0 X234.228 Y41.2711 I-0.0005 J-0.2
G2 X233.928 Y41.0979 I-0.2 J0.0
G2 Y41.4443 I0.1 J0.1732
G2 X234.0285 Y41.4711 I0.1 J-0.1732
G1 F300.0 Z-2.1
G2 F800.0 X234.228 Y41.2711 I-0.0005 J-0.2
G2 X233.928 Y41.0979 I-0.2 J0.0
G2 Y41.4443 I0.1 J0.1732
G2 X234.0285 Y41.4711 I0.1 J-0.1732
G1 F300.0 Z-2.4
G2 F800.0 X234.228 Y41.2711 I-0.0005 J-0.2
G2 X233.928 Y41.0979 I-0.2 J0.0
G2 Y41.4443 I0.1 J0.1732
G2 X234.0285 Y41.4711 I0.1 J-0.1732
G1 F300.0 Z-2.7
G2 F800.0 X234.228 Y41.2711 I-0.0005 J-0.2
G2 X233.928 Y41.0979 I-0.2 J0.0
G2 Y41.4443 I0.1 J0.1732
G2 X234.0285 Y41.4711 I0.1 J-0.1732
G1 F300.0 Z-3.0
G2 F800.0 X234.228 Y41.2711 I-0.0005 J-0.2
G2 X233.928 Y41.0979 I-0.2 J0.0
G2 Y41.4443 I0.1 J0.1732
G2 X234.0285 Y41.4711 I0.1 J-0.1732
G1 F300.0 Z-3.3
G2 F800.0 X234.228 Y41.2711 I-0.0005 J-0.2
G2 X233.928 Y41.0979 I-0.2 J0.0
G2 Y41.4443 I0.1 J0.1732
G2 X234.0285 Y41.4711 I0.1 J-0.1732
G1 F300.0 Z-3.6
G2 F800.0 X234.228 Y41.2711 I-0.0005 J-0.2
G2 X233.928 Y41.0979 I-0.2 J0.0
G2 Y41.4443 I0.1 J0.1732
G2 X234.0285 Y41.4711 I0.1 J-0.1732
G1 F300.0 Z-3.9
G2 F800.0 X234.228 Y41.2711 I-0.0005 J-0.2
G2 X233.928 Y41.0979 I-0.2 J0.0
G2 Y41.4443 I0.1 J0.1732
G2 X234.0285 Y41.4711 I0.1 J-0.1732
G1 F300.0 Z-4.2
G2 F800.0 X234.228 Y41.2711 I-0.0005 J-0.2
G2 X233.928 Y41.0979 I-0.2 J0.0
G2 Y41.4443 I0.1 J0.1732
G2 X234.0285 Y41.4711 I0.1 J-0.1732
G1 F300.0 Z-4.5
G2 F800.0 X234.228 Y41.2711 I-0.0005 J-0.2
G2 X233.928 Y41.0979 I-0.2 J0.0
G2 Y41.4443 I0.1 J0.1732
G2 X234.0285 Y41.4711 I0.1 J-0.1732
G1 F300.0 Z-4.8
G2 F800.0 X234.228 Y41.2711 I-0.0005 J-0.2
G2 X233.928 Y41.0979 I-0.2 J0.0
G2 Y41.4443 I0.1 J0.1732
G2 X234.0285 Y41.4711 I0.1 J-0.1732
G1 F300.0 Z-5.1
G2 F800.0 X234.228 Y41.2711 I-0.0005 J-0.2
G2 X233.928 Y41.0979 I-0.2 J0.0
G2 Y41.4443 I0.1 J0.1732
G2 X234.0285 Y41.4711 I0.1 J-0.1732
G1 F300.0 Z-5.3
G2 F800.0 X234.228 Y41.2711 I-0.0005 J-0.2
G2 X233.928 Y41.0979 I-0.2 J0.0
G2 Y41.4443 I0.1 J0.1732
G2 X234.0285 Y41.4711 I0.1 J-0.1732
G0 Z3.0
G0 X99.228 Y41.2714
G0 Z1.0
G1 F300.0 Z-0.3
G2 F800.0 Y41.2711 I-0.2 J-0.0003
G2 X98.928 Y41.0979 I-0.2 J0.0
G2 Y41.4443 I0.1 J0.1732
G2 X99.228 Y41.2714 I0.1 J-0.1732
G1 F300.0 Z-0.6
G2 F800.0 Y41.2711 I-0.2 J-0.0003
G2 X98.928 Y41.0979 I-0.2 J0.0
G2 Y41.4443 I0.1 J0.1732
G2 X99.228 Y41.2714 I0.1 J-0.1732
G1 F300.0 Z-0.9
G2 F800.0 Y41.2711 I-0.2 J-0.0003
G2 X98.928 Y41.0979 I-0.2 J0.0
G2 Y41.4443 I0.1 J0.1732
G2 X99.228 Y41.2714 I0.1 J-0.1732
G1 F300.0 Z-1.2
G2 F800.0 Y41.2711 I-0.2 J-0.0003
G2 X98.928 Y41.0979 I-0.2 J0.0
G2 Y41.4443 I0.1 J0.1732
G2 X99.228 Y41.2714 I0.1 J-0.1732
G1 F300.0 Z-1.5
G2 F800.0 Y41.2711 I-0.2 J-0.0003
G2 X98.928 Y41.0979 I-0.2 J0.0
G2 Y41.4443 I0.1 J0.1732
G2 X99.228 Y41.2714 I0.1 J-0.1732
G1 F300.0 Z-1.8
G2 F800.0 Y41.2711 I-0.2 J-0.0003
G2 X98.928 Y41.0979 I-0.2 J0.0
G2 Y41.4443 I0.1 J0.1732
G2 X99.228 Y41.2714 I0.1 J-0.1732
G1 F300.0 Z-2.1
G2 F800.0 Y41.2711 I-0.2 J-0.0003
G2 X98.928 Y41.0979 I-0.2 J0.0
G2 Y41.4443 I0.1 J0.1732
G2 X99.228 Y41.2714 I0.1 J-0.1732
G1 F300.0 Z-2.4
G2 F800.0 Y41.2711 I-0.2 J-0.0003
G2 X98.928 Y41.0979 I-0.2 J0.0
G2 Y41.4443 I0.1 J0.1732
G2 X99.228 Y41.2714 I0.1 J-0.1732
G1 F300.0 Z-2.7
G2 F800.0 Y41.2711 I-0.2 J-0.0003
G2 X98.928 Y41.0979 I-0.2 J0.0
G2 Y41.4443 I0.1 J0.1732
G2 X99.228 Y41.2714 I0.1 J-0.1732
G1 F300.0 Z-3.0
G2 F800.0 Y41.2711 I-0.2 J-0.0003
G2 X98.928 Y41.0979 I-0.2 J0.0
G2 Y41.4443 I0.1 J0.1732
G2 X99.228 Y41.2714 I0.1 J-0.1732
G1 F300.0 Z-3.3
G2 F800.0 Y41.2711 I-0.2 J-0.0003
G2 X98.928 Y41.0979 I-0.2 J0.0
G2 Y41.4443 I0.1 J0.1732
G2 X99.228 Y41.2714 I0.1 J-0.1732
G1 F300.0 Z-3.6
G2 F800.0 Y41.2711 I-0.2 J-0.0003
G2 X98.928 Y41.0979 I-0.2 J0.0
G2 Y41.4443 I0.1 J0.1732
G2 X99.228 Y41.2714 I0.1 J-0.1732
G1 F300.0 Z-3.9
G2 F800.0 Y41.2711 I-0.2 J-0.0003
G2 X98.928 Y41.0979 I-0.2 J0.0
G2 Y41.4443 I0.1 J0.1732
G2 X99.228 Y41.2714 I0.1 J-0.1732
G1 F300.0 Z-4.2
G2 F800.0 Y41.2711 I-0.2 J-0.0003
G2 X98.928 Y41.0979 I-0.2 J0.0
G2 Y41.4443 I0.1 J0.1732
G2 X99.228 Y41.2714 I0.1 J-0.1732
G1 F300.0 Z-4.5
G2 F800.0 Y41.2711 I-0.2 J-0.0003
G2 X98.928 Y41.0979 I-0.2 J0.0
G2 Y41.4443 I0.1 J0.1732
G2 X99.228 Y41.2714 I0.1 J-0.1732
G1 F300.0 Z-4.8
G2 F800.0 Y41.2711 I-0.2 J-0.0003
G2 X98.928 Y41.0979 I-0.2 J0.0
G2 Y41.4443 I0.1 J0.1732
G2 X99.228 Y41.2714 I0.1 J-0.1732
G1 F300.0 Z-5.1
G2 F800.0 Y41.2711 I-0.2 J-0.0003
G2 X98.928 Y41.0979 I-0.2 J0.0
G2 Y41.4443 I0.1 J0.1732
G2 X99.228 Y41.2714 I0.1 J-0.1732
G1 F300.0 Z-5.3
G2 F800.0 Y41.2711 I-0.2 J-0.0003
G2 X98.928 Y41.0979 I-0.2 J0.0
G2 Y41.4443 I0.1 J0.1732
G2 X99.228 Y41.2714 I0.1 J-0.1732
G0 Z3.0
G0 X85.6101 Y34.9683
G0 Z1.0
G1 F300.0 Z-0.3
G2 F800.0 X85.6286 Y34.8843 I-0.1815 J-0.084
G2 X85.3286 Y34.7111 I-0.2 J0.0
G2 Y35.0575 I0.1 J0.1732
G2 X85.6101 Y34.9683 I0.1 J-0.1732
G1 F300.0 Z-0.6
G2 F800.0 X85.6286 Y34.8843 I-0.1815 J-0.084
G2 X85.3286 Y34.7111 I-0.2 J0.0
G2 Y35.0575 I0.1 J0.1732
G2 X85.6101 Y34.9683 I0.1 J-0.1732
G1 F300.0 Z-0.9
G2 F800.0 X85.6286 Y34.8843 I-0.1815 J-0.084
G2 X85.3286 Y34.7111 I-0.2 J0.0
G2 Y35.0575 I0.1 J0.1732
G2 X85.6101 Y34.9683 I0.1 J-0.1732
G1 F300.0 Z-1.2
G2 F800.0 X85.6286 Y34.8843 I-0.1815 J-0.084
G2 X85.3286 Y34.7111 I-0.2 J0.0
G2 Y35.0575 I0.1 J0.1732
G2 X85.6101 Y34.9683 I0.1 J-0.1732
G1 F300.0 Z-1.5
G2 F800.0 X85.6286 Y34.8843 I-0.1815 J-0.084
G2 X85.3286 Y34.7111 I-0.2 J0.0
G2 Y35.0575 I0.1 J0.1732
G2 X85.6101 Y34.9683 I0.1 J-0.1732
G1 F300.0 Z-1.8
G2 F800.0 X85.6286 Y34.8843 I-0.1815 J-0.084
G2 X85.3286 Y34.7111 I-0.2 J0.0
G2 Y35.0575 I0.1 J0.1732
G2 X85.6101 Y34.9683 I0.1 J-0.1732
G1 F300.0 Z-2.1
G2 F800.0 X85.6286 Y34.8843 I-0.1815 J-0.084
G2 X85.3286 Y34.7111 I-0.2 J0.0
G2 Y35.0575 I0.1 J0.1732
G2 X85.6101 Y34.9683 I0.1 J-0.1732
G1 F300.0 Z-2.4
G2 F800.0 X85.6286 Y34.8843 I-0.1815 J-0.084
G2 X85.3286 Y34.7111 I-0.2 J0.0
G2 Y35.0575 I0.1 J0.1732
G2 X85.6101 Y34.9683 I0.1 J-0.1732
G1 F300.0 Z-2.7
G2 F800.0 X85.6286 Y34.8843 I-0.1815 J-0.084
G2 X85.3286 Y34.7111 I-0.2 J0.0
G2 Y35.0575 I0.1 J0.1732
G2 X85.6101 Y34.9683 I0.1 J-0.1732
G1 F300.0 Z-3.0
G2 F800.0 X85.6286 Y34.8843 I-0.1815 J-0.084
G2 X85.3286 Y34.7111 I-0.2 J0.0
G2 Y35.0575 I0.1 J0.1732
G2 X85.6101 Y34.9683 I0.1 J-0.1732
G1 F300.0 Z-3.3
G2 F800.0 X85.6286 Y34.8843 I-0.1815 J-0.084
G2 X85.3286 Y34.7111 I-0.2 J0.0
G2 Y35.0575 I0.1 J0.1732
G2 X85.6101 Y34.9683 I0.1 J-0.1732
G1 F300.0 Z-3.6
G2 F800.0 X85.6286 Y34.8843 I-0.1815 J-0.084
G2 X85.3286 Y34.7111 I-0.2 J0.0
G2 Y35.0575 I0.1 J0.1732
G2 X85.6101 Y34.9683 I0.1 J-0.1732
G1 F300.0 Z-3.9
G2 F800.0 X85.6286 Y34.8843 I-0.1815 J-0.084
G2 X85.3286 Y34.7111 I-0.2 J0.0
G2 Y35.0575 I0.1 J0.1732
G2 X85.6101 Y34.9683 I0.1 J-0.1732
G1 F300.0 Z-4.2
G2 F800.0 X85.6286 Y34.8843 I-0.1815 J-0.084
G2 X85.3286 Y34.7111 I-0.2 J0.0
G2 Y35.0575 I0.1 J0.1732
G2 X85.6101 Y34.9683 I0.1 J-0.1732
G1 F300.0 Z-4.5
G2 F800.0 X85.6286 Y34.8843 I-0.1815 J-0.084
G2 X85.3286 Y34.7111 I-0.2 J0.0
G2 Y35.0575 I0.1 J0.1732
G2 X85.6101 Y34.9683 I0.1 J-0.1732
G1 F300.0 Z-4.8
G2 F800.0 X85.6286 Y34.8843 I-0.1815 J-0.084
G2 X85.3286 Y34.7111 I-0.2 J0.0
G2 Y35.0575 I0.1 J0.1732
G2 X85.6101 Y34.9683 I0.1 J-0.1732
G1 F300.0 Z-5.1
G2 F800.0 X85.6286 Y34.8843 I-0.1815 J-0.084
G2 X85.3286 Y34.7111 I-0.2 J0.0
G2 Y35.0575 I0.1 J0.1732
G2 X85.6101 Y34.9683 I0.1 J-0.1732
G1 F300.0 Z-5.3
G2 F800.0 X85.6286 Y34.8843 I-0.1815 J-0.084
G2 X85.3286 Y34.7111 I-0.2 J0.0
G2 Y35.0575 I0.1 J0.1732
G2 X85.6101 Y34.9683 I0.1 J-0.1732
G0 Z3.0
G0 X64.625 Y73.1091
G0 Z1.0
G1 F300.0 Z-0.3
G2 F800.0 X64.4286 Y73.1111 I-0.0964 J0.1752
G2 Y73.4575 I0.1 J0.1732
G2 X64.7286 Y73.2843 I0.1 J-0.1732
G2 X64.625 Y73.1091 I-0.2 J0.0
G1 F300.0 Z-0.6
G2 F800.0 X64.4286 Y73.1111 I-0.0964 J0.1752
G2 Y73.4575 I0.1 J0.1732
G2 X64.7286 Y73.2843 I0.1 J-0.1732
G2 X64.625 Y73.1091 I-0.2 J0.0
G1 F300.0 Z-0.9
G2 F800.0 X64.4286 Y73.1111 I-0.0964 J0.1752
G2 Y73.4575 I0.1 J0.1732
G2 X64.7286 Y73.2843 I0.1 J-0.1732
G2 X64.625 Y73.1091 I-0.2 J0.0
G1 F300.0 Z-1.2
G2 F800.0 X64.4286 Y73.1111 I-0.0964 J0.1752
G2 Y73.4575 I0.1 J0.1732
G2 X64.7286 Y73.2843 I0.1 J-0.1732
G2 X64.625 Y73.1091 I-0.2 J0.0
G1 F300.0 Z-1.5
G2 F800.0 X64.4286 Y73.1111 I-0.0964 J0.1752
G2 Y73.4575 I0.1 J0.1732
G2 X64.7286 Y73.2843 I0.1 J-0.1732
G2 X64.625 Y73.1091 I-0.2 J0.0
G1 F300.0 Z-1.8
G2 F800.0 X64.4286 Y73.1111 I-0.0964 J0.1752
G2 Y73.4575 I0.1 J0.1732
G2 X64.7286 Y73.2843 I0.1 J-0.1732
G2 X64.625 Y73.1091 I-0.2 J0.0
G1 F300.0 Z-2.1
G2 F800.0 X64.4286 Y73.1111 I-0.0964 J0.1752
G2 Y73.4575 I0.1 J0.1732
G2 X64.7286 Y73.2843 I0.1 J-0.1732
G2 X64.625 Y73.1091 I-0.2 J0.0
G1 F300.0 Z-2.4
G2 F800.0 X64.4286 Y73.1111 I-0.0964 J0.1752
G2 Y73.4575 I0.1 J0.1732
G2 X64.7286 Y73.2843 I0.1 J-0.1732
G2 X64.625 Y73.1091 I-0.2 J0.0
G1 F300.0 Z-2.7
G2 F800.0 X64.4286 Y73.1111 I-0.0964 J0.1752
G2 Y73.4575 I0.1 J0.1732
G2 X64.7286 Y73.2843 I0.1 J-0.1732
G2 X64.625 Y73.1091 I-0.2 J0.0
G1 F300.0 Z-3.0
G2 F800.0 X64.4286 Y73.1111 I-0.0964 J0.1752
G2 Y73.4575 I0.1 J0.1732
G2 X64.7286 Y73.2843 I0.1 J-0.1732
G2 X64.625 Y73.1091 I-0.2 J0.0
G1 F300.0 Z-3.3
G2 F800.0 X64.4286 Y73.1111 I-0.0964 J0.1752
G2 Y73.4575 I0.1 J0.1732
G2 X64.7286 Y73.2843 I0.1 J-0.1732
G2 X64.625 Y73.1091 I-0.2 J0.0
G1 F300.0 Z-3.6
G2 F800.0 X64.4286 Y73.1111 I-0.0964 J0.1752
G2 Y73.4575 I0.1 J0.1732
G2 X64.7286 Y73.2843 I0.1 J-0.1732
G2 X64.625 Y73.1091 I-0.2 J0.0
G1 F300.0 Z-3.9
G2 F800.0 X64.4286 Y73.1111 I-0.0964 J0.1752
G2 Y73.4575 I0.1 J0.1732
G2 X64.7286 Y73.2843 I0.1 J-0.1732
G2 X64.625 Y73.1091 I-0.2 J0.0
G1 F300.0 Z-4.2
G2 F800.0 X64.4286 Y73.1111 I-0.0964 J0.1752
G2 Y73.4575 I0.1 J0.1732
G2 X64.7286 Y73.2843 I0.1 J-0.1732
G2 X64.625 Y73.1091 I-0.2 J0.0
G1 F300.0 Z-4.5
G2 F800.0 X64.4286 Y73.1111 I-0.0964 J0.1752
G2 Y73.4575 I0.1 J0.1732
G2 X64.7286 Y73.2843 I0.1 J-0.1732
G2 X64.625 Y73.1091 I-0.2 J0.0
G1 F300.0 Z-4.8
G2 F800.0 X64.4286 Y73.1111 I-0.0964 J0.1752
G2 Y73.4575 I0.1 J0.1732
G2 X64.7286 Y73.2843 I0.1 J-0.1732
G2 X64.625 Y73.1091 I-0.2 J0.0
G1 F300.0 Z-5.1
G2 F800.0 X64.4286 Y73.1111 I-0.0964 J0.1752
G2 Y73.4575 I0.1 J0.1732
G2 X64.7286 Y73.2843 I0.1 J-0.1732
G2 X64.625 Y73.1091 I-0.2 J0.0
G1 F300.0 Z-5.3
G2 F800.0 X64.4286 Y73.1111 I-0.0964 J0.1752
G2 Y73.4575 I0.1 J0.1732
G2 X64.7286 Y73.2843 I0.1 J-0.1732
G2 X64.625 Y73.1091 I-0.2 J0.0
G0 Z3.0
G0 X18.5827 Y35.0118
G0 Z1.0
G1 F300.0 Z-0.3
G2 F800.0 X18.6286 Y34.8843 I-0.1541 J-0.1275
G2 X18.3286 Y34.7111 I-0.2 J0.0
G2 Y35.0575 I0.1 J0.1732
G2 X18.5827 Y35.0118 I0.1 J-0.1732
G1 F300.0 Z-0.6
G2 F800.0 X18.6286 Y34.8843 I-0.1541 J-0.1275
G2 X18.3286 Y34.7111 I-0.2 J0.0
G2 Y35.0575 I0.1 J0.1732
G2 X18.5827 Y35.0118 I0.1 J-0.1732
G1 F300.0 Z-0.9
G2 F800.0 X18.6286 Y34.8843 I-0.1541 J-0.1275
G2 X18.3286 Y34.7111 I-0.2 J0.0
G2 Y35.0575 I0.1 J0.1732
G2 X18.5827 Y35.0118 I0.1 J-0.1732
G1 F300.0 Z-1.2
G2 F800.0 X18.6286 Y34.8843 I-0.1541 J-0.1275
G2 X18.3286 Y34.7111 I-0.2 J0.0
G2 Y35.0575 I0.1 J0.1732
G2 X18.5827 Y35.0118 I0.1 J-0.1732
G1 F300.0 Z-1.5
G2 F800.0 X18.6286 Y34.8843 I-0.1541 J-0.1275
G2 X18.3286 Y34.7111 I-0.2 J0.0
G2 Y35.0575 I0.1 J0.1732
G2 X18.5827 Y35.0118 I0.1 J-0.1732
G1 F300.0 Z-1.8
G2 F800.0 X18.6286 Y34.8843 I-0.1541 J-0.1275
G2 X18.3286 Y34.7111 I-0.2 J0.0
G2 Y35.0575 I0.1 J0.1732
G2 X18.5827 Y35.0118 I0.1 J-0.1732
G1 F300.0 Z-2.1
G2 F800.0 X18.6286 Y34.8843 I-0.1541 J-0.1275
G2 X18.3286 Y34.7111 I-0.2 J0.0
G2 Y35.0575 I0.1 J0.1732
G2 X18.5827 Y35.0118 I0.1 J-0.1732
G1 F300.0 Z-2.4
G2 F800.0 X18.6286 Y34.8843 I-0.1541 J-0.1275
G2 X18.3286 Y34.7111 I-0.2 J0.0
G2 Y35.0575 I0.1 J0.1732
G2 X18.5827 Y35.0118 I0.1 J-0.1732
G1 F300.0 Z-2.7
G2 F800.0 X18.6286 Y34.8843 I-0.1541 J-0.1275
G2 X18.3286 Y34.7111 I-0.2 J0.0
G2 Y35.0575 I0.1 J0.1732
G2 X18.5827 Y35.0118 I0.1 J-0.1732
G1 F300.0 Z-3.0
G2 F800.0 X18.6286 Y34.8843 I-0.1541 J-0.1275
G2 X18.3286 Y34.7111 I-0.2 J0.0
G2 Y35.0575 I0.1 J0.1732
G2 X18.5827 Y35.0118 I0.1 J-0.1732
G1 F300.0 Z-3.3
G2 F800.0 X18.6286 Y34.8843 I-0.1541 J-0.1275
G2 X18.3286 Y34.7111 I-0.2 J0.0
G2 Y35.0575 I0.1 J0.1732
G2 X18.5827 Y35.0118 I0.1 J-0.1732
G1 F300.0 Z-3.6
G2 F800.0 X18.6286 Y34.8843 I-0.1541 J-0.1275
G2 X18.3286 Y34.7111 I-0.2 J0.0
G2 Y35.0575 I0.1 J0.1732
G2 X18.5827 Y35.0118 I0.1 J-0.1732
G1 F300.0 Z-3.9
G2 F800.0 X18.6286 Y34.8843 I-0.1541 J-0.1275
G2 X18.3286 Y34.7111 I-0.2 J0.0
G2 Y35.0575 I0.1 J0.1732
G2 X18.5827 Y35.0118 I0.1 J-0.1732
G1 F300.0 Z-4.2
G2 F800.0 X18.6286 Y34.8843 I-0.1541 J-0.1275
G2 X18.3286 Y34.7111 I-0.2 J0.0
G2 Y35.0575 I0.1 J0.1732
G2 X18.5827 Y35.0118 I0.1 J-0.1732
G1 F300.0 Z-4.5
G2 F800.0 X18.6286 Y34.8843 I-0.1541 J-0.1275
G2 X18.3286 Y34.7111 I-0.2 J0.0
G2 Y35.0575 I0.1 J0.1732
G2 X18.5827 Y35.0118 I0.1 J-0.1732
G1 F300.0 Z-4.8
G2 F800.0 X18.6286 Y34.8843 I-0.1541 J-0.1275
G2 X18.3286 Y34.7111 I-0.2 J0.0
G2 Y35.0575 I0.1 J0.1732
G2 X18.5827 Y35.0118 I0.1 J-0.1732
G1 F300.0 Z-5.1
G2 F800.0 X18.6286 Y34.8843 I-0.1541 J-0.1275
G2 X18.3286 Y34.7111 I-0.2 J0.0
G2 Y35.0575 I0.1 J0.1732
G2 X18.5827 Y35.0118 I0.1 J-0.1732
G1 F300.0 Z-5.3
G2 F800.0 X18.6286 Y34.8843 I-0.1541 J-0.1275
G2 X18.3286 Y34.7111 I-0.2 J0.0
G2 Y35.0575 I0.1 J0.1732
G2 X18.5827 Y35.0118 I0.1 J-0.1732
G0 Z3.0
G0 X39.0857 Y128.289
G0 Z1.0
G1 F300.0 Z-0.3
G2 F800.0 X39.0286 Y128.3111 I0.0429 J0.1953
G2 Y128.6575 I0.1 J0.1732
G2 X39.3286 Y128.4843 I0.1 J-0.1732
G2 X39.0857 Y128.289 I-0.2 J0.0
G1 F300.0 Z-0.6
G2 F800.0 X39.0286 Y128.3111 I0.0429 J0.1953
G2 Y128.6575 I0.1 J0.1732
G2 X39.3286 Y128.4843 I0.1 J-0.1732
G2 X39.0857 Y128.289 I-0.2 J0.0
G1 F300.0 Z-0.9
G2 F800.0 X39.0286 Y128.3111 I0.0429 J0.1953
G2 Y128.6575 I0.1 J0.1732
G2 X39.3286 Y128.4843 I0.1 J-0.1732
G2 X39.0857 Y128.289 I-0.2 J0.0
G1 F300.0 Z-1.2
G2 F800.0 X39.0286 Y128.3111 I0.0429 J0.1953
G2 Y128.6575 I0.1 J0.1732
G2 X39.3286 Y128.4843 I0.1 J-0.1732
G2 X39.0857 Y128.289 I-0.2 J0.0
G1 F300.0 Z-1.5
G2 F800.0 X39.0286 Y128.3111 I0.0429 J0.1953
G2 Y128.6575 I0.1 J0.1732
G2 X39.3286 Y128.4843 I0.1 J-0.1732
G2 X39.0857 Y128.289 I-0.2 J0.0
G1 F300.0 Z-1.8
G2 F800.0 X39.0286 Y128.3111 I0.0429 J0.1953
G2 Y128.6575 I0.1 J0.1732
G2 X39.3286 Y128.4843 I0.1 J-0.1732
G2 X39.0857 Y128.289 I-0.2 J0.0
G1 F300.0 Z-2.1
G2 F800.0 X39.0286 Y128.3111 I0.0429 J0.1953
G2 Y128.6575 I0.1 J0.1732
G2 X39.3286 Y128.4843 I0.1 J-0.1732
G2 X39.0857 Y128.289 I-0.2 J0.0
G1 F300.0 Z-2.4
G2 F800.0 X39.0286 Y128.3111 I0.0429 J0.1953
G2 Y128.6575 I0.1 J0.1732
G2 X39.3286 Y128.4843 I0.1 J-0.1732
G2 X39.0857 Y128.289 I-0.2 J0.0
G1 F300.0 Z-2.7
G2 F800.0 X39.0286 Y128.3111 I0.0429 J0.1953
G2 Y128.6575 I0.1 J0.1732
G2 X39.3286 Y128.4843 I0.1 J-0.1732
G2 X39.0857 Y128.289 I-0.2 J0.0
G1 F300.0 Z-3.0
G2 F800.0 X39.0286 Y128.3111 I0.0429 J0.1953
G2 Y128.6575 I0.1 J0.1732
G2 X39.3286 Y128.4843 I0.1 J-0.1732
G2 X39.0857 Y128.289 I-0.2 J0.0
G1 F300.0 Z-3.3
G2 F800.0 X39.0286 Y128.3111 I0.0429 J0.1953
G2 Y128.6575 I0.1 J0.1732
G2 X39.3286 Y128.4843 I0.1 J-0.1732
G2 X39.0857 Y128.289 I-0.2 J0.0
G1 F300.0 Z-3.6
G2 F800.0 X39.0286 Y128.3111 I0.0429 J0.1953
G2 Y128.6575 I0.1 J0.1732
G2 X39.3286 Y128.4843 I0.1 J-0.1732
G2 X39.0857 Y128.289 I-0.2 J0.0
G1 F300.0 Z-3.9
G2 F800.0 X39.0286 Y128.3111 I0.0429 J0.1953
G2 Y128.6575 I0.1 J0.1732
G2 X39.3286 Y128.4843 I0.1 J-0.1732
G2 X39.0857 Y128.289 I-0.2 J0.0
G1 F300.0 Z-4.2
G2 F800.0 X39.0286 Y128.3111 I0.0429 J0.1953
G2 Y128.6575 I0.1 J0.1732
G2 X39.3286 Y128.4843 I0.1 J-0.1732
G2 X39.0857 Y128.289 I-0.2 J0.0
G1 F300.0 Z-4.5
G2 F800.0 X39.0286 Y128.3111 I0.0429 J0.1953
G2 Y128.6575 I0.1 J0.1732
G2 X39.3286 Y128.4843 I0.1 J-0.1732
G2 X39.0857 Y128.289 I-0.2 J0.0
G1 F300.0 Z-4.8
G2 F800.0 X39.0286 Y128.3111 I0.0429 J0.1953
G2 Y128.6575 I0.1 J0.1732
G2 X39.3286 Y128.4843 I0.1 J-0.1732
G2 X39.0857 Y128.289 I-0.2 J0.0
G1 F300.0 Z-5.1
G2 F800.0 X39.0286 Y128.3111 I0.0429 J0.1953
G2 Y128.6575 I0.1 J0.1732
G2 X39.3286 Y128.4843 I0.1 J-0.1732
G2 X39.0857 Y128.289 I-0.2 J0.0
G1 F300.0 Z-5.3
G2 F800.0 X39.0286 Y128.3111 I0.0429 J0.1953
G2 Y128.6575 I0.1 J0.1732
G2 X39.3286 Y128.4843 I0.1 J-0.1732
G2 X39.0857 Y128.289 I-0.2 J0.0
G0 Z3.0
G0 X98.8282 Y125.5069
G0 Z1.0
G1 F300.0 Z-0.3
G2 F800.0 X98.928 Y125.6708 I0.1998 J-0.0093
G2 X99.228 Y125.4976 I0.1 J-0.1732
G2 X98.928 Y125.3244 I-0.2 J0.0
G2 X98.8282 Y125.5069 I0.1 J0.1732
G1 F300.0 Z-0.6
G2 F800.0 X98.928 Y125.6708 I0.1998 J-0.0093
G2 X99.228 Y125.4976 I0.1 J-0.1732
G2 X98.928 Y125.3244 I-0.2 J0.0
G2 X98.8282 Y125.5069 I0.1 J0.1732
G1 F300.0 Z-0.9
G2 F800.0 X98.928 Y125.6708 I0.1998 J-0.0093
G2 X99.228 Y125.4976 I0.1 J-0.1732
G2 X98.928 Y125.3244 I-0.2 J0.0
G2 X98.8282 Y125.5069 I0.1 J0.1732
G1 F300.0 Z-1.2
G2 F800.0 X98.928 Y125.6708 I0.1998 J-0.0093
G2 X99.228 Y125.4976 I0.1 J-0.1732
G2 X98.928 Y125.3244 I-0.2 J0.0
G2 X98.8282 Y125.5069 I0.1 J0.1732
G1 F300.0 Z-1.5
G2 F800.0 X98.928 Y125.6708 I0.1998 J-0.0093
G2 X99.228 Y125.4976 I0.1 J-0.1732
G2 X98.928 Y125.3244 I-0.2 J0.0
G2 X98.8282 Y125.5069 I0.1 J0.1732
G1 F300.0 Z-1.8
G2 F800.0 X98.928 Y125.6708 I0.1998 J-0.0093
G2 X99.228 Y125.4976 I0.1 J-0.1732
G2 X98.928 Y125.3244 I-0.2 J0.0
G2 X98.8282 Y125.5069 I0.1 J0.1732
G1 F300.0 Z-2.1
G2 F800.0 X98.928 Y125.6708 I0.1998 J-0.0093
G2 X99.228 Y125.4976 I0.1 J-0.1732
G2 X98.928 Y125.3244 I-0.2 J0.0
G2 X98.8282 Y125.5069 I0.1 J0.1732
G1 F300.0 Z-2.4
G2 F800.0 X98.928 Y125.6708 I0.1998 J-0.0093
G2 X99.228 Y125.4976 I0.1 J-0.1732
G2 X98.928 Y125.3244 I-0.2 J0.0
G2 X98.8282 Y125.5069 I0.1 J0.1732
G1 F300.0 Z-2.7
G2 F800.0 X98.928 Y125.6708 I0.1998 J-0.0093
G2 X99.228 Y125.4976 I0.1 J-0.1732
G2 X98.928 Y125.3244 I-0.2 J0.0
G2 X98.8282 Y125.5069 I0.1 J0.1732
G1 F300.0 Z-3.0
G2 F800.0 X98.928 Y125.6708 I0.1998 J-0.0093
G2 X99.228 Y125.4976 I0.1 J-0.1732
G2 X98.928 Y125.3244 I-0.2 J0.0
G2 X98.8282 Y125.5069 I0.1 J0.1732
G1 F300.0 Z-3.3
G2 F800.0 X98.928 Y125.6708 I0.1998 J-0.0093
G2 X99.228 Y125.4976 I0.1 J-0.1732
G2 X98.928 Y125.3244 I-0.2 J0.0
G2 X98.8282 Y125.5069 I0.1 J0.1732
G1 F300.0 Z-3.6
G2 F800.0 X98.928 Y125.6708 I0.1998 J-0.0093
G2 X99.228 Y125.4976 I0.1 J-0.1732
G2 X98.928 Y125.3244 I-0.2 J0.0
G2 X98.8282 Y125.5069 I0.1 J0.1732
G1 F300.0 Z-3.9
G2 F800.0 X98.928 Y125.6708 I0.1998 J-0.0093
G2 X99.228 Y125.4976 I0.1 J-0.1732
G2 X98.928 Y125.3244 I-0.2 J0.0
G2 X98.8282 Y125.5069 I0.1 J0.1732
G1 F300.0 Z-4.2
G2 F800.0 X98.928 Y125.6708 I0.1998 J-0.0093
G2 X99.228 Y125.4976 I0.1 J-0.1732
G2 X98.928 Y125.3244 I-0.2 J0.0
G2 X98.8282 Y125.5069 I0.1 J0.1732
G1 F300.0 Z-4.5
G2 F800.0 X98.928 Y125.6708 I0.1998 J-0.0093
G2 X99.228 Y125.4976 I0.1 J-0.1732
G2 X98.928 Y125.3244 I-0.2 J0.0
G2 X98.8282 Y125.5069 I0.1 J0.1732
G1 F300.0 Z-4.8
G2 F800.0 X98.928 Y125.6708 I0.1998 J-0.0093
G2 X99.228 Y125.4976 I0.1 J-0.1732
G2 X98.928 Y125.3244 I-0.2 J0.0
G2 X98.8282 Y125.5069 I0.1 J0.1732
G1 F300.0 Z-5.1
G2 F800.0 X98.928 Y125.6708 I0.1998 J-0.0093
G2 X99.228 Y125.4976 I0.1 J-0.1732
G2 X98.928 Y125.3244 I-0.2 J0.0
G2 X98.8282 Y125.5069 I0.1 J0.1732
G1 F300.0 Z-5.3
G2 F800.0 X98.928 Y125.6708 I0.1998 J-0.0093
G2 X99.228 Y125.4976 I0.1 J-0.1732
G2 X98.928 Y125.3244 I-0.2 J0.0
G2 X98.8282 Y125.5069 I0.1 J0.1732
( Contour5 )
S1000
G0 Z3.0
G0 X266.5542 Y161.7954
G0 Z1.0
G1 F300.0 Z-0.3
G2 F800.0 X262.9016 Y159.6371 I-2.9055 J0.7471
G1 X241.9016 Y165.0371
G3 X240.028 Y163.5843 I-0.3736 J-1.4527
G2 X216.328 Y139.8843 I-23.7 J0.0
G1 X106.728
G2 X83.028 Y163.5843 I0.0 J23.7
G3 X81.528 Y165.0843 I-1.5 J0.0
G1 X51.528
G3 X50.9511 Y164.969 I0.0 J-1.5
G1 X8.9511 Y147.469
G3 X8.1434 Y146.6613 I0.5769 J-1.3846
G1 X1.8934 Y131.6613
G3 X1.778 Y131.0843 I1.3846 J-0.5769
G1 Y35.6843
G3 X1.8934 Y35.1074 I1.5 J0.0
G1 X8.1434 Y20.1074
G3 X8.9511 Y19.2997 I1.3846 J0.5769
G1 X50.9511 Y1.7997
G3 X51.528 Y1.6843 I0.5769 J1.3846
G1 X81.528
G3 X83.028 Y3.1843 I0.0 J1.5
G2 X106.728 Y26.8843 I23.7 J0.0
G1 X216.328
G2 X240.028 Y3.1843 I0.0 J-23.7
G3 X241.8754 Y1.7251 I1.5 J0.0
G1 X262.8754 Y6.7251
G3 X263.3047 Y6.9011 I-0.3474 J1.4592
G1 X301.3047 Y29.9011
G3 X301.5975 Y30.1326 I-0.7767 J1.2833
G1 X331.0975 Y60.1326
G3 X331.528 Y61.1843 I-1.0695 J1.0517
G1 Y105.6843
G3 X331.0887 Y106.745 I-1.5 J0.0
G1 X301.5887 Y136.245
G3 X301.3047 Y136.4676 I-1.0607 J-1.0607
G1 X263.3047 Y159.4676
G3 X262.9016 Y159.6371 I-0.7767 J-1.2833
G2 X260.7432 Y163.2897 I0.7471 J2.9055
G0 Z3.0
G0 X266.5542 Y161.7954
G0 Z0.7
G1 F300.0 Z-0.6
G2 F800.0 X262.9016 Y159.6371 I-2.9055 J0.7471
G1 X241.9016 Y165.0371
G3 X240.028 Y163.5843 I-0.3736 J-1.4527
G2 X216.328 Y139.8843 I-23.7 J0.0
G1 X106.728
G2 X83.028 Y163.5843 I0.0 J23.7
G3 X81.528 Y165.0843 I-1.5 J0.0
G1 X51.528
G3 X50.9511 Y164.969 I0.0 J-1.5
G1 X8.9511 Y147.469
G3 X8.1434 Y146.6613 I0.5769 J-1.3846
G1 X1.8934 Y131.6613
G3 X1.778 Y131.0843 I1.3846 J-0.5769
G1 Y35.6843
G3 X1.8934 Y35.1074 I1.5 J0.0
G1 X8.1434 Y20.1074
G3 X8.9511 Y19.2997 I1.3846 J0.5769
G1 X50.9511 Y1.7997
G3 X51.528 Y1.6843 I0.5769 J1.3846
G1 X81.528
G3 X83.028 Y3.1843 I0.0 J1.5
G2 X106.728 Y26.8843 I23.7 J0.0
G1 X216.328
G2 X240.028 Y3.1843 I0.0 J-23.7
G3 X241.8754 Y1.7251 I1.5 J0.0
G1 X262.8754 Y6.7251
G3 X263.3047 Y6.9011 I-0.3474 J1.4592
G1 X301.3047 Y29.9011
G3 X301.5975 Y30.1326 I-0.7767 J1.2833
G1 X331.0975 Y60.1326
G3 X331.528 Y61.1843 I-1.0695 J1.0517
G1 Y105.6843
G3 X331.0887 Y106.745 I-1.5 J0.0
G1 X301.5887 Y136.245
G3 X301.3047 Y136.4676 I-1.0607 J-1.0607
G1 X263.3047 Y159.4676
G3 X262.9016 Y159.6371 I-0.7767 J-1.2833
G2 X260.7432 Y163.2897 I0.7471 J2.9055
G0 Z3.0
G0 X266.5542 Y161.7954
G0 Z0.4
G1 F300.0 Z-0.9
G2 F800.0 X262.9016 Y159.6371 I-2.9055 J0.7471
G1 X241.9016 Y165.0371
G3 X240.028 Y163.5843 I-0.3736 J-1.4527
G2 X216.328 Y139.8843 I-23.7 J0.0
G1 X106.728
G2 X83.028 Y163.5843 I0.0 J23.7
G3 X81.528 Y165.0843 I-1.5 J0.0
G1 X51.528
G3 X50.9511 Y164.969 I0.0 J-1.5
G1 X8.9511 Y147.469
G3 X8.1434 Y146.6613 I0.5769 J-1.3846
G1 X1.8934 Y131.6613
G3 X1.778 Y131.0843 I1.3846 J-0.5769
G1 Y35.6843
G3 X1.8934 Y35.1074 I1.5 J0.0
G1 X8.1434 Y20.1074
G3 X8.9511 Y19.2997 I1.3846 J0.5769
G1 X50.9511 Y1.7997
G3 X51.528 Y1.6843 I0.5769 J1.3846
G1 X81.528
G3 X83.028 Y3.1843 I0.0 J1.5
G2 X106.728 Y26.8843 I23.7 J0.0
G1 X216.328
G2 X240.028 Y3.1843 I0.0 J-23.7
G3 X241.8754 Y1.7251 I1.5 J0.0
G1 X262.8754 Y6.7251
G3 X263.3047 Y6.9011 I-0.3474 J1.4592
G1 X301.3047 Y29.9011
G3 X301.5975 Y30.1326 I-0.7767 J1.2833
G1 X331.0975 Y60.1326
G3 X331.528 Y61.1843 I-1.0695 J1.0517
G1 Y105.6843
G3 X331.0887 Y106.745 I-1.5 J0.0
G1 X301.5887 Y136.245
G3 X301.3047 Y136.4676 I-1.0607 J-1.0607
G1 X263.3047 Y159.4676
G3 X262.9016 Y159.6371 I-0.7767 J-1.2833
G2 X260.7432 Y163.2897 I0.7471 J2.9055
G0 Z3.0
G0 X266.5542 Y161.7954
G0 Z0.1
G1 F300.0 Z-1.2
G2 F800.0 X262.9016 Y159.6371 I-2.9055 J0.7471
G1 X241.9016 Y165.0371
G3 X240.028 Y163.5843 I-0.3736 J-1.4527
G2 X216.328 Y139.8843 I-23.7 J0.0
G1 X106.728
G2 X83.028 Y163.5843 I0.0 J23.7
G3 X81.528 Y165.0843 I-1.5 J0.0
G1 X51.528
G3 X50.9511 Y164.969 I0.0 J-1.5
G1 X8.9511 Y147.469
G3 X8.1434 Y146.6613 I0.5769 J-1.3846
G1 X1.8934 Y131.6613
G3 X1.778 Y131.0843 I1.3846 J-0.5769
G1 Y35.6843
G3 X1.8934 Y35.1074 I1.5 J0.0
G1 X8.1434 Y20.1074
G3 X8.9511 Y19.2997 I1.3846 J0.5769
G1 X50.9511 Y1.7997
G3 X51.528 Y1.6843 I0.5769 J1.3846
G1 X81.528
G3 X83.028 Y3.1843 I0.0 J1.5
G2 X106.728 Y26.8843 I23.7 J0.0
G1 X216.328
G2 X240.028 Y3.1843 I0.0 J-23.7
G3 X241.8754 Y1.7251 I1.5 J0.0
G1 X262.8754 Y6.7251
G3 X263.3047 Y6.9011 I-0.3474 J1.4592
G1 X301.3047 Y29.9011
G3 X301.5975 Y30.1326 I-0.7767 J1.2833
G1 X331.0975 Y60.1326
G3 X331.528 Y61.1843 I-1.0695 J1.0517
G1 Y105.6843
G3 X331.0887 Y106.745 I-1.5 J0.0
G1 X301.5887 Y136.245
G3 X301.3047 Y136.4676 I-1.0607 J-1.0607
G1 X263.3047 Y159.4676
G3 X262.9016 Y159.6371 I-0.7767 J-1.2833
G2 X260.7432 Y163.2897 I0.7471 J2.9055
G0 Z3.0
G0 X266.5542 Y161.7954
G0 Z-0.2
G1 F300.0 Z-1.5
G2 F800.0 X262.9016 Y159.6371 I-2.9055 J0.7471
G1 X241.9016 Y165.0371
G3 X240.028 Y163.5843 I-0.3736 J-1.4527
G2 X216.328 Y139.8843 I-23.7 J0.0
G1 X106.728
G2 X83.028 Y163.5843 I0.0 J23.7
G3 X81.528 Y165.0843 I-1.5 J0.0
G1 X51.528
G3 X50.9511 Y164.969 I0.0 J-1.5
G1 X8.9511 Y147.469
G3 X8.1434 Y146.6613 I0.5769 J-1.3846
G1 X1.8934 Y131.6613
G3 X1.778 Y131.0843 I1.3846 J-0.5769
G1 Y35.6843
G3 X1.8934 Y35.1074 I1.5 J0.0
G1 X8.1434 Y20.1074
G3 X8.9511 Y19.2997 I1.3846 J0.5769
G1 X50.9511 Y1.7997
G3 X51.528 Y1.6843 I0.5769 J1.3846
G1 X81.528
G3 X83.028 Y3.1843 I0.0 J1.5
G2 X106.728 Y26.8843 I23.7 J0.0
G1 X216.328
G2 X240.028 Y3.1843 I0.0 J-23.7
G3 X241.8754 Y1.7251 I1.5 J0.0
G1 X262.8754 Y6.7251
G3 X263.3047 Y6.9011 I-0.3474 J1.4592
G1 X301.3047 Y29.9011
G3 X301.5975 Y30.1326 I-0.7767 J1.2833
G1 X331.0975 Y60.1326
G3 X331.528 Y61.1843 I-1.0695 J1.0517
G1 Y105.6843
G3 X331.0887 Y106.745 I-1.5 J0.0
G1 X301.5887 Y136.245
G3 X301.3047 Y136.4676 I-1.0607 J-1.0607
G1 X263.3047 Y159.4676
G3 X262.9016 Y159.6371 I-0.7767 J-1.2833
G2 X260.7432 Y163.2897 I0.7471 J2.9055
G0 Z3.0
G0 X266.5542 Y161.7954
G0 Z-0.5
G1 F300.0 Z-1.8
G2 F800.0 X262.9016 Y159.6371 I-2.9055 J0.7471
G1 X241.9016 Y165.0371
G3 X240.028 Y163.5843 I-0.3736 J-1.4527
G2 X216.328 Y139.8843 I-23.7 J0.0
G1 X106.728
G2 X83.028 Y163.5843 I0.0 J23.7
G3 X81.528 Y165.0843 I-1.5 J0.0
G1 X51.528
G3 X50.9511 Y164.969 I0.0 J-1.5
G1 X8.9511 Y147.469
G3 X8.1434 Y146.6613 I0.5769 J-1.3846
G1 X1.8934 Y131.6613
G3 X1.778 Y131.0843 I1.3846 J-0.5769
G1 Y35.6843
G3 X1.8934 Y35.1074 I1.5 J0.0
G1 X8.1434 Y20.1074
G3 X8.9511 Y19.2997 I1.3846 J0.5769
G1 X50.9511 Y1.7997
G3 X51.528 Y1.6843 I0.5769 J1.3846
G1 X81.528
G3 X83.028 Y3.1843 I0.0 J1.5
G2 X106.728 Y26.8843 I23.7 J0.0
G1 X216.328
G2 X240.028 Y3.1843 I0.0 J-23.7
G3 X241.8754 Y1.7251 I1.5 J0.0
G1 X262.8754 Y6.7251
G3 X263.3047 Y6.9011 I-0.3474 J1.4592
G1 X301.3047 Y29.9011
G3 X301.5975 Y30.1326 I-0.7767 J1.2833
G1 X331.0975 Y60.1326
G3 X331.528 Y61.1843 I-1.0695 J1.0517
G1 Y105.6843
G3 X331.0887 Y106.745 I-1.5 J0.0
G1 X301.5887 Y136.245
G3 X301.3047 Y136.4676 I-1.0607 J-1.0607
G1 X263.3047 Y159.4676
G3 X262.9016 Y159.6371 I-0.7767 J-1.2833
G2 X260.7432 Y163.2897 I0.7471 J2.9055
G0 Z3.0
G0 X266.5542 Y161.7954
G0 Z-0.8
G1 F300.0 Z-2.1
G2 F800.0 X262.9016 Y159.6371 I-2.9055 J0.7471
G1 X241.9016 Y165.0371
G3 X240.028 Y163.5843 I-0.3736 J-1.4527
G2 X216.328 Y139.8843 I-23.7 J0.0
G1 X106.728
G2 X83.028 Y163.5843 I0.0 J23.7
G3 X81.528 Y165.0843 I-1.5 J0.0
G1 X51.528
G3 X50.9511 Y164.969 I0.0 J-1.5
G1 X8.9511 Y147.469
G3 X8.1434 Y146.6613 I0.5769 J-1.3846
G1 X1.8934 Y131.6613
G3 X1.778 Y131.0843 I1.3846 J-0.5769
G1 Y35.6843
G3 X1.8934 Y35.1074 I1.5 J0.0
G1 X8.1434 Y20.1074
G3 X8.9511 Y19.2997 I1.3846 J0.5769
G1 X50.9511 Y1.7997
G3 X51.528 Y1.6843 I0.5769 J1.3846
G1 X81.528
G3 X83.028 Y3.1843 I0.0 J1.5
G2 X106.728 Y26.8843 I23.7 J0.0
G1 X216.328
G2 X240.028 Y3.1843 I0.0 J-23.7
G3 X241.8754 Y1.7251 I1.5 J0.0
G1 X262.8754 Y6.7251
G3 X263.3047 Y6.9011 I-0.3474 J1.4592
G1 X301.3047 Y29.9011
G3 X301.5975 Y30.1326 I-0.7767 J1.2833
G1 X331.0975 Y60.1326
G3 X331.528 Y61.1843 I-1.0695 J1.0517
G1 Y105.6843
G3 X331.0887 Y106.745 I-1.5 J0.0
G1 X301.5887 Y136.245
G3 X301.3047 Y136.4676 I-1.0607 J-1.0607
G1 X263.3047 Y159.4676
G3 X262.9016 Y159.6371 I-0.7767 J-1.2833
G2 X260.7432 Y163.2897 I0.7471 J2.9055
G0 Z3.0
G0 X266.5542 Y161.7954
G0 Z-1.1
G1 F300.0 Z-2.4
G2 F800.0 X262.9016 Y159.6371 I-2.9055 J0.7471
G1 X241.9016 Y165.0371
G3 X240.028 Y163.5843 I-0.3736 J-1.4527
G2 X216.328 Y139.8843 I-23.7 J0.0
G1 X106.728
G2 X83.028 Y163.5843 I0.0 J23.7
G3 X81.528 Y165.0843 I-1.5 J0.0
G1 X51.528
G3 X50.9511 Y164.969 I0.0 J-1.5
G1 X8.9511 Y147.469
G3 X8.1434 Y146.6613 I0.5769 J-1.3846
G1 X1.8934 Y131.6613
G3 X1.778 Y131.0843 I1.3846 J-0.5769
G1 Y35.6843
G3 X1.8934 Y35.1074 I1.5 J0.0
G1 X8.1434 Y20.1074
G3 X8.9511 Y19.2997 I1.3846 J0.5769
G1 X50.9511 Y1.7997
G3 X51.528 Y1.6843 I0.5769 J1.3846
G1 X81.528
G3 X83.028 Y3.1843 I0.0 J1.5
G2 X106.728 Y26.8843 I23.7 J0.0
G1 X216.328
G2 X240.028 Y3.1843 I0.0 J-23.7
G3 X241.8754 Y1.7251 I1.5 J0.0
G1 X262.8754 Y6.7251
G3 X263.3047 Y6.9011 I-0.3474 J1.4592
G1 X301.3047 Y29.9011
G3 X301.5975 Y30.1326 I-0.7767 J1.2833
G1 X331.0975 Y60.1326
G3 X331.528 Y61.1843 I-1.0695 J1.0517
G1 Y105.6843
G3 X331.0887 Y106.745 I-1.5 J0.0
G1 X301.5887 Y136.245
G3 X301.3047 Y136.4676 I-1.0607 J-1.0607
G1 X263.3047 Y159.4676
G3 X262.9016 Y159.6371 I-0.7767 J-1.2833
G2 X260.7432 Y163.2897 I0.7471 J2.9055
G0 Z3.0
G0 X266.5542 Y161.7954
G0 Z-1.4
G1 F300.0 Z-2.7
G2 F800.0 X262.9016 Y159.6371 I-2.9055 J0.7471
G1 X241.9016 Y165.0371
G3 X240.028 Y163.5843 I-0.3736 J-1.4527
G2 X216.328 Y139.8843 I-23.7 J0.0
G1 X106.728
G2 X83.028 Y163.5843 I0.0 J23.7
G3 X81.528 Y165.0843 I-1.5 J0.0
G1 X51.528
G3 X50.9511 Y164.969 I0.0 J-1.5
G1 X8.9511 Y147.469
G3 X8.1434 Y146.6613 I0.5769 J-1.3846
G1 X1.8934 Y131.6613
G3 X1.778 Y131.0843 I1.3846 J-0.5769
G1 Y35.6843
G3 X1.8934 Y35.1074 I1.5 J0.0
G1 X8.1434 Y20.1074
G3 X8.9511 Y19.2997 I1.3846 J0.5769
G1 X50.9511 Y1.7997
G3 X51.528 Y1.6843 I0.5769 J1.3846
G1 X81.528
G3 X83.028 Y3.1843 I0.0 J1.5
G2 X106.728 Y26.8843 I23.7 J0.0
G1 X216.328
G2 X240.028 Y3.1843 I0.0 J-23.7
G3 X241.8754 Y1.7251 I1.5 J0.0
G1 X262.8754 Y6.7251
G3 X263.3047 Y6.9011 I-0.3474 J1.4592
G1 X301.3047 Y29.9011
G3 X301.5975 Y30.1326 I-0.7767 J1.2833
G1 X331.0975 Y60.1326
G3 X331.528 Y61.1843 I-1.0695 J1.0517
G1 Y105.6843
G3 X331.0887 Y106.745 I-1.5 J0.0
G1 X301.5887 Y136.245
G3 X301.3047 Y136.4676 I-1.0607 J-1.0607
G1 X263.3047 Y159.4676
G3 X262.9016 Y159.6371 I-0.7767 J-1.2833
G2 X260.7432 Y163.2897 I0.7471 J2.9055
G0 Z3.0
G0 X266.5542 Y161.7954
G0 Z-1.7
G1 F300.0 Z-3.0
G2 F800.0 X262.9016 Y159.6371 I-2.9055 J0.7471
G1 X241.9016 Y165.0371
G3 X240.028 Y163.5843 I-0.3736 J-1.4527
G2 X216.328 Y139.8843 I-23.7 J0.0
G1 X106.728
G2 X83.028 Y163.5843 I0.0 J23.7
G3 X81.528 Y165.0843 I-1.5 J0.0
G1 X51.528
G3 X50.9511 Y164.969 I0.0 J-1.5
G1 X8.9511 Y147.469
G3 X8.1434 Y146.6613 I0.5769 J-1.3846
G1 X1.8934 Y131.6613
G3 X1.778 Y131.0843 I1.3846 J-0.5769
G1 Y35.6843
G3 X1.8934 Y35.1074 I1.5 J0.0
G1 X8.1434 Y20.1074
G3 X8.9511 Y19.2997 I1.3846 J0.5769
G1 X50.9511 Y1.7997
G3 X51.528 Y1.6843 I0.5769 J1.3846
G1 X81.528
G3 X83.028 Y3.1843 I0.0 J1.5
G2 X106.728 Y26.8843 I23.7 J0.0
G1 X216.328
G2 X240.028 Y3.1843 I0.0 J-23.7
G3 X241.8754 Y1.7251 I1.5 J0.0
G1 X262.8754 Y6.7251
G3 X263.3047 Y6.9011 I-0.3474 J1.4592
G1 X301.3047 Y29.9011
G3 X301.5975 Y30.1326 I-0.7767 J1.2833
G1 X331.0975 Y60.1326
G3 X331.528 Y61.1843 I-1.0695 J1.0517
G1 Y105.6843
G3 X331.0887 Y106.745 I-1.5 J0.0
G1 X301.5887 Y136.245
G3 X301.3047 Y136.4676 I-1.0607 J-1.0607
G1 X263.3047 Y159.4676
G3 X262.9016 Y159.6371 I-0.7767 J-1.2833
G2 X260.7432 Y163.2897 I0.7471 J2.9055
G0 Z3.0
G0 X266.5542 Y161.7954
G0 Z-2.0
G1 F300.0 Z-3.3
G2 F800.0 X262.9016 Y159.6371 I-2.9055 J0.7471
G1 X241.9016 Y165.0371
G3 X240.028 Y163.5843 I-0.3736 J-1.4527
G2 X216.328 Y139.8843 I-23.7 J0.0
G1 X106.728
G2 X83.028 Y163.5843 I0.0 J23.7
G3 X81.528 Y165.0843 I-1.5 J0.0
G1 X51.528
G3 X50.9511 Y164.969 I0.0 J-1.5
G1 X8.9511 Y147.469
G3 X8.1434 Y146.6613 I0.5769 J-1.3846
G1 X1.8934 Y131.6613
G3 X1.778 Y131.0843 I1.3846 J-0.5769
G1 Y35.6843
G3 X1.8934 Y35.1074 I1.5 J0.0
G1 X8.1434 Y20.1074
G3 X8.9511 Y19.2997 I1.3846 J0.5769
G1 X50.9511 Y1.7997
G3 X51.528 Y1.6843 I0.5769 J1.3846
G1 X81.528
G3 X83.028 Y3.1843 I0.0 J1.5
G2 X106.728 Y26.8843 I23.7 J0.0
G1 X216.328
G2 X240.028 Y3.1843 I0.0 J-23.7
G3 X241.8754 Y1.7251 I1.5 J0.0
G1 X262.8754 Y6.7251
G3 X263.3047 Y6.9011 I-0.3474 J1.4592
G1 X301.3047 Y29.9011
G3 X301.5975 Y30.1326 I-0.7767 J1.2833
G1 X331.0975 Y60.1326
G3 X331.528 Y61.1843 I-1.0695 J1.0517
G1 Y105.6843
G3 X331.0887 Y106.745 I-1.5 J0.0
G1 X301.5887 Y136.245
G3 X301.3047 Y136.4676 I-1.0607 J-1.0607
G1 X263.3047 Y159.4676
G3 X262.9016 Y159.6371 I-0.7767 J-1.2833
G2 X260.7432 Y163.2897 I0.7471 J2.9055
G0 Z3.0
G0 X266.5542 Y161.7954
G0 Z-2.3
G1 F300.0 Z-3.6
G2 F800.0 X262.9016 Y159.6371 I-2.9055 J0.7471
G1 X241.9016 Y165.0371
G3 X240.028 Y163.5843 I-0.3736 J-1.4527
G2 X216.328 Y139.8843 I-23.7 J0.0
G1 X106.728
G2 X83.028 Y163.5843 I0.0 J23.7
G3 X81.528 Y165.0843 I-1.5 J0.0
G1 X51.528
G3 X50.9511 Y164.969 I0.0 J-1.5
G1 X8.9511 Y147.469
G3 X8.1434 Y146.6613 I0.5769 J-1.3846
G1 X1.8934 Y131.6613
G3 X1.778 Y131.0843 I1.3846 J-0.5769
G1 Y35.6843
G3 X1.8934 Y35.1074 I1.5 J0.0
G1 X8.1434 Y20.1074
G3 X8.9511 Y19.2997 I1.3846 J0.5769
G1 X50.9511 Y1.7997
G3 X51.528 Y1.6843 I0.5769 J1.3846
G1 X81.528
G3 X83.028 Y3.1843 I0.0 J1.5
G2 X106.728 Y26.8843 I23.7 J0.0
G1 X216.328
G2 X240.028 Y3.1843 I0.0 J-23.7
G3 X241.8754 Y1.7251 I1.5 J0.0
G1 X262.8754 Y6.7251
G3 X263.3047 Y6.9011 I-0.3474 J1.4592
G1 X301.3047 Y29.9011
G3 X301.5975 Y30.1326 I-0.7767 J1.2833
G1 X331.0975 Y60.1326
G3 X331.528 Y61.1843 I-1.0695 J1.0517
G1 Y105.6843
G3 X331.0887 Y106.745 I-1.5 J0.0
G1 X301.5887 Y136.245
G3 X301.3047 Y136.4676 I-1.0607 J-1.0607
G1 X263.3047 Y159.4676
G3 X262.9016 Y159.6371 I-0.7767 J-1.2833
G2 X260.7432 Y163.2897 I0.7471 J2.9055
G0 Z3.0
G0 X266.5542 Y161.7954
G0 Z-2.6
G1 F300.0 Z-3.9
G2 F800.0 X262.9016 Y159.6371 I-2.9055 J0.7471
G1 X241.9016 Y165.0371
G3 X240.028 Y163.5843 I-0.3736 J-1.4527
G2 X216.328 Y139.8843 I-23.7 J0.0
G1 X106.728
G2 X83.028 Y163.5843 I0.0 J23.7
G3 X81.528 Y165.0843 I-1.5 J0.0
G1 X51.528
G3 X50.9511 Y164.969 I0.0 J-1.5
G1 X8.9511 Y147.469
G3 X8.1434 Y146.6613 I0.5769 J-1.3846
G1 X1.8934 Y131.6613
G3 X1.778 Y131.0843 I1.3846 J-0.5769
G1 Y35.6843
G3 X1.8934 Y35.1074 I1.5 J0.0
G1 X8.1434 Y20.1074
G3 X8.9511 Y19.2997 I1.3846 J0.5769
G1 X50.9511 Y1.7997
G3 X51.528 Y1.6843 I0.5769 J1.3846
G1 X81.528
G3 X83.028 Y3.1843 I0.0 J1.5
G2 X106.728 Y26.8843 I23.7 J0.0
G1 X216.328
G2 X240.028 Y3.1843 I0.0 J-23.7
G3 X241.8754 Y1.7251 I1.5 J0.0
G1 X262.8754 Y6.7251
G3 X263.3047 Y6.9011 I-0.3474 J1.4592
G1 X301.3047 Y29.9011
G3 X301.5975 Y30.1326 I-0.7767 J1.2833
G1 X331.0975 Y60.1326
G3 X331.528 Y61.1843 I-1.0695 J1.0517
G1 Y105.6843
G3 X331.0887 Y106.745 I-1.5 J0.0
G1 X301.5887 Y136.245
G3 X301.3047 Y136.4676 I-1.0607 J-1.0607
G1 X263.3047 Y159.4676
G3 X262.9016 Y159.6371 I-0.7767 J-1.2833
G2 X260.7432 Y163.2897 I0.7471 J2.9055
G0 Z3.0
G0 X266.5542 Y161.7954
G0 Z-2.9
G1 F300.0 Z-4.2
G2 F800.0 X262.9016 Y159.6371 I-2.9055 J0.7471
G1 X241.9016 Y165.0371
G3 X240.028 Y163.5843 I-0.3736 J-1.4527
G2 X216.328 Y139.8843 I-23.7 J0.0
G1 X106.728
G2 X83.028 Y163.5843 I0.0 J23.7
G3 X81.528 Y165.0843 I-1.5 J0.0
G1 X51.528
G3 X50.9511 Y164.969 I0.0 J-1.5
G1 X8.9511 Y147.469
G3 X8.1434 Y146.6613 I0.5769 J-1.3846
G1 X1.8934 Y131.6613
G3 X1.778 Y131.0843 I1.3846 J-0.5769
G1 Y35.6843
G3 X1.8934 Y35.1074 I1.5 J0.0
G1 X8.1434 Y20.1074
G3 X8.9511 Y19.2997 I1.3846 J0.5769
G1 X50.9511 Y1.7997
G3 X51.528 Y1.6843 I0.5769 J1.3846
G1 X81.528
G3 X83.028 Y3.1843 I0.0 J1.5
G2 X106.728 Y26.8843 I23.7 J0.0
G1 X216.328
G2 X240.028 Y3.1843 I0.0 J-23.7
G3 X241.8754 Y1.7251 I1.5 J0.0
G1 X262.8754 Y6.7251
G3 X263.3047 Y6.9011 I-0.3474 J1.4592
G1 X301.3047 Y29.9011
G3 X301.5975 Y30.1326 I-0.7767 J1.2833
G1 X331.0975 Y60.1326
G3 X331.528 Y61.1843 I-1.0695 J1.0517
G1 Y105.6843
G3 X331.0887 Y106.745 I-1.5 J0.0
G1 X301.5887 Y136.245
G3 X301.3047 Y136.4676 I-1.0607 J-1.0607
G1 X263.3047 Y159.4676
G3 X262.9016 Y159.6371 I-0.7767 J-1.2833
G2 X260.7432 Y163.2897 I0.7471 J2.9055
G0 Z3.0
G0 X266.5542 Y161.7954
G0 Z-3.2
G1 F300.0 Z-4.5
G2 F800.0 X262.9016 Y159.6371 I-2.9055 J0.7471
G1 X241.9016 Y165.0371
G3 X240.028 Y163.5843 I-0.3736 J-1.4527
G2 X216.328 Y139.8843 I-23.7 J0.0
G1 X106.728
G2 X83.028 Y163.5843 I0.0 J23.7
G3 X81.528 Y165.0843 I-1.5 J0.0
G1 X51.528
G3 X50.9511 Y164.969 I0.0 J-1.5
G1 X8.9511 Y147.469
G3 X8.1434 Y146.6613 I0.5769 J-1.3846
G1 X1.8934 Y131.6613
G3 X1.778 Y131.0843 I1.3846 J-0.5769
G1 Y35.6843
G3 X1.8934 Y35.1074 I1.5 J0.0
G1 X8.1434 Y20.1074
G3 X8.9511 Y19.2997 I1.3846 J0.5769
G1 X50.9511 Y1.7997
G3 X51.528 Y1.6843 I0.5769 J1.3846
G1 X81.528
G3 X83.028 Y3.1843 I0.0 J1.5
G2 X106.728 Y26.8843 I23.7 J0.0
G1 X216.328
G2 X240.028 Y3.1843 I0.0 J-23.7
G3 X241.8754 Y1.7251 I1.5 J0.0
G1 X262.8754 Y6.7251
G3 X263.3047 Y6.9011 I-0.3474 J1.4592
G1 X301.3047 Y29.9011
G3 X301.5975 Y30.1326 I-0.7767 J1.2833
G1 X331.0975 Y60.1326
G3 X331.528 Y61.1843 I-1.0695 J1.0517
G1 Y105.6843
G3 X331.0887 Y106.745 I-1.5 J0.0
G1 X301.5887 Y136.245
G3 X301.3047 Y136.4676 I-1.0607 J-1.0607
G1 X263.3047 Y159.4676
G3 X262.9016 Y159.6371 I-0.7767 J-1.2833
G2 X260.7432 Y163.2897 I0.7471 J2.9055
G0 Z3.0
G0 X264.3958 Y165.448
G0 Z-3.5
G1 F300.0 Z-4.8
G2 F800.0 X266.5542 Y161.7954 I-0.7471 J-2.9055
G2 X262.9016 Y159.6371 I-2.9055 J0.7471
G0 Z3.0
G0 X266.5542 Y161.7954
G1 F300.0 Z-4.8
G2 F800.0 X262.9016 Y159.6371 I-2.9055 J0.7471
G1 X241.9016 Y165.0371
G3 X240.028 Y163.5843 I-0.3736 J-1.4527
G2 X216.328 Y139.8843 I-23.7 J0.0
G1 X163.5
G0 Z-4.5
G1 X156.5
G0 Z3.0
G0 X159.5 Y142.8843
G0 Z-3.5
G1 F300.0 Z-4.8
G2 F800.0 X156.5 Y139.8843 I-3.0 J0.0
G1 X106.728
G2 X83.028 Y163.5843 I0.0 J23.7
G3 X81.528 Y165.0843 I-1.5 J0.0
G1 X51.528
G3 X50.9511 Y164.969 I0.0 J-1.5
G1 X8.9511 Y147.469
G3 X8.1434 Y146.6613 I0.5769 J-1.3846
G1 X1.8934 Y131.6613
G3 X1.778 Y131.0843 I1.3846 J-0.5769
G1 Y119.5
G0 Z-4.5
G1 Y112.5
G0 Z3.0
G0 X-1.222 Y115.5
G0 Z-3.5
G1 F300.0 Z-4.8
G2 F800.0 X1.778 Y112.5 I0.0 J-3.0
G1 Y63.5
G0 Z-4.5
G1 Y56.5
G0 Z3.0
G0 X-1.222 Y59.5
G0 Z-3.5
G1 F300.0 Z-4.8
G2 F800.0 X1.778 Y56.5 I0.0 J-3.0
G1 Y35.6843
G3 X1.8934 Y35.1074 I1.5 J0.0
G1 X8.1434 Y20.1074
G3 X8.9511 Y19.2997 I1.3846 J0.5769
G1 X50.9511 Y1.7997
G3 X51.528 Y1.6843 I0.5769 J1.3846
G1 X81.528
G3 X83.028 Y3.1843 I0.0 J1.5
G2 X106.728 Y26.8843 I23.7 J0.0
G1 X156.5
G0 Z-4.5
G1 X163.5
G0 Z3.0
G0 X160.5 Y23.8843
G0 Z-3.5
G1 F300.0 Z-4.8
G2 F800.0 X163.5 Y26.8843 I3.0 J0.0
G1 X216.328
G2 X240.028 Y3.1843 I0.0 J-23.7
G3 X241.8754 Y1.7251 I1.5 J0.0
G1 X262.8754 Y6.7251
G3 X263.3047 Y6.9011 I-0.3474 J1.4592
G1 X301.3047 Y29.9011
G3 X301.5975 Y30.1326 I-0.7767 J1.2833
G1 X313.6064 Y42.345
G0 Z-4.5
G1 X318.5144 Y47.3362
G0 Z3.0
G0 X318.55 Y43.0937
G0 Z-3.5
G1 F300.0 Z-4.8
G2 F800.0 X318.5144 Y47.3362 I2.1034 J2.1391
G1 X331.0975 Y60.1326
G3 X331.528 Y61.1843 I-1.0695 J1.0517
G1 Y105.6843
G3 X331.0887 Y106.745 I-1.5 J0.0
G1 X320.8917 Y116.942
G0 Z-4.5
G1 X315.942 Y121.8917
G0 Z3.0
G0 X320.1846
G0 Z-3.5
G1 F300.0 Z-4.8
G2 F800.0 X315.942 I-2.1213 J2.1213
G1 X301.5887 Y136.245
G3 X301.3047 Y136.4676 I-1.0607 J-1.0607
G1 X263.3047 Y159.4676
G3 X262.9016 Y159.6371 I-0.7767 J-1.2833
G0 Z3.0
G0 X266.5542 Y161.7954
G1 F300.0 Z-4.8
G2 F800.0 X262.9016 Y159.6371 I-2.9055 J0.7471
G2 X260.7432 Y163.2897 I0.7471 J2.9055
G0 Z3.0
G0 X264.3958 Y165.448
G0 Z-3.8
G1 F300.0 Z-5.1
G2 F800.0 X266.5542 Y161.7954 I-0.7471 J-2.9055
G2 X262.9016 Y159.6371 I-2.9055 J0.7471
G0 Z3.0
G0 X266.5542 Y161.7954
G1 F300.0 Z-5.1
G2 F800.0 X262.9016 Y159.6371 I-2.9055 J0.7471
G1 X241.9016 Y165.0371
G3 X240.028 Y163.5843 I-0.3736 J-1.4527
G2 X216.328 Y139.8843 I-23.7 J0.0
G1 X163.5
G0 Z-4.5
G1 X156.5
G0 Z3.0
G0 X159.5 Y142.8843
G0 Z-3.8
G1 F300.0 Z-5.1
G2 F800.0 X156.5 Y139.8843 I-3.0 J0.0
G1 X106.728
G2 X83.028 Y163.5843 I0.0 J23.7
G3 X81.528 Y165.0843 I-1.5 J0.0
G1 X51.528
G3 X50.9511 Y164.969 I0.0 J-1.5
G1 X8.9511 Y147.469
G3 X8.1434 Y146.6613 I0.5769 J-1.3846
G1 X1.8934 Y131.6613
G3 X1.778 Y131.0843 I1.3846 J-0.5769
G1 Y119.5
G0 Z-4.5
G1 Y112.5
G0 Z3.0
G0 X-1.222 Y115.5
G0 Z-3.8
G1 F300.0 Z-5.1
G2 F800.0 X1.778 Y112.5 I0.0 J-3.0
G1 Y63.5
G0 Z-4.5
G1 Y56.5
G0 Z3.0
G0 X-1.222 Y59.5
G0 Z-3.8
G1 F300.0 Z-5.1
G2 F800.0 X1.778 Y56.5 I0.0 J-3.0
G1 Y35.6843
G3 X1.8934 Y35.1074 I1.5 J0.0
G1 X8.1434 Y20.1074
G3 X8.9511 Y19.2997 I1.3846 J0.5769
G1 X50.9511 Y1.7997
G3 X51.528 Y1.6843 I0.5769 J1.3846
G1 X81.528
G3 X83.028 Y3.1843 I0.0 J1.5
G2 X106.728 Y26.8843 I23.7 J0.0
G1 X156.5
G0 Z-4.5
G1 X163.5
G0 Z3.0
G0 X160.5 Y23.8843
G0 Z-3.8
G1 F300.0 Z-5.1
G2 F800.0 X163.5 Y26.8843 I3.0 J0.0
G1 X216.328
G2 X240.028 Y3.1843 I0.0 J-23.7
G3 X241.8754 Y1.7251 I1.5 J0.0
G1 X262.8754 Y6.7251
G3 X263.3047 Y6.9011 I-0.3474 J1.4592
G1 X301.3047 Y29.9011
G3 X301.5975 Y30.1326 I-0.7767 J1.2833
G1 X313.6064 Y42.345
G0 Z-4.5
G1 X318.5144 Y47.3362
G0 Z3.0
G0 X318.55 Y43.0937
G0 Z-3.8
G1 F300.0 Z-5.1
G2 F800.0 X318.5144 Y47.3362 I2.1034 J2.1391
G1 X331.0975 Y60.1326
G3 X331.528 Y61.1843 I-1.0695 J1.0517
G1 Y105.6843
G3 X331.0887 Y106.745 I-1.5 J0.0
G1 X320.8917 Y116.942
G0 Z-4.5
G1 X315.942 Y121.8917
G0 Z3.0
G0 X320.1846
G0 Z-3.8
G1 F300.0 Z-5.1
G2 F800.0 X315.942 I-2.1213 J2.1213
G1 X301.5887 Y136.245
G3 X301.3047 Y136.4676 I-1.0607 J-1.0607
G1 X263.3047 Y159.4676
G3 X262.9016 Y159.6371 I-0.7767 J-1.2833
G0 Z3.0
G0 X266.5542 Y161.7954
G1 F300.0 Z-5.1
G2 F800.0 X262.9016 Y159.6371 I-2.9055 J0.7471
G2 X260.7432 Y163.2897 I0.7471 J2.9055
G0 Z3.0
G0 X264.3958 Y165.448
G0 Z-4.1
G1 F300.0 Z-5.4
G2 F800.0 X266.5542 Y161.7954 I-0.7471 J-2.9055
G2 X262.9016 Y159.6371 I-2.9055 J0.7471
G0 Z3.0
G0 X266.5542 Y161.7954
G1 F300.0 Z-5.4
G2 F800.0 X262.9016 Y159.6371 I-2.9055 J0.7471
G1 X241.9016 Y165.0371
G3 X240.028 Y163.5843 I-0.3736 J-1.4527
G2 X216.328 Y139.8843 I-23.7 J0.0
G1 X163.5
G0 Z-4.5
G1 X156.5
G0 Z3.0
G0 X159.5 Y142.8843
G0 Z-4.1
G1 F300.0 Z-5.4
G2 F800.0 X156.5 Y139.8843 I-3.0 J0.0
G1 X106.728
G2 X83.028 Y163.5843 I0.0 J23.7
G3 X81.528 Y165.0843 I-1.5 J0.0
G1 X51.528
G3 X50.9511 Y164.969 I0.0 J-1.5
G1 X8.9511 Y147.469
G3 X8.1434 Y146.6613 I0.5769 J-1.3846
G1 X1.8934 Y131.6613
G3 X1.778 Y131.0843 I1.3846 J-0.5769
G1 Y119.5
G0 Z-4.5
G1 Y112.5
G0 Z3.0
G0 X-1.222 Y115.5
G0 Z-4.1
G1 F300.0 Z-5.4
G2 F800.0 X1.778 Y112.5 I0.0 J-3.0
G1 Y63.5
G0 Z-4.5
G1 Y56.5
G0 Z3.0
G0 X-1.222 Y59.5
G0 Z-4.1
G1 F300.0 Z-5.4
G2 F800.0 X1.778 Y56.5 I0.0 J-3.0
G1 Y35.6843
G3 X1.8934 Y35.1074 I1.5 J0.0
G1 X8.1434 Y20.1074
G3 X8.9511 Y19.2997 I1.3846 J0.5769
G1 X50.9511 Y1.7997
G3 X51.528 Y1.6843 I0.5769 J1.3846
G1 X81.528
G3 X83.028 Y3.1843 I0.0 J1.5
G2 X106.728 Y26.8843 I23.7 J0.0
G1 X156.5
G0 Z-4.5
G1 X163.5
G0 Z3.0
G0 X160.5 Y23.8843
G0 Z-4.1
G1 F300.0 Z-5.4
G2 F800.0 X163.5 Y26.8843 I3.0 J0.0
G1 X216.328
G2 X240.028 Y3.1843 I0.0 J-23.7
G3 X241.8754 Y1.7251 I1.5 J0.0
G1 X262.8754 Y6.7251
G3 X263.3047 Y6.9011 I-0.3474 J1.4592
G1 X301.3047 Y29.9011
G3 X301.5975 Y30.1326 I-0.7767 J1.2833
G1 X313.6064 Y42.345
G0 Z-4.5
G1 X318.5144 Y47.3362
G0 Z3.0
G0 X318.55 Y43.0937
G0 Z-4.1
G1 F300.0 Z-5.4
G2 F800.0 X318.5144 Y47.3362 I2.1034 J2.1391
G1 X331.0975 Y60.1326
G3 X331.528 Y61.1843 I-1.0695 J1.0517
G1 Y105.6843
G3 X331.0887 Y106.745 I-1.5 J0.0
G1 X320.8917 Y116.942
G0 Z-4.5
G1 X315.942 Y121.8917
G0 Z3.0
G0 X320.1846
G0 Z-4.1
G1 F300.0 Z-5.4
G2 F800.0 X315.942 I-2.1213 J2.1213
G1 X301.5887 Y136.245
G3 X301.3047 Y136.4676 I-1.0607 J-1.0607
G1 X263.3047 Y159.4676
G3 X262.9016 Y159.6371 I-0.7767 J-1.2833
G0 Z3.0
G0 X266.5542 Y161.7954
G1 F300.0 Z-5.4
G2 F800.0 X262.9016 Y159.6371 I-2.9055 J0.7471
G2 X260.7432 Y163.2897 I0.7471 J2.9055
G0 Z3.0
G0 X264.3958 Y165.448
G0 Z-4.4
G1 F300.0 Z-5.5
G2 F800.0 X266.5542 Y161.7954 I-0.7471 J-2.9055
G2 X262.9016 Y159.6371 I-2.9055 J0.7471
G0 Z3.0
G0 X266.5542 Y161.7954
G0 Z-4.5
G1 F300.0 Z-5.5
G2 F800.0 X262.9016 Y159.6371 I-2.9055 J0.7471
G1 X241.9016 Y165.0371
G3 X240.028 Y163.5843 I-0.3736 J-1.4527
G2 X216.328 Y139.8843 I-23.7 J0.0
G1 X163.5
G0 Z-4.5
G1 X156.5
G0 Z3.0
G0 X159.5 Y142.8843
G0 Z-4.4
G1 F300.0 Z-5.5
G2 F800.0 X156.5 Y139.8843 I-3.0 J0.0
G1 X106.728
G2 X83.028 Y163.5843 I0.0 J23.7
G3 X81.528 Y165.0843 I-1.5 J0.0
G1 X51.528
G3 X50.9511 Y164.969 I0.0 J-1.5
G1 X8.9511 Y147.469
G3 X8.1434 Y146.6613 I0.5769 J-1.3846
G1 X1.8934 Y131.6613
G3 X1.778 Y131.0843 I1.3846 J-0.5769
G1 Y119.5
G0 Z-4.5
G1 Y112.5
G0 Z3.0
G0 X-1.222 Y115.5
G0 Z-4.4
G1 F300.0 Z-5.5
G2 F800.0 X1.778 Y112.5 I0.0 J-3.0
G1 Y63.5
G0 Z-4.5
G1 Y56.5
G0 Z3.0
G0 X-1.222 Y59.5
G0 Z-4.4
G1 F300.0 Z-5.5
G2 F800.0 X1.778 Y56.5 I0.0 J-3.0
G1 Y35.6843
G3 X1.8934 Y35.1074 I1.5 J0.0
G1 X8.1434 Y20.1074
G3 X8.9511 Y19.2997 I1.3846 J0.5769
G1 X50.9511 Y1.7997
G3 X51.528 Y1.6843 I0.5769 J1.3846
G1 X81.528
G3 X83.028 Y3.1843 I0.0 J1.5
G2 X106.728 Y26.8843 I23.7 J0.0
G1 X156.5
G0 Z-4.5
G1 X163.5
G0 Z3.0
G0 X160.5 Y23.8843
G0 Z-4.4
G1 F300.0 Z-5.5
G2 F800.0 X163.5 Y26.8843 I3.0 J0.0
G1 X216.328
G2 X240.028 Y3.1843 I0.0 J-23.7
G3 X241.8754 Y1.7251 I1.5 J0.0
G1 X262.8754 Y6.7251
G3 X263.3047 Y6.9011 I-0.3474 J1.4592
G1 X301.3047 Y29.9011
G3 X301.5975 Y30.1326 I-0.7767 J1.2833
G1 X313.6064 Y42.345
G0 Z-4.5
G1 X318.5144 Y47.3362
G0 Z3.0
G0 X318.55 Y43.0937
G0 Z-4.4
G1 F300.0 Z-5.5
G2 F800.0 X318.5144 Y47.3362 I2.1034 J2.1391
G1 X331.0975 Y60.1326
G3 X331.528 Y61.1843 I-1.0695 J1.0517
G1 Y105.6843
G3 X331.0887 Y106.745 I-1.5 J0.0
G1 X320.8917 Y116.942
G0 Z-4.5
G1 X315.942 Y121.8917
G0 Z3.0
G0 X320.1846
G0 Z-4.4
G1 F300.0 Z-5.5
G2 F800.0 X315.942 I-2.1213 J2.1213
G1 X301.5887 Y136.245
G3 X301.3047 Y136.4676 I-1.0607 J-1.0607
G1 X263.3047 Y159.4676
G3 X262.9016 Y159.6371 I-0.7767 J-1.2833
G0 Z3.0
G0 X266.5542 Y161.7954
G0 Z-4.5
G1 F300.0 Z-5.5
G2 F800.0 X262.9016 Y159.6371 I-2.9055 J0.7471
G2 X260.7432 Y163.2897 I0.7471 J2.9055
G0 Z3.0
M5
M30
