( Made using CamBam - http://www.cambam.co.uk )
( batis 4/9/2015 3:21:38 PM )
( T0 : 2.0 )
G21 G90 G64 P0.05 G40
G0 Z3.0
( T0 : 2.0 )
M0
( Contour3 )
G17
M3 S1000
G0 X115.37799 Y71.43433
G0 Z1.0
G1 F300.0 Z-0.3
G2 F800.0 X114.85299 Y71.13122 I-0.35 J0.0
G2 Y71.73743 I0.175 J0.30311
G2 X115.37799 Y71.43433 I0.175 J-0.30311
G1 F300.0 Z-0.6
G2 F800.0 X114.85299 Y71.13122 I-0.35 J0.0
G2 Y71.73743 I0.175 J0.30311
G2 X115.37799 Y71.43433 I0.175 J-0.30311
G1 F300.0 Z-0.9
G2 F800.0 X114.85299 Y71.13122 I-0.35 J0.0
G2 Y71.73743 I0.175 J0.30311
G2 X115.37799 Y71.43433 I0.175 J-0.30311
G1 F300.0 Z-1.2
G2 F800.0 X114.85299 Y71.13122 I-0.35 J0.0
G2 Y71.73743 I0.175 J0.30311
G2 X115.37799 Y71.43433 I0.175 J-0.30311
G1 F300.0 Z-1.5
G2 F800.0 X114.85299 Y71.13122 I-0.35 J0.0
G2 Y71.73743 I0.175 J0.30311
G2 X115.37799 Y71.43433 I0.175 J-0.30311
G1 F300.0 Z-1.8
G2 F800.0 X114.85299 Y71.13122 I-0.35 J0.0
G2 Y71.73743 I0.175 J0.30311
G2 X115.37799 Y71.43433 I0.175 J-0.30311
G1 F300.0 Z-2.1
G2 F800.0 X114.85299 Y71.13122 I-0.35 J0.0
G2 Y71.73743 I0.175 J0.30311
G2 X115.37799 Y71.43433 I0.175 J-0.30311
G1 F300.0 Z-2.4
G2 F800.0 X114.85299 Y71.13122 I-0.35 J0.0
G2 Y71.73743 I0.175 J0.30311
G2 X115.37799 Y71.43433 I0.175 J-0.30311
G1 F300.0 Z-2.7
G2 F800.0 X114.85299 Y71.13122 I-0.35 J0.0
G2 Y71.73743 I0.175 J0.30311
G2 X115.37799 Y71.43433 I0.175 J-0.30311
G1 F300.0 Z-3.0
G2 F800.0 X114.85299 Y71.13122 I-0.35 J0.0
G2 Y71.73743 I0.175 J0.30311
G2 X115.37799 Y71.43433 I0.175 J-0.30311
G1 F300.0 Z-3.3
G2 F800.0 X114.85299 Y71.13122 I-0.35 J0.0
G2 Y71.73743 I0.175 J0.30311
G2 X115.37799 Y71.43433 I0.175 J-0.30311
G1 F300.0 Z-3.6
G2 F800.0 X114.85299 Y71.13122 I-0.35 J0.0
G2 Y71.73743 I0.175 J0.30311
G2 X115.37799 Y71.43433 I0.175 J-0.30311
G1 F300.0 Z-3.9
G2 F800.0 X114.85299 Y71.13122 I-0.35 J0.0
G2 Y71.73743 I0.175 J0.30311
G2 X115.37799 Y71.43433 I0.175 J-0.30311
G1 F300.0 Z-4.2
G2 F800.0 X114.85299 Y71.13122 I-0.35 J0.0
G2 Y71.73743 I0.175 J0.30311
G2 X115.37799 Y71.43433 I0.175 J-0.30311
G1 F300.0 Z-4.5
G2 F800.0 X114.85299 Y71.13122 I-0.35 J0.0
G2 Y71.73743 I0.175 J0.30311
G2 X115.37799 Y71.43433 I0.175 J-0.30311
G1 F300.0 Z-4.8
G2 F800.0 X114.85299 Y71.13122 I-0.35 J0.0
G2 Y71.73743 I0.175 J0.30311
G2 X115.37799 Y71.43433 I0.175 J-0.30311
G1 F300.0 Z-5.1
G2 F800.0 X114.85299 Y71.13122 I-0.35 J0.0
G2 Y71.73743 I0.175 J0.30311
G2 X115.37799 Y71.43433 I0.175 J-0.30311
G1 F300.0 Z-5.3
G2 F800.0 X114.85299 Y71.13122 I-0.35 J0.0
G2 Y71.73743 I0.175 J0.30311
G2 X115.37799 Y71.43433 I0.175 J-0.30311
G0 Z3.0
G0 X132.67799
G0 Z1.0
G1 F300.0 Z-0.3
G2 F800.0 X132.85299 Y71.73743 I0.35 J0.0
G2 X133.37799 Y71.43433 I0.175 J-0.30311
G2 X132.85299 Y71.13122 I-0.35 J0.0
G2 X132.67799 Y71.43433 I0.175 J0.30311
G1 F300.0 Z-0.6
G2 F800.0 X132.85299 Y71.73743 I0.35 J0.0
G2 X133.37799 Y71.43433 I0.175 J-0.30311
G2 X132.85299 Y71.13122 I-0.35 J0.0
G2 X132.67799 Y71.43433 I0.175 J0.30311
G1 F300.0 Z-0.9
G2 F800.0 X132.85299 Y71.73743 I0.35 J0.0
G2 X133.37799 Y71.43433 I0.175 J-0.30311
G2 X132.85299 Y71.13122 I-0.35 J0.0
G2 X132.67799 Y71.43433 I0.175 J0.30311
G1 F300.0 Z-1.2
G2 F800.0 X132.85299 Y71.73743 I0.35 J0.0
G2 X133.37799 Y71.43433 I0.175 J-0.30311
G2 X132.85299 Y71.13122 I-0.35 J0.0
G2 X132.67799 Y71.43433 I0.175 J0.30311
G1 F300.0 Z-1.5
G2 F800.0 X132.85299 Y71.73743 I0.35 J0.0
G2 X133.37799 Y71.43433 I0.175 J-0.30311
G2 X132.85299 Y71.13122 I-0.35 J0.0
G2 X132.67799 Y71.43433 I0.175 J0.30311
G1 F300.0 Z-1.8
G2 F800.0 X132.85299 Y71.73743 I0.35 J0.0
G2 X133.37799 Y71.43433 I0.175 J-0.30311
G2 X132.85299 Y71.13122 I-0.35 J0.0
G2 X132.67799 Y71.43433 I0.175 J0.30311
G1 F300.0 Z-2.1
G2 F800.0 X132.85299 Y71.73743 I0.35 J0.0
G2 X133.37799 Y71.43433 I0.175 J-0.30311
G2 X132.85299 Y71.13122 I-0.35 J0.0
G2 X132.67799 Y71.43433 I0.175 J0.30311
G1 F300.0 Z-2.4
G2 F800.0 X132.85299 Y71.73743 I0.35 J0.0
G2 X133.37799 Y71.43433 I0.175 J-0.30311
G2 X132.85299 Y71.13122 I-0.35 J0.0
G2 X132.67799 Y71.43433 I0.175 J0.30311
G1 F300.0 Z-2.7
G2 F800.0 X132.85299 Y71.73743 I0.35 J0.0
G2 X133.37799 Y71.43433 I0.175 J-0.30311
G2 X132.85299 Y71.13122 I-0.35 J0.0
G2 X132.67799 Y71.43433 I0.175 J0.30311
G1 F300.0 Z-3.0
G2 F800.0 X132.85299 Y71.73743 I0.35 J0.0
G2 X133.37799 Y71.43433 I0.175 J-0.30311
G2 X132.85299 Y71.13122 I-0.35 J0.0
G2 X132.67799 Y71.43433 I0.175 J0.30311
G1 F300.0 Z-3.3
G2 F800.0 X132.85299 Y71.73743 I0.35 J0.0
G2 X133.37799 Y71.43433 I0.175 J-0.30311
G2 X132.85299 Y71.13122 I-0.35 J0.0
G2 X132.67799 Y71.43433 I0.175 J0.30311
G1 F300.0 Z-3.6
G2 F800.0 X132.85299 Y71.73743 I0.35 J0.0
G2 X133.37799 Y71.43433 I0.175 J-0.30311
G2 X132.85299 Y71.13122 I-0.35 J0.0
G2 X132.67799 Y71.43433 I0.175 J0.30311
G1 F300.0 Z-3.9
G2 F800.0 X132.85299 Y71.73743 I0.35 J0.0
G2 X133.37799 Y71.43433 I0.175 J-0.30311
G2 X132.85299 Y71.13122 I-0.35 J0.0
G2 X132.67799 Y71.43433 I0.175 J0.30311
G1 F300.0 Z-4.2
G2 F800.0 X132.85299 Y71.73743 I0.35 J0.0
G2 X133.37799 Y71.43433 I0.175 J-0.30311
G2 X132.85299 Y71.13122 I-0.35 J0.0
G2 X132.67799 Y71.43433 I0.175 J0.30311
G1 F300.0 Z-4.5
G2 F800.0 X132.85299 Y71.73743 I0.35 J0.0
G2 X133.37799 Y71.43433 I0.175 J-0.30311
G2 X132.85299 Y71.13122 I-0.35 J0.0
G2 X132.67799 Y71.43433 I0.175 J0.30311
G1 F300.0 Z-4.8
G2 F800.0 X132.85299 Y71.73743 I0.35 J0.0
G2 X133.37799 Y71.43433 I0.175 J-0.30311
G2 X132.85299 Y71.13122 I-0.35 J0.0
G2 X132.67799 Y71.43433 I0.175 J0.30311
G1 F300.0 Z-5.1
G2 F800.0 X132.85299 Y71.73743 I0.35 J0.0
G2 X133.37799 Y71.43433 I0.175 J-0.30311
G2 X132.85299 Y71.13122 I-0.35 J0.0
G2 X132.67799 Y71.43433 I0.175 J0.30311
G1 F300.0 Z-5.3
G2 F800.0 X132.85299 Y71.73743 I0.35 J0.0
G2 X133.37799 Y71.43433 I0.175 J-0.30311
G2 X132.85299 Y71.13122 I-0.35 J0.0
G2 X132.67799 Y71.43433 I0.175 J0.30311
G0 Z3.0
G0 X189.70492 Y95.19972
G0 Z1.0
G1 F300.0 Z-0.3
G2 F800.0 X189.85299 Y95.63746 I0.32307 J0.13464
G2 X190.37799 Y95.33435 I0.175 J-0.30311
G2 X189.85299 Y95.03124 I-0.35 J0.0
G2 X189.70492 Y95.19972 I0.175 J0.30311
G1 F300.0 Z-0.6
G2 F800.0 X189.85299 Y95.63746 I0.32307 J0.13464
G2 X190.37799 Y95.33435 I0.175 J-0.30311
G2 X189.85299 Y95.03124 I-0.35 J0.0
G2 X189.70492 Y95.19972 I0.175 J0.30311
G1 F300.0 Z-0.9
G2 F800.0 X189.85299 Y95.63746 I0.32307 J0.13464
G2 X190.37799 Y95.33435 I0.175 J-0.30311
G2 X189.85299 Y95.03124 I-0.35 J0.0
G2 X189.70492 Y95.19972 I0.175 J0.30311
G1 F300.0 Z-1.2
G2 F800.0 X189.85299 Y95.63746 I0.32307 J0.13464
G2 X190.37799 Y95.33435 I0.175 J-0.30311
G2 X189.85299 Y95.03124 I-0.35 J0.0
G2 X189.70492 Y95.19972 I0.175 J0.30311
G1 F300.0 Z-1.5
G2 F800.0 X189.85299 Y95.63746 I0.32307 J0.13464
G2 X190.37799 Y95.33435 I0.175 J-0.30311
G2 X189.85299 Y95.03124 I-0.35 J0.0
G2 X189.70492 Y95.19972 I0.175 J0.30311
G1 F300.0 Z-1.8
G2 F800.0 X189.85299 Y95.63746 I0.32307 J0.13464
G2 X190.37799 Y95.33435 I0.175 J-0.30311
G2 X189.85299 Y95.03124 I-0.35 J0.0
G2 X189.70492 Y95.19972 I0.175 J0.30311
G1 F300.0 Z-2.1
G2 F800.0 X189.85299 Y95.63746 I0.32307 J0.13464
G2 X190.37799 Y95.33435 I0.175 J-0.30311
G2 X189.85299 Y95.03124 I-0.35 J0.0
G2 X189.70492 Y95.19972 I0.175 J0.30311
G1 F300.0 Z-2.4
G2 F800.0 X189.85299 Y95.63746 I0.32307 J0.13464
G2 X190.37799 Y95.33435 I0.175 J-0.30311
G2 X189.85299 Y95.03124 I-0.35 J0.0
G2 X189.70492 Y95.19972 I0.175 J0.30311
G1 F300.0 Z-2.7
G2 F800.0 X189.85299 Y95.63746 I0.32307 J0.13464
G2 X190.37799 Y95.33435 I0.175 J-0.30311
G2 X189.85299 Y95.03124 I-0.35 J0.0
G2 X189.70492 Y95.19972 I0.175 J0.30311
G1 F300.0 Z-3.0
G2 F800.0 X189.85299 Y95.63746 I0.32307 J0.13464
G2 X190.37799 Y95.33435 I0.175 J-0.30311
G2 X189.85299 Y95.03124 I-0.35 J0.0
G2 X189.70492 Y95.19972 I0.175 J0.30311
G1 F300.0 Z-3.3
G2 F800.0 X189.85299 Y95.63746 I0.32307 J0.13464
G2 X190.37799 Y95.33435 I0.175 J-0.30311
G2 X189.85299 Y95.03124 I-0.35 J0.0
G2 X189.70492 Y95.19972 I0.175 J0.30311
G1 F300.0 Z-3.6
G2 F800.0 X189.85299 Y95.63746 I0.32307 J0.13464
G2 X190.37799 Y95.33435 I0.175 J-0.30311
G2 X189.85299 Y95.03124 I-0.35 J0.0
G2 X189.70492 Y95.19972 I0.175 J0.30311
G1 F300.0 Z-3.9
G2 F800.0 X189.85299 Y95.63746 I0.32307 J0.13464
G2 X190.37799 Y95.33435 I0.175 J-0.30311
G2 X189.85299 Y95.03124 I-0.35 J0.0
G2 X189.70492 Y95.19972 I0.175 J0.30311
G1 F300.0 Z-4.2
G2 F800.0 X189.85299 Y95.63746 I0.32307 J0.13464
G2 X190.37799 Y95.33435 I0.175 J-0.30311
G2 X189.85299 Y95.03124 I-0.35 J0.0
G2 X189.70492 Y95.19972 I0.175 J0.30311
G1 F300.0 Z-4.5
G2 F800.0 X189.85299 Y95.63746 I0.32307 J0.13464
G2 X190.37799 Y95.33435 I0.175 J-0.30311
G2 X189.85299 Y95.03124 I-0.35 J0.0
G2 X189.70492 Y95.19972 I0.175 J0.30311
G1 F300.0 Z-4.8
G2 F800.0 X189.85299 Y95.63746 I0.32307 J0.13464
G2 X190.37799 Y95.33435 I0.175 J-0.30311
G2 X189.85299 Y95.03124 I-0.35 J0.0
G2 X189.70492 Y95.19972 I0.175 J0.30311
G1 F300.0 Z-5.1
G2 F800.0 X189.85299 Y95.63746 I0.32307 J0.13464
G2 X190.37799 Y95.33435 I0.175 J-0.30311
G2 X189.85299 Y95.03124 I-0.35 J0.0
G2 X189.70492 Y95.19972 I0.175 J0.30311
G1 F300.0 Z-5.3
G2 F800.0 X189.85299 Y95.63746 I0.32307 J0.13464
G2 X190.37799 Y95.33435 I0.175 J-0.30311
G2 X189.85299 Y95.03124 I-0.35 J0.0
G2 X189.70492 Y95.19972 I0.175 J0.30311
G0 Z3.0
G0 X207.678 Y95.33178
G0 Z1.0
G1 F300.0 Z-0.3
G2 F800.0 X207.85299 Y95.63746 I0.34999 J0.00257
G2 X208.37799 Y95.33435 I0.175 J-0.30311
G2 X207.85299 Y95.03124 I-0.35 J0.0
G2 X207.678 Y95.33178 I0.175 J0.30311
G1 F300.0 Z-0.6
G2 F800.0 X207.85299 Y95.63746 I0.34999 J0.00257
G2 X208.37799 Y95.33435 I0.175 J-0.30311
G2 X207.85299 Y95.03124 I-0.35 J0.0
G2 X207.678 Y95.33178 I0.175 J0.30311
G1 F300.0 Z-0.9
G2 F800.0 X207.85299 Y95.63746 I0.34999 J0.00257
G2 X208.37799 Y95.33435 I0.175 J-0.30311
G2 X207.85299 Y95.03124 I-0.35 J0.0
G2 X207.678 Y95.33178 I0.175 J0.30311
G1 F300.0 Z-1.2
G2 F800.0 X207.85299 Y95.63746 I0.34999 J0.00257
G2 X208.37799 Y95.33435 I0.175 J-0.30311
G2 X207.85299 Y95.03124 I-0.35 J0.0
G2 X207.678 Y95.33178 I0.175 J0.30311
G1 F300.0 Z-1.5
G2 F800.0 X207.85299 Y95.63746 I0.34999 J0.00257
G2 X208.37799 Y95.33435 I0.175 J-0.30311
G2 X207.85299 Y95.03124 I-0.35 J0.0
G2 X207.678 Y95.33178 I0.175 J0.30311
G1 F300.0 Z-1.8
G2 F800.0 X207.85299 Y95.63746 I0.34999 J0.00257
G2 X208.37799 Y95.33435 I0.175 J-0.30311
G2 X207.85299 Y95.03124 I-0.35 J0.0
G2 X207.678 Y95.33178 I0.175 J0.30311
G1 F300.0 Z-2.1
G2 F800.0 X207.85299 Y95.63746 I0.34999 J0.00257
G2 X208.37799 Y95.33435 I0.175 J-0.30311
G2 X207.85299 Y95.03124 I-0.35 J0.0
G2 X207.678 Y95.33178 I0.175 J0.30311
G1 F300.0 Z-2.4
G2 F800.0 X207.85299 Y95.63746 I0.34999 J0.00257
G2 X208.37799 Y95.33435 I0.175 J-0.30311
G2 X207.85299 Y95.03124 I-0.35 J0.0
G2 X207.678 Y95.33178 I0.175 J0.30311
G1 F300.0 Z-2.7
G2 F800.0 X207.85299 Y95.63746 I0.34999 J0.00257
G2 X208.37799 Y95.33435 I0.175 J-0.30311
G2 X207.85299 Y95.03124 I-0.35 J0.0
G2 X207.678 Y95.33178 I0.175 J0.30311
G1 F300.0 Z-3.0
G2 F800.0 X207.85299 Y95.63746 I0.34999 J0.00257
G2 X208.37799 Y95.33435 I0.175 J-0.30311
G2 X207.85299 Y95.03124 I-0.35 J0.0
G2 X207.678 Y95.33178 I0.175 J0.30311
G1 F300.0 Z-3.3
G2 F800.0 X207.85299 Y95.63746 I0.34999 J0.00257
G2 X208.37799 Y95.33435 I0.175 J-0.30311
G2 X207.85299 Y95.03124 I-0.35 J0.0
G2 X207.678 Y95.33178 I0.175 J0.30311
G1 F300.0 Z-3.6
G2 F800.0 X207.85299 Y95.63746 I0.34999 J0.00257
G2 X208.37799 Y95.33435 I0.175 J-0.30311
G2 X207.85299 Y95.03124 I-0.35 J0.0
G2 X207.678 Y95.33178 I0.175 J0.30311
G1 F300.0 Z-3.9
G2 F800.0 X207.85299 Y95.63746 I0.34999 J0.00257
G2 X208.37799 Y95.33435 I0.175 J-0.30311
G2 X207.85299 Y95.03124 I-0.35 J0.0
G2 X207.678 Y95.33178 I0.175 J0.30311
G1 F300.0 Z-4.2
G2 F800.0 X207.85299 Y95.63746 I0.34999 J0.00257
G2 X208.37799 Y95.33435 I0.175 J-0.30311
G2 X207.85299 Y95.03124 I-0.35 J0.0
G2 X207.678 Y95.33178 I0.175 J0.30311
G1 F300.0 Z-4.5
G2 F800.0 X207.85299 Y95.63746 I0.34999 J0.00257
G2 X208.37799 Y95.33435 I0.175 J-0.30311
G2 X207.85299 Y95.03124 I-0.35 J0.0
G2 X207.678 Y95.33178 I0.175 J0.30311
G1 F300.0 Z-4.8
G2 F800.0 X207.85299 Y95.63746 I0.34999 J0.00257
G2 X208.37799 Y95.33435 I0.175 J-0.30311
G2 X207.85299 Y95.03124 I-0.35 J0.0
G2 X207.678 Y95.33178 I0.175 J0.30311
G1 F300.0 Z-5.1
G2 F800.0 X207.85299 Y95.63746 I0.34999 J0.00257
G2 X208.37799 Y95.33435 I0.175 J-0.30311
G2 X207.85299 Y95.03124 I-0.35 J0.0
G2 X207.678 Y95.33178 I0.175 J0.30311
G1 F300.0 Z-5.3
G2 F800.0 X207.85299 Y95.63746 I0.34999 J0.00257
G2 X208.37799 Y95.33435 I0.175 J-0.30311
G2 X207.85299 Y95.03124 I-0.35 J0.0
G2 X207.678 Y95.33178 I0.175 J0.30311
( Poche1 )
S1000
G0 Z3.0
G0 X126.02799 Y31.48434
G0 Z1.0
G1 F300.0 Z-0.3
G2 F800.0 X124.02799 Y33.48434 I0.0 J2.0
G1 Y60.28434
G1 F300.0 Y61.48434
G1 F800.0 X125.22799
G1 Y33.38434
G3 X125.38633 Y32.28434 I3.9 J0.0
G1 X122.66965
G3 X122.82799 Y33.38434 I-3.74166 J1.1
G1 Y61.48434
G1 X124.02799
G1 F300.0 Y62.68434
G1 F800.0 X126.42799
G1 Y33.38434
G3 X127.71378 Y31.08434 I2.7 J0.0
G1 X120.34221
G3 X121.62799 Y33.38434 I-1.41421 J2.3
G1 Y62.68434
G1 X124.02799
G2 X126.02799 Y60.68434 I0.0 J-2.0
G0 Z3.0
G0 X151.92799 Y39.08434
G0 Z1.0
G1 F300.0 Z-0.3
G2 F800.0 X153.92799 Y41.08434 I2.0 J0.0
G1 X169.12027
G1 Y40.68434
G1 X153.92799
G1 Y41.08434
G1 F300.0 Y42.28434
G1 F800.0 X170.32027
G1 Y39.48434
G1 X152.72799
G1 Y42.28434
G1 X153.92799
G1 F300.0 Y43.48434
G1 F800.0 X171.52027
G1 Y38.28434
G1 X151.52799
G1 Y43.48434
G1 X153.92799
G1 F300.0 Y44.68434
G1 F800.0 X172.72027
G1 Y37.08434
G1 X150.32799
G1 Y44.68434
G1 X153.92799
G1 F300.0 Y45.88434
G1 F800.0 X173.92027
G1 Y35.88434
G1 X149.12799
G1 Y45.88434
G1 X153.92799
G1 F300.0 Y47.08434
G1 F800.0 X175.12027
G1 Y34.68434
G1 X147.92799
G1 Y47.08434
G1 X153.92799
G1 F300.0 Y48.28434
G1 F800.0 X176.32027
G1 Y33.48434
G1 X146.72799
G1 Y48.28434
G1 X153.92799
G1 F300.0 Y49.48434
G1 F800.0 X177.52027
G1 Y33.38434
G3 X177.67862 Y32.28434 I3.9 J0.0
G1 X145.36965
G3 X145.52799 Y33.38434 I-3.74166 J1.1
G1 Y49.48434
G1 X153.92799
G1 F300.0 Y50.68434
G1 F800.0 X178.72027
G1 Y33.38434
G3 X180.00606 Y31.08434 I2.7 J0.0
G1 X143.04221
G3 X144.32799 Y33.38434 I-1.41421 J2.3
G1 Y50.68434
G1 X153.92799
G1 F300.0 Y51.88434
G1 F800.0 X179.92027
G1 Y33.38434
G3 X181.42027 Y31.88434 I1.5 J0.0
G1 X210.52799
G1 Y29.88434
G1 X112.52799
G1 Y31.88434
G1 X118.92799
G3 X120.42799 Y33.38434 I0.0 J1.5
G1 Y63.88434
G1 X127.62799
G1 Y33.38434
G3 X129.12799 Y31.88434 I1.5 J0.0
G1 X141.62799
G3 X143.12799 Y33.38434 I0.0 J1.5
G1 Y51.88434
G1 X153.92799
G2 X155.92799 Y49.88434 I0.0 J-2.0
G0 Z3.0
G0 X151.92799 Y39.08434
G0 Z0.7
G1 F300.0 Z-0.6
G2 F800.0 X153.92799 Y41.08434 I2.0 J0.0
G1 X169.12027
G1 Y40.68434
G1 X153.92799
G1 Y41.08434
G1 F300.0 Y42.28434
G1 F800.0 X170.32027
G1 Y39.48434
G1 X152.72799
G1 Y42.28434
G1 X153.92799
G1 F300.0 Y43.48434
G1 F800.0 X171.52027
G1 Y38.28434
G1 X151.52799
G1 Y43.48434
G1 X153.92799
G1 F300.0 Y44.68434
G1 F800.0 X172.72027
G1 Y37.08434
G1 X150.32799
G1 Y44.68434
G1 X153.92799
G1 F300.0 Y45.88434
G1 F800.0 X173.92027
G1 Y35.88434
G1 X149.12799
G1 Y45.88434
G1 X153.92799
G1 F300.0 Y47.08434
G1 F800.0 X175.12027
G1 Y34.68434
G1 X147.92799
G1 Y47.08434
G1 X153.92799
G1 F300.0 Y48.28434
G1 F800.0 X176.32027
G1 Y33.48434
G1 X146.72799
G1 Y48.28434
G1 X153.92799
G1 F300.0 Y49.48434
G1 F800.0 X177.52027
G1 Y33.38434
G3 X177.67862 Y32.28434 I3.9 J0.0
G1 X145.36965
G3 X145.52799 Y33.38434 I-3.74166 J1.1
G1 Y49.48434
G1 X153.92799
G1 F300.0 Y50.68434
G1 F800.0 X178.72027
G1 Y33.38434
G3 X180.00606 Y31.08434 I2.7 J0.0
G1 X143.04221
G3 X144.32799 Y33.38434 I-1.41421 J2.3
G1 Y50.68434
G1 X153.92799
G2 X155.92799 Y48.68434 I0.0 J-2.0
G0 Z3.0
G0 X126.02799 Y31.48434
G0 Z0.7
G1 F300.0 Z-0.6
G2 F800.0 X124.02799 Y33.48434 I0.0 J2.0
G1 Y60.28434
G1 F300.0 Y61.48434
G1 F800.0 X125.22799
G1 Y33.38434
G3 X125.38633 Y32.28434 I3.9 J0.0
G1 X122.66965
G3 X122.82799 Y33.38434 I-3.74166 J1.1
G1 Y61.48434
G1 X124.02799
G1 F300.0 Y62.68434
G1 F800.0 X126.42799
G1 Y33.38434
G3 X127.71378 Y31.08434 I2.7 J0.0
G1 X120.34221
G3 X121.62799 Y33.38434 I-1.41421 J2.3
G1 Y62.68434
G1 X124.02799
G2 X126.02799 Y60.68434 I0.0 J-2.0
G0 Z3.0
G0 X122.02799 Y61.88434
G0 Z0.7
G1 F300.0 Z-0.6
G2 F800.0 X124.02799 Y63.88434 I2.0 J0.0
G1 X127.62799
G1 Y33.38434
G3 X129.12799 Y31.88434 I1.5 J0.0
G1 X141.62799
G3 X143.12799 Y33.38434 I0.0 J1.5
G1 Y51.88434
G1 X179.92027
G1 Y33.38434
G3 X181.42027 Y31.88434 I1.5 J0.0
G1 X210.52799
G1 Y29.88434
G1 X112.52799
G1 Y31.88434
G1 X118.92799
G3 X120.42799 Y33.38434 I0.0 J1.5
G1 Y63.88434
G1 X124.02799
G2 X126.02799 Y61.88434 I0.0 J-2.0
G0 Z3.0
G0 Y31.48434
G0 Z0.4
G1 F300.0 Z-0.9
G2 F800.0 X124.02799 Y33.48434 I0.0 J2.0
G1 Y60.28434
G1 F300.0 Y61.48434
G1 F800.0 X125.22799
G1 Y33.38434
G3 X125.38633 Y32.28434 I3.9 J0.0
G1 X122.66965
G3 X122.82799 Y33.38434 I-3.74166 J1.1
G1 Y61.48434
G1 X124.02799
G1 F300.0 Y62.68434
G1 F800.0 X126.42799
G1 Y33.38434
G3 X127.71378 Y31.08434 I2.7 J0.0
G1 X120.34221
G3 X121.62799 Y33.38434 I-1.41421 J2.3
G1 Y62.68434
G1 X124.02799
G2 X126.02799 Y60.68434 I0.0 J-2.0
G0 Z3.0
G0 X151.92799 Y39.08434
G0 Z0.4
G1 F300.0 Z-0.9
G2 F800.0 X153.92799 Y41.08434 I2.0 J0.0
G1 X169.12027
G1 Y40.68434
G1 X153.92799
G1 Y41.08434
G1 F300.0 Y42.28434
G1 F800.0 X170.32027
G1 Y39.48434
G1 X152.72799
G1 Y42.28434
G1 X153.92799
G1 F300.0 Y43.48434
G1 F800.0 X171.52027
G1 Y38.28434
G1 X151.52799
G1 Y43.48434
G1 X153.92799
G1 F300.0 Y44.68434
G1 F800.0 X172.72027
G1 Y37.08434
G1 X150.32799
G1 Y44.68434
G1 X153.92799
G1 F300.0 Y45.88434
G1 F800.0 X173.92027
G1 Y35.88434
G1 X149.12799
G1 Y45.88434
G1 X153.92799
G1 F300.0 Y47.08434
G1 F800.0 X175.12027
G1 Y34.68434
G1 X147.92799
G1 Y47.08434
G1 X153.92799
G1 F300.0 Y48.28434
G1 F800.0 X176.32027
G1 Y33.48434
G1 X146.72799
G1 Y48.28434
G1 X153.92799
G1 F300.0 Y49.48434
G1 F800.0 X177.52027
G1 Y33.38434
G3 X177.67862 Y32.28434 I3.9 J0.0
G1 X145.36965
G3 X145.52799 Y33.38434 I-3.74166 J1.1
G1 Y49.48434
G1 X153.92799
G1 F300.0 Y50.68434
G1 F800.0 X178.72027
G1 Y33.38434
G3 X180.00606 Y31.08434 I2.7 J0.0
G1 X143.04221
G3 X144.32799 Y33.38434 I-1.41421 J2.3
G1 Y50.68434
G1 X153.92799
G2 X155.92799 Y48.68434 I0.0 J-2.0
G0 Z3.0
G0 X151.92799 Y49.88434
G0 Z0.4
G1 F300.0 Z-0.9
G2 F800.0 X153.92799 Y51.88434 I2.0 J0.0
G1 X179.92027
G1 Y33.38434
G3 X181.42027 Y31.88434 I1.5 J0.0
G1 X210.52799
G1 Y29.88434
G1 X112.52799
G1 Y31.88434
G1 X118.92799
G3 X120.42799 Y33.38434 I0.0 J1.5
G1 Y63.88434
G1 X127.62799
G1 Y33.38434
G3 X129.12799 Y31.88434 I1.5 J0.0
G1 X141.62799
G3 X143.12799 Y33.38434 I0.0 J1.5
G1 Y51.88434
G1 X153.92799
G2 X155.92799 Y49.88434 I0.0 J-2.0
G0 Z3.0
G0 X151.92799 Y39.08434
G0 Z0.1
G1 F300.0 Z-1.0
G2 F800.0 X153.92799 Y41.08434 I2.0 J0.0
G1 X169.12027
G1 Y40.68434
G1 X153.92799
G1 Y41.08434
G1 F300.0 Y42.28434
G1 F800.0 X170.32027
G1 Y39.48434
G1 X152.72799
G1 Y42.28434
G1 X153.92799
G1 F300.0 Y43.48434
G1 F800.0 X171.52027
G1 Y38.28434
G1 X151.52799
G1 Y43.48434
G1 X153.92799
G1 F300.0 Y44.68434
G1 F800.0 X172.72027
G1 Y37.08434
G1 X150.32799
G1 Y44.68434
G1 X153.92799
G1 F300.0 Y45.88434
G1 F800.0 X173.92027
G1 Y35.88434
G1 X149.12799
G1 Y45.88434
G1 X153.92799
G1 F300.0 Y47.08434
G1 F800.0 X175.12027
G1 Y34.68434
G1 X147.92799
G1 Y47.08434
G1 X153.92799
G1 F300.0 Y48.28434
G1 F800.0 X176.32027
G1 Y33.48434
G1 X146.72799
G1 Y48.28434
G1 X153.92799
G1 F300.0 Y49.48434
G1 F800.0 X177.52027
G1 Y33.38434
G3 X177.67862 Y32.28434 I3.9 J0.0
G1 X145.36965
G3 X145.52799 Y33.38434 I-3.74166 J1.1
G1 Y49.48434
G1 X153.92799
G1 F300.0 Y50.68434
G1 F800.0 X178.72027
G1 Y33.38434
G3 X180.00606 Y31.08434 I2.7 J0.0
G1 X143.04221
G3 X144.32799 Y33.38434 I-1.41421 J2.3
G1 Y50.68434
G1 X153.92799
G2 X155.92799 Y48.68434 I0.0 J-2.0
G0 Z3.0
G0 X126.02799 Y31.48434
G0 Z0.1
G1 F300.0 Z-1.0
G2 F800.0 X124.02799 Y33.48434 I0.0 J2.0
G1 Y60.28434
G1 F300.0 Y61.48434
G1 F800.0 X125.22799
G1 Y33.38434
G3 X125.38633 Y32.28434 I3.9 J0.0
G1 X122.66965
G3 X122.82799 Y33.38434 I-3.74166 J1.1
G1 Y61.48434
G1 X124.02799
G1 F300.0 Y62.68434
G1 F800.0 X126.42799
G1 Y33.38434
G3 X127.71378 Y31.08434 I2.7 J0.0
G1 X120.34221
G3 X121.62799 Y33.38434 I-1.41421 J2.3
G1 Y62.68434
G1 X124.02799
G2 X126.02799 Y60.68434 I0.0 J-2.0
G0 Z3.0
G0 X122.02799 Y61.88434
G0 Z0.3
G1 F300.0 Z-1.0
G2 F800.0 X124.02799 Y63.88434 I2.0 J0.0
G1 X127.62799
G1 Y33.38434
G3 X129.12799 Y31.88434 I1.5 J0.0
G1 X141.62799
G3 X143.12799 Y33.38434 I0.0 J1.5
G1 Y51.88434
G1 X179.92027
G1 Y33.38434
G3 X181.42027 Y31.88434 I1.5 J0.0
G1 X210.52799
G1 Y29.88434
G1 X112.52799
G1 Y31.88434
G1 X118.92799
G3 X120.42799 Y33.38434 I0.0 J1.5
G1 Y63.88434
G1 X124.02799
G2 X126.02799 Y61.88434 I0.0 J-2.0
( Contour1 )
S1000
G0 Z3.0
G0 X151.00342 Y46.63434
G0 Z1.0
G1 F300.0 Z-0.3
G2 F800.0 X150.70342 Y46.46113 I-0.2 J0.0
G2 Y46.80754 I0.1 J0.17321
G2 X151.00342 Y46.63434 I0.1 J-0.17321
G1 F300.0 Z-0.6
G2 F800.0 X150.70342 Y46.46113 I-0.2 J0.0
G2 Y46.80754 I0.1 J0.17321
G2 X151.00342 Y46.63434 I0.1 J-0.17321
G1 F300.0 Z-0.9
G2 F800.0 X150.70342 Y46.46113 I-0.2 J0.0
G2 Y46.80754 I0.1 J0.17321
G2 X151.00342 Y46.63434 I0.1 J-0.17321
G1 F300.0 Z-1.2
G2 F800.0 X150.70342 Y46.46113 I-0.2 J0.0
G2 Y46.80754 I0.1 J0.17321
G2 X151.00342 Y46.63434 I0.1 J-0.17321
G1 F300.0 Z-1.5
G2 F800.0 X150.70342 Y46.46113 I-0.2 J0.0
G2 Y46.80754 I0.1 J0.17321
G2 X151.00342 Y46.63434 I0.1 J-0.17321
G1 F300.0 Z-1.8
G2 F800.0 X150.70342 Y46.46113 I-0.2 J0.0
G2 Y46.80754 I0.1 J0.17321
G2 X151.00342 Y46.63434 I0.1 J-0.17321
G1 F300.0 Z-2.1
G2 F800.0 X150.70342 Y46.46113 I-0.2 J0.0
G2 Y46.80754 I0.1 J0.17321
G2 X151.00342 Y46.63434 I0.1 J-0.17321
G1 F300.0 Z-2.4
G2 F800.0 X150.70342 Y46.46113 I-0.2 J0.0
G2 Y46.80754 I0.1 J0.17321
G2 X151.00342 Y46.63434 I0.1 J-0.17321
G1 F300.0 Z-2.7
G2 F800.0 X150.70342 Y46.46113 I-0.2 J0.0
G2 Y46.80754 I0.1 J0.17321
G2 X151.00342 Y46.63434 I0.1 J-0.17321
G1 F300.0 Z-3.0
G2 F800.0 X150.70342 Y46.46113 I-0.2 J0.0
G2 Y46.80754 I0.1 J0.17321
G2 X151.00342 Y46.63434 I0.1 J-0.17321
G1 F300.0 Z-3.3
G2 F800.0 X150.70342 Y46.46113 I-0.2 J0.0
G2 Y46.80754 I0.1 J0.17321
G2 X151.00342 Y46.63434 I0.1 J-0.17321
G1 F300.0 Z-3.6
G2 F800.0 X150.70342 Y46.46113 I-0.2 J0.0
G2 Y46.80754 I0.1 J0.17321
G2 X151.00342 Y46.63434 I0.1 J-0.17321
G1 F300.0 Z-3.9
G2 F800.0 X150.70342 Y46.46113 I-0.2 J0.0
G2 Y46.80754 I0.1 J0.17321
G2 X151.00342 Y46.63434 I0.1 J-0.17321
G1 F300.0 Z-4.2
G2 F800.0 X150.70342 Y46.46113 I-0.2 J0.0
G2 Y46.80754 I0.1 J0.17321
G2 X151.00342 Y46.63434 I0.1 J-0.17321
G1 F300.0 Z-4.5
G2 F800.0 X150.70342 Y46.46113 I-0.2 J0.0
G2 Y46.80754 I0.1 J0.17321
G2 X151.00342 Y46.63434 I0.1 J-0.17321
G1 F300.0 Z-4.8
G2 F800.0 X150.70342 Y46.46113 I-0.2 J0.0
G2 Y46.80754 I0.1 J0.17321
G2 X151.00342 Y46.63434 I0.1 J-0.17321
G1 F300.0 Z-5.1
G2 F800.0 X150.70342 Y46.46113 I-0.2 J0.0
G2 Y46.80754 I0.1 J0.17321
G2 X151.00342 Y46.63434 I0.1 J-0.17321
G1 F300.0 Z-5.3
G2 F800.0 X150.70342 Y46.46113 I-0.2 J0.0
G2 Y46.80754 I0.1 J0.17321
G2 X151.00342 Y46.63434 I0.1 J-0.17321
G0 Z3.0
G0 X171.25257
G0 Z1.0
G1 F300.0 Z-0.3
G2 F800.0 X171.35257 Y46.80754 I0.2 J0.0
G2 X171.65257 Y46.63434 I0.1 J-0.17321
G2 X171.35257 Y46.46113 I-0.2 J0.0
G2 X171.25257 Y46.63434 I0.1 J0.17321
G1 F300.0 Z-0.6
G2 F800.0 X171.35257 Y46.80754 I0.2 J0.0
G2 X171.65257 Y46.63434 I0.1 J-0.17321
G2 X171.35257 Y46.46113 I-0.2 J0.0
G2 X171.25257 Y46.63434 I0.1 J0.17321
G1 F300.0 Z-0.9
G2 F800.0 X171.35257 Y46.80754 I0.2 J0.0
G2 X171.65257 Y46.63434 I0.1 J-0.17321
G2 X171.35257 Y46.46113 I-0.2 J0.0
G2 X171.25257 Y46.63434 I0.1 J0.17321
G1 F300.0 Z-1.2
G2 F800.0 X171.35257 Y46.80754 I0.2 J0.0
G2 X171.65257 Y46.63434 I0.1 J-0.17321
G2 X171.35257 Y46.46113 I-0.2 J0.0
G2 X171.25257 Y46.63434 I0.1 J0.17321
G1 F300.0 Z-1.5
G2 F800.0 X171.35257 Y46.80754 I0.2 J0.0
G2 X171.65257 Y46.63434 I0.1 J-0.17321
G2 X171.35257 Y46.46113 I-0.2 J0.0
G2 X171.25257 Y46.63434 I0.1 J0.17321
G1 F300.0 Z-1.8
G2 F800.0 X171.35257 Y46.80754 I0.2 J0.0
G2 X171.65257 Y46.63434 I0.1 J-0.17321
G2 X171.35257 Y46.46113 I-0.2 J0.0
G2 X171.25257 Y46.63434 I0.1 J0.17321
G1 F300.0 Z-2.1
G2 F800.0 X171.35257 Y46.80754 I0.2 J0.0
G2 X171.65257 Y46.63434 I0.1 J-0.17321
G2 X171.35257 Y46.46113 I-0.2 J0.0
G2 X171.25257 Y46.63434 I0.1 J0.17321
G1 F300.0 Z-2.4
G2 F800.0 X171.35257 Y46.80754 I0.2 J0.0
G2 X171.65257 Y46.63434 I0.1 J-0.17321
G2 X171.35257 Y46.46113 I-0.2 J0.0
G2 X171.25257 Y46.63434 I0.1 J0.17321
G1 F300.0 Z-2.7
G2 F800.0 X171.35257 Y46.80754 I0.2 J0.0
G2 X171.65257 Y46.63434 I0.1 J-0.17321
G2 X171.35257 Y46.46113 I-0.2 J0.0
G2 X171.25257 Y46.63434 I0.1 J0.17321
G1 F300.0 Z-3.0
G2 F800.0 X171.35257 Y46.80754 I0.2 J0.0
G2 X171.65257 Y46.63434 I0.1 J-0.17321
G2 X171.35257 Y46.46113 I-0.2 J0.0
G2 X171.25257 Y46.63434 I0.1 J0.17321
G1 F300.0 Z-3.3
G2 F800.0 X171.35257 Y46.80754 I0.2 J0.0
G2 X171.65257 Y46.63434 I0.1 J-0.17321
G2 X171.35257 Y46.46113 I-0.2 J0.0
G2 X171.25257 Y46.63434 I0.1 J0.17321
G1 F300.0 Z-3.6
G2 F800.0 X171.35257 Y46.80754 I0.2 J0.0
G2 X171.65257 Y46.63434 I0.1 J-0.17321
G2 X171.35257 Y46.46113 I-0.2 J0.0
G2 X171.25257 Y46.63434 I0.1 J0.17321
G1 F300.0 Z-3.9
G2 F800.0 X171.35257 Y46.80754 I0.2 J0.0
G2 X171.65257 Y46.63434 I0.1 J-0.17321
G2 X171.35257 Y46.46113 I-0.2 J0.0
G2 X171.25257 Y46.63434 I0.1 J0.17321
G1 F300.0 Z-4.2
G2 F800.0 X171.35257 Y46.80754 I0.2 J0.0
G2 X171.65257 Y46.63434 I0.1 J-0.17321
G2 X171.35257 Y46.46113 I-0.2 J0.0
G2 X171.25257 Y46.63434 I0.1 J0.17321
G1 F300.0 Z-4.5
G2 F800.0 X171.35257 Y46.80754 I0.2 J0.0
G2 X171.65257 Y46.63434 I0.1 J-0.17321
G2 X171.35257 Y46.46113 I-0.2 J0.0
G2 X171.25257 Y46.63434 I0.1 J0.17321
G1 F300.0 Z-4.8
G2 F800.0 X171.35257 Y46.80754 I0.2 J0.0
G2 X171.65257 Y46.63434 I0.1 J-0.17321
G2 X171.35257 Y46.46113 I-0.2 J0.0
G2 X171.25257 Y46.63434 I0.1 J0.17321
G1 F300.0 Z-5.1
G2 F800.0 X171.35257 Y46.80754 I0.2 J0.0
G2 X171.65257 Y46.63434 I0.1 J-0.17321
G2 X171.35257 Y46.46113 I-0.2 J0.0
G2 X171.25257 Y46.63434 I0.1 J0.17321
G1 F300.0 Z-5.3
G2 F800.0 X171.35257 Y46.80754 I0.2 J0.0
G2 X171.65257 Y46.63434 I0.1 J-0.17321
G2 X171.35257 Y46.46113 I-0.2 J0.0
G2 X171.25257 Y46.63434 I0.1 J0.17321
( Poche2 )
S1000
G0 Z3.0
G0 X197.02799 Y135.28434
G0 Z1.0
G1 F300.0 Z-0.3
G2 F800.0 X199.02799 Y133.28434 I0.0 J-2.0
G1 Y106.48434
G1 F300.0 Y105.28434
G1 F800.0 X197.82799
G1 Y133.38434
G3 X197.66965 Y134.48434 I-3.9 J0.0
G1 X200.38633
G3 X200.22799 Y133.38434 I3.74166 J-1.1
G1 Y105.28434
G1 X199.02799
G1 F300.0 Y104.08434
G1 F800.0 X196.62799
G1 Y133.38434
G3 X195.34221 Y135.68434 I-2.7 J0.0
G1 X202.71378
G3 X201.42799 Y133.38434 I1.41421 J-2.3
G1 Y104.08434
G1 X199.02799
G2 X197.02799 Y106.08434 I0.0 J2.0
G0 Z3.0
G0 X171.12799 Y127.68434
G0 Z1.0
G1 F300.0 Z-0.3
G2 F800.0 X169.12799 Y125.68434 I-2.0 J0.0
G1 X153.72799
G1 Y126.08434
G1 X169.12799
G1 Y125.68434
G1 F300.0 X170.32799
G1 F800.0 Y124.48434
G1 X152.52799
G1 Y127.28434
G1 X170.32799
G1 Y125.68434
G1 F300.0 X171.52799
G1 F800.0 Y123.28434
G1 X151.32799
G1 Y128.48434
G1 X171.52799
G1 Y125.68434
G1 F300.0 X172.72799
G1 F800.0 Y122.08434
G1 X150.12799
G1 Y129.68434
G1 X172.72799
G1 Y125.68434
G1 F300.0 X173.92799
G1 F800.0 Y120.88434
G1 X148.92799
G1 Y130.88434
G1 X173.92799
G1 Y125.68434
G1 F300.0 X175.12799
G1 F800.0 Y119.68434
G1 X147.72799
G1 Y132.08434
G1 X175.12799
G1 Y125.68434
G1 F300.0 X176.32799
G1 F800.0 Y118.48434
G1 X146.52799
G1 Y133.28434
G1 X176.32799
G1 Y125.68434
G1 F300.0 X177.52799
G1 F800.0 Y117.28434
G1 X145.32799
G1 Y133.38434
G3 X145.16965 Y134.48434 I-3.9 J0.0
G1 X177.68633
G3 X177.52799 Y133.38434 I3.74166 J-1.1
G1 Y125.68434
G1 F300.0 X178.72799
G1 F800.0 Y116.08434
G1 X144.12799
G1 Y133.38434
G3 X142.84221 Y135.68434 I-2.7 J0.0
G1 X180.01378
G3 X178.72799 Y133.38434 I1.41421 J-2.3
G1 Y125.68434
G1 F300.0 X179.92799
G1 F800.0 Y114.88434
G1 X142.92799
G1 Y133.38434
G3 X141.42799 Y134.88434 I-1.5 J0.0
G1 X112.52799
G1 Y136.88434
G1 X210.52799
G1 Y134.88434
G1 X204.12799
G3 X202.62799 Y133.38434 I0.0 J-1.5
G1 Y102.88434
G1 X195.42799
G1 Y133.38434
G3 X193.92799 Y134.88434 I-1.5 J0.0
G1 X181.42799
G3 X179.92799 Y133.38434 I0.0 J-1.5
G1 Y125.68434
G2 X177.92799 Y123.68434 I-2.0 J0.0
G0 Z3.0
G0 X197.02799 Y135.28434
G0 Z0.7
G1 F300.0 Z-0.6
G2 F800.0 X199.02799 Y133.28434 I0.0 J-2.0
G1 Y106.48434
G1 F300.0 Y105.28434
G1 F800.0 X197.82799
G1 Y133.38434
G3 X197.66965 Y134.48434 I-3.9 J0.0
G1 X200.38633
G3 X200.22799 Y133.38434 I3.74166 J-1.1
G1 Y105.28434
G1 X199.02799
G1 F300.0 Y104.08434
G1 F800.0 X196.62799
G1 Y133.38434
G3 X195.34221 Y135.68434 I-2.7 J0.0
G1 X202.71378
G3 X201.42799 Y133.38434 I1.41421 J-2.3
G1 Y104.08434
G1 X199.02799
G2 X197.02799 Y106.08434 I0.0 J2.0
G0 Z3.0
G0 X171.12799 Y127.68434
G0 Z0.7
G1 F300.0 Z-0.6
G2 F800.0 X169.12799 Y125.68434 I-2.0 J0.0
G1 X153.72799
G1 Y126.08434
G1 X169.12799
G1 Y125.68434
G1 F300.0 X170.32799
G1 F800.0 Y124.48434
G1 X152.52799
G1 Y127.28434
G1 X170.32799
G1 Y125.68434
G1 F300.0 X171.52799
G1 F800.0 Y123.28434
G1 X151.32799
G1 Y128.48434
G1 X171.52799
G1 Y125.68434
G1 F300.0 X172.72799
G1 F800.0 Y122.08434
G1 X150.12799
G1 Y129.68434
G1 X172.72799
G1 Y125.68434
G1 F300.0 X173.92799
G1 F800.0 Y120.88434
G1 X148.92799
G1 Y130.88434
G1 X173.92799
G1 Y125.68434
G1 F300.0 X175.12799
G1 F800.0 Y119.68434
G1 X147.72799
G1 Y132.08434
G1 X175.12799
G1 Y125.68434
G1 F300.0 X176.32799
G1 F800.0 Y118.48434
G1 X146.52799
G1 Y133.28434
G1 X176.32799
G1 Y125.68434
G1 F300.0 X177.52799
G1 F800.0 Y117.28434
G1 X145.32799
G1 Y133.38434
G3 X145.16965 Y134.48434 I-3.9 J0.0
G1 X177.68633
G3 X177.52799 Y133.38434 I3.74166 J-1.1
G1 Y125.68434
G1 F300.0 X178.72799
G1 F800.0 Y116.08434
G1 X144.12799
G1 Y133.38434
G3 X142.84221 Y135.68434 I-2.7 J0.0
G1 X180.01378
G3 X178.72799 Y133.38434 I1.41421 J-2.3
G1 Y125.68434
G1 F300.0 X179.92799
G1 F800.0 Y114.88434
G1 X142.92799
G1 Y133.38434
G3 X141.42799 Y134.88434 I-1.5 J0.0
G1 X112.52799
G1 Y136.88434
G1 X210.52799
G1 Y134.88434
G1 X204.12799
G3 X202.62799 Y133.38434 I0.0 J-1.5
G1 Y102.88434
G1 X195.42799
G1 Y133.38434
G3 X193.92799 Y134.88434 I-1.5 J0.0
G1 X181.42799
G3 X179.92799 Y133.38434 I0.0 J-1.5
G1 Y125.68434
G2 X177.92799 Y123.68434 I-2.0 J0.0
G0 Z3.0
G0 X197.02799 Y135.28434
G0 Z0.4
G1 F300.0 Z-0.9
G2 F800.0 X199.02799 Y133.28434 I0.0 J-2.0
G1 Y106.48434
G1 F300.0 Y105.28434
G1 F800.0 X197.82799
G1 Y133.38434
G3 X197.66965 Y134.48434 I-3.9 J0.0
G1 X200.38633
G3 X200.22799 Y133.38434 I3.74166 J-1.1
G1 Y105.28434
G1 X199.02799
G1 F300.0 Y104.08434
G1 F800.0 X196.62799
G1 Y133.38434
G3 X195.34221 Y135.68434 I-2.7 J0.0
G1 X202.71378
G3 X201.42799 Y133.38434 I1.41421 J-2.3
G1 Y104.08434
G1 X199.02799
G2 X197.02799 Y106.08434 I0.0 J2.0
G0 Z3.0
G0 X171.12799 Y127.68434
G0 Z0.4
G1 F300.0 Z-0.9
G2 F800.0 X169.12799 Y125.68434 I-2.0 J0.0
G1 X153.72799
G1 Y126.08434
G1 X169.12799
G1 Y125.68434
G1 F300.0 X170.32799
G1 F800.0 Y124.48434
G1 X152.52799
G1 Y127.28434
G1 X170.32799
G1 Y125.68434
G1 F300.0 X171.52799
G1 F800.0 Y123.28434
G1 X151.32799
G1 Y128.48434
G1 X171.52799
G1 Y125.68434
G1 F300.0 X172.72799
G1 F800.0 Y122.08434
G1 X150.12799
G1 Y129.68434
G1 X172.72799
G1 Y125.68434
G1 F300.0 X173.92799
G1 F800.0 Y120.88434
G1 X148.92799
G1 Y130.88434
G1 X173.92799
G1 Y125.68434
G1 F300.0 X175.12799
G1 F800.0 Y119.68434
G1 X147.72799
G1 Y132.08434
G1 X175.12799
G1 Y125.68434
G1 F300.0 X176.32799
G1 F800.0 Y118.48434
G1 X146.52799
G1 Y133.28434
G1 X176.32799
G1 Y125.68434
G1 F300.0 X177.52799
G1 F800.0 Y117.28434
G1 X145.32799
G1 Y133.38434
G3 X145.16965 Y134.48434 I-3.9 J0.0
G1 X177.68633
G3 X177.52799 Y133.38434 I3.74166 J-1.1
G1 Y125.68434
G1 F300.0 X178.72799
G1 F800.0 Y116.08434
G1 X144.12799
G1 Y133.38434
G3 X142.84221 Y135.68434 I-2.7 J0.0
G1 X180.01378
G3 X178.72799 Y133.38434 I1.41421 J-2.3
G1 Y125.68434
G1 F300.0 X179.92799
G1 F800.0 Y114.88434
G1 X142.92799
G1 Y133.38434
G3 X141.42799 Y134.88434 I-1.5 J0.0
G1 X112.52799
G1 Y136.88434
G1 X210.52799
G1 Y134.88434
G1 X204.12799
G3 X202.62799 Y133.38434 I0.0 J-1.5
G1 Y102.88434
G1 X195.42799
G1 Y133.38434
G3 X193.92799 Y134.88434 I-1.5 J0.0
G1 X181.42799
G3 X179.92799 Y133.38434 I0.0 J-1.5
G1 Y125.68434
G2 X177.92799 Y123.68434 I-2.0 J0.0
G0 Z3.0
G0 X197.02799 Y135.28434
G0 Z0.1
G1 F300.0 Z-1.0
G2 F800.0 X199.02799 Y133.28434 I0.0 J-2.0
G1 Y106.48434
G1 F300.0 Y105.28434
G1 F800.0 X197.82799
G1 Y133.38434
G3 X197.66965 Y134.48434 I-3.9 J0.0
G1 X200.38633
G3 X200.22799 Y133.38434 I3.74166 J-1.1
G1 Y105.28434
G1 X199.02799
G1 F300.0 Y104.08434
G1 F800.0 X196.62799
G1 Y133.38434
G3 X195.34221 Y135.68434 I-2.7 J0.0
G1 X202.71378
G3 X201.42799 Y133.38434 I1.41421 J-2.3
G1 Y104.08434
G1 X199.02799
G2 X197.02799 Y106.08434 I0.0 J2.0
G0 Z3.0
G0 X171.12799 Y127.68434
G0 Z0.1
G1 F300.0 Z-1.0
G2 F800.0 X169.12799 Y125.68434 I-2.0 J0.0
G1 X153.72799
G1 Y126.08434
G1 X169.12799
G1 Y125.68434
G1 F300.0 X170.32799
G1 F800.0 Y124.48434
G1 X152.52799
G1 Y127.28434
G1 X170.32799
G1 Y125.68434
G1 F300.0 X171.52799
G1 F800.0 Y123.28434
G1 X151.32799
G1 Y128.48434
G1 X171.52799
G1 Y125.68434
G1 F300.0 X172.72799
G1 F800.0 Y122.08434
G1 X150.12799
G1 Y129.68434
G1 X172.72799
G1 Y125.68434
G1 F300.0 X173.92799
G1 F800.0 Y120.88434
G1 X148.92799
G1 Y130.88434
G1 X173.92799
G1 Y125.68434
G1 F300.0 X175.12799
G1 F800.0 Y119.68434
G1 X147.72799
G1 Y132.08434
G1 X175.12799
G1 Y125.68434
G1 F300.0 X176.32799
G1 F800.0 Y118.48434
G1 X146.52799
G1 Y133.28434
G1 X176.32799
G1 Y125.68434
G1 F300.0 X177.52799
G1 F800.0 Y117.28434
G1 X145.32799
G1 Y133.38434
G3 X145.16965 Y134.48434 I-3.9 J0.0
G1 X177.68633
G3 X177.52799 Y133.38434 I3.74166 J-1.1
G1 Y125.68434
G1 F300.0 X178.72799
G1 F800.0 Y116.08434
G1 X144.12799
G1 Y133.38434
G3 X142.84221 Y135.68434 I-2.7 J0.0
G1 X180.01378
G3 X178.72799 Y133.38434 I1.41421 J-2.3
G1 Y125.68434
G1 F300.0 X179.92799
G1 F800.0 Y114.88434
G1 X142.92799
G1 Y133.38434
G3 X141.42799 Y134.88434 I-1.5 J0.0
G1 X112.52799
G1 Y136.88434
G1 X210.52799
G1 Y134.88434
G1 X204.12799
G3 X202.62799 Y133.38434 I0.0 J-1.5
G1 Y102.88434
G1 X195.42799
G1 Y133.38434
G3 X193.92799 Y134.88434 I-1.5 J0.0
G1 X181.42799
G3 X179.92799 Y133.38434 I0.0 J-1.5
G1 Y125.68434
G2 X177.92799 Y123.68434 I-2.0 J0.0
( Contour2 )
S1000
G0 Z3.0
G0 X151.30342 Y120.13434
G0 Z1.0
G1 F300.0 Z-0.3
G2 F800.0 X151.00342 Y119.96113 I-0.2 J0.0
G2 Y120.30754 I0.1 J0.17321
G2 X151.30342 Y120.13434 I0.1 J-0.17321
G1 F300.0 Z-0.6
G2 F800.0 X151.00342 Y119.96113 I-0.2 J0.0
G2 Y120.30754 I0.1 J0.17321
G2 X151.30342 Y120.13434 I0.1 J-0.17321
G1 F300.0 Z-0.9
G2 F800.0 X151.00342 Y119.96113 I-0.2 J0.0
G2 Y120.30754 I0.1 J0.17321
G2 X151.30342 Y120.13434 I0.1 J-0.17321
G1 F300.0 Z-1.2
G2 F800.0 X151.00342 Y119.96113 I-0.2 J0.0
G2 Y120.30754 I0.1 J0.17321
G2 X151.30342 Y120.13434 I0.1 J-0.17321
G1 F300.0 Z-1.5
G2 F800.0 X151.00342 Y119.96113 I-0.2 J0.0
G2 Y120.30754 I0.1 J0.17321
G2 X151.30342 Y120.13434 I0.1 J-0.17321
G1 F300.0 Z-1.8
G2 F800.0 X151.00342 Y119.96113 I-0.2 J0.0
G2 Y120.30754 I0.1 J0.17321
G2 X151.30342 Y120.13434 I0.1 J-0.17321
G1 F300.0 Z-2.1
G2 F800.0 X151.00342 Y119.96113 I-0.2 J0.0
G2 Y120.30754 I0.1 J0.17321
G2 X151.30342 Y120.13434 I0.1 J-0.17321
G1 F300.0 Z-2.4
G2 F800.0 X151.00342 Y119.96113 I-0.2 J0.0
G2 Y120.30754 I0.1 J0.17321
G2 X151.30342 Y120.13434 I0.1 J-0.17321
G1 F300.0 Z-2.7
G2 F800.0 X151.00342 Y119.96113 I-0.2 J0.0
G2 Y120.30754 I0.1 J0.17321
G2 X151.30342 Y120.13434 I0.1 J-0.17321
G1 F300.0 Z-3.0
G2 F800.0 X151.00342 Y119.96113 I-0.2 J0.0
G2 Y120.30754 I0.1 J0.17321
G2 X151.30342 Y120.13434 I0.1 J-0.17321
G1 F300.0 Z-3.3
G2 F800.0 X151.00342 Y119.96113 I-0.2 J0.0
G2 Y120.30754 I0.1 J0.17321
G2 X151.30342 Y120.13434 I0.1 J-0.17321
G1 F300.0 Z-3.6
G2 F800.0 X151.00342 Y119.96113 I-0.2 J0.0
G2 Y120.30754 I0.1 J0.17321
G2 X151.30342 Y120.13434 I0.1 J-0.17321
G1 F300.0 Z-3.9
G2 F800.0 X151.00342 Y119.96113 I-0.2 J0.0
G2 Y120.30754 I0.1 J0.17321
G2 X151.30342 Y120.13434 I0.1 J-0.17321
G1 F300.0 Z-4.2
G2 F800.0 X151.00342 Y119.96113 I-0.2 J0.0
G2 Y120.30754 I0.1 J0.17321
G2 X151.30342 Y120.13434 I0.1 J-0.17321
G1 F300.0 Z-4.5
G2 F800.0 X151.00342 Y119.96113 I-0.2 J0.0
G2 Y120.30754 I0.1 J0.17321
G2 X151.30342 Y120.13434 I0.1 J-0.17321
G1 F300.0 Z-4.8
G2 F800.0 X151.00342 Y119.96113 I-0.2 J0.0
G2 Y120.30754 I0.1 J0.17321
G2 X151.30342 Y120.13434 I0.1 J-0.17321
G1 F300.0 Z-5.1
G2 F800.0 X151.00342 Y119.96113 I-0.2 J0.0
G2 Y120.30754 I0.1 J0.17321
G2 X151.30342 Y120.13434 I0.1 J-0.17321
G1 F300.0 Z-5.3
G2 F800.0 X151.00342 Y119.96113 I-0.2 J0.0
G2 Y120.30754 I0.1 J0.17321
G2 X151.30342 Y120.13434 I0.1 J-0.17321
G0 Z3.0
G0 X171.55257
G0 Z1.0
G1 F300.0 Z-0.3
G2 F800.0 X171.65257 Y120.30754 I0.2 J0.0
G2 X171.95257 Y120.13434 I0.1 J-0.17321
G2 X171.65257 Y119.96113 I-0.2 J0.0
G2 X171.55257 Y120.13434 I0.1 J0.17321
G1 F300.0 Z-0.6
G2 F800.0 X171.65257 Y120.30754 I0.2 J0.0
G2 X171.95257 Y120.13434 I0.1 J-0.17321
G2 X171.65257 Y119.96113 I-0.2 J0.0
G2 X171.55257 Y120.13434 I0.1 J0.17321
G1 F300.0 Z-0.9
G2 F800.0 X171.65257 Y120.30754 I0.2 J0.0
G2 X171.95257 Y120.13434 I0.1 J-0.17321
G2 X171.65257 Y119.96113 I-0.2 J0.0
G2 X171.55257 Y120.13434 I0.1 J0.17321
G1 F300.0 Z-1.2
G2 F800.0 X171.65257 Y120.30754 I0.2 J0.0
G2 X171.95257 Y120.13434 I0.1 J-0.17321
G2 X171.65257 Y119.96113 I-0.2 J0.0
G2 X171.55257 Y120.13434 I0.1 J0.17321
G1 F300.0 Z-1.5
G2 F800.0 X171.65257 Y120.30754 I0.2 J0.0
G2 X171.95257 Y120.13434 I0.1 J-0.17321
G2 X171.65257 Y119.96113 I-0.2 J0.0
G2 X171.55257 Y120.13434 I0.1 J0.17321
G1 F300.0 Z-1.8
G2 F800.0 X171.65257 Y120.30754 I0.2 J0.0
G2 X171.95257 Y120.13434 I0.1 J-0.17321
G2 X171.65257 Y119.96113 I-0.2 J0.0
G2 X171.55257 Y120.13434 I0.1 J0.17321
G1 F300.0 Z-2.1
G2 F800.0 X171.65257 Y120.30754 I0.2 J0.0
G2 X171.95257 Y120.13434 I0.1 J-0.17321
G2 X171.65257 Y119.96113 I-0.2 J0.0
G2 X171.55257 Y120.13434 I0.1 J0.17321
G1 F300.0 Z-2.4
G2 F800.0 X171.65257 Y120.30754 I0.2 J0.0
G2 X171.95257 Y120.13434 I0.1 J-0.17321
G2 X171.65257 Y119.96113 I-0.2 J0.0
G2 X171.55257 Y120.13434 I0.1 J0.17321
G1 F300.0 Z-2.7
G2 F800.0 X171.65257 Y120.30754 I0.2 J0.0
G2 X171.95257 Y120.13434 I0.1 J-0.17321
G2 X171.65257 Y119.96113 I-0.2 J0.0
G2 X171.55257 Y120.13434 I0.1 J0.17321
G1 F300.0 Z-3.0
G2 F800.0 X171.65257 Y120.30754 I0.2 J0.0
G2 X171.95257 Y120.13434 I0.1 J-0.17321
G2 X171.65257 Y119.96113 I-0.2 J0.0
G2 X171.55257 Y120.13434 I0.1 J0.17321
G1 F300.0 Z-3.3
G2 F800.0 X171.65257 Y120.30754 I0.2 J0.0
G2 X171.95257 Y120.13434 I0.1 J-0.17321
G2 X171.65257 Y119.96113 I-0.2 J0.0
G2 X171.55257 Y120.13434 I0.1 J0.17321
G1 F300.0 Z-3.6
G2 F800.0 X171.65257 Y120.30754 I0.2 J0.0
G2 X171.95257 Y120.13434 I0.1 J-0.17321
G2 X171.65257 Y119.96113 I-0.2 J0.0
G2 X171.55257 Y120.13434 I0.1 J0.17321
G1 F300.0 Z-3.9
G2 F800.0 X171.65257 Y120.30754 I0.2 J0.0
G2 X171.95257 Y120.13434 I0.1 J-0.17321
G2 X171.65257 Y119.96113 I-0.2 J0.0
G2 X171.55257 Y120.13434 I0.1 J0.17321
G1 F300.0 Z-4.2
G2 F800.0 X171.65257 Y120.30754 I0.2 J0.0
G2 X171.95257 Y120.13434 I0.1 J-0.17321
G2 X171.65257 Y119.96113 I-0.2 J0.0
G2 X171.55257 Y120.13434 I0.1 J0.17321
G1 F300.0 Z-4.5
G2 F800.0 X171.65257 Y120.30754 I0.2 J0.0
G2 X171.95257 Y120.13434 I0.1 J-0.17321
G2 X171.65257 Y119.96113 I-0.2 J0.0
G2 X171.55257 Y120.13434 I0.1 J0.17321
G1 F300.0 Z-4.8
G2 F800.0 X171.65257 Y120.30754 I0.2 J0.0
G2 X171.95257 Y120.13434 I0.1 J-0.17321
G2 X171.65257 Y119.96113 I-0.2 J0.0
G2 X171.55257 Y120.13434 I0.1 J0.17321
G1 F300.0 Z-5.1
G2 F800.0 X171.65257 Y120.30754 I0.2 J0.0
G2 X171.95257 Y120.13434 I0.1 J-0.17321
G2 X171.65257 Y119.96113 I-0.2 J0.0
G2 X171.55257 Y120.13434 I0.1 J0.17321
G1 F300.0 Z-5.3
G2 F800.0 X171.65257 Y120.30754 I0.2 J0.0
G2 X171.95257 Y120.13434 I0.1 J-0.17321
G2 X171.65257 Y119.96113 I-0.2 J0.0
G2 X171.55257 Y120.13434 I0.1 J0.17321
( Contour4 )
S1000
G0 Z3.0
G0 X234.22799 Y125.49759
G0 Z1.0
G1 F300.0 Z-0.3
G2 F800.0 X233.92799 Y125.32438 I-0.2 J0.0
G2 Y125.67079 I0.1 J0.17321
G2 X234.22799 Y125.49759 I0.1 J-0.17321
G1 F300.0 Z-0.6
G2 F800.0 X233.92799 Y125.32438 I-0.2 J0.0
G2 Y125.67079 I0.1 J0.17321
G2 X234.22799 Y125.49759 I0.1 J-0.17321
G1 F300.0 Z-0.9
G2 F800.0 X233.92799 Y125.32438 I-0.2 J0.0
G2 Y125.67079 I0.1 J0.17321
G2 X234.22799 Y125.49759 I0.1 J-0.17321
G1 F300.0 Z-1.2
G2 F800.0 X233.92799 Y125.32438 I-0.2 J0.0
G2 Y125.67079 I0.1 J0.17321
G2 X234.22799 Y125.49759 I0.1 J-0.17321
G1 F300.0 Z-1.5
G2 F800.0 X233.92799 Y125.32438 I-0.2 J0.0
G2 Y125.67079 I0.1 J0.17321
G2 X234.22799 Y125.49759 I0.1 J-0.17321
G1 F300.0 Z-1.8
G2 F800.0 X233.92799 Y125.32438 I-0.2 J0.0
G2 Y125.67079 I0.1 J0.17321
G2 X234.22799 Y125.49759 I0.1 J-0.17321
G1 F300.0 Z-2.1
G2 F800.0 X233.92799 Y125.32438 I-0.2 J0.0
G2 Y125.67079 I0.1 J0.17321
G2 X234.22799 Y125.49759 I0.1 J-0.17321
G1 F300.0 Z-2.4
G2 F800.0 X233.92799 Y125.32438 I-0.2 J0.0
G2 Y125.67079 I0.1 J0.17321
G2 X234.22799 Y125.49759 I0.1 J-0.17321
G1 F300.0 Z-2.7
G2 F800.0 X233.92799 Y125.32438 I-0.2 J0.0
G2 Y125.67079 I0.1 J0.17321
G2 X234.22799 Y125.49759 I0.1 J-0.17321
G1 F300.0 Z-3.0
G2 F800.0 X233.92799 Y125.32438 I-0.2 J0.0
G2 Y125.67079 I0.1 J0.17321
G2 X234.22799 Y125.49759 I0.1 J-0.17321
G1 F300.0 Z-3.3
G2 F800.0 X233.92799 Y125.32438 I-0.2 J0.0
G2 Y125.67079 I0.1 J0.17321
G2 X234.22799 Y125.49759 I0.1 J-0.17321
G1 F300.0 Z-3.6
G2 F800.0 X233.92799 Y125.32438 I-0.2 J0.0
G2 Y125.67079 I0.1 J0.17321
G2 X234.22799 Y125.49759 I0.1 J-0.17321
G1 F300.0 Z-3.9
G2 F800.0 X233.92799 Y125.32438 I-0.2 J0.0
G2 Y125.67079 I0.1 J0.17321
G2 X234.22799 Y125.49759 I0.1 J-0.17321
G1 F300.0 Z-4.2
G2 F800.0 X233.92799 Y125.32438 I-0.2 J0.0
G2 Y125.67079 I0.1 J0.17321
G2 X234.22799 Y125.49759 I0.1 J-0.17321
G1 F300.0 Z-4.5
G2 F800.0 X233.92799 Y125.32438 I-0.2 J0.0
G2 Y125.67079 I0.1 J0.17321
G2 X234.22799 Y125.49759 I0.1 J-0.17321
G1 F300.0 Z-4.8
G2 F800.0 X233.92799 Y125.32438 I-0.2 J0.0
G2 Y125.67079 I0.1 J0.17321
G2 X234.22799 Y125.49759 I0.1 J-0.17321
G1 F300.0 Z-5.1
G2 F800.0 X233.92799 Y125.32438 I-0.2 J0.0
G2 Y125.67079 I0.1 J0.17321
G2 X234.22799 Y125.49759 I0.1 J-0.17321
G1 F300.0 Z-5.3
G2 F800.0 X233.92799 Y125.32438 I-0.2 J0.0
G2 Y125.67079 I0.1 J0.17321
G2 X234.22799 Y125.49759 I0.1 J-0.17321
G0 Z3.0
G0 X234.02847 Y41.47109
G0 Z1.0
G1 F300.0 Z-0.3
G2 F800.0 X234.22799 Y41.27109 I-0.00047 J-0.2
G2 X233.92799 Y41.09788 I-0.2 J0.0
G2 Y41.44429 I0.1 J0.17321
G2 X234.02847 Y41.47109 I0.1 J-0.17321
G1 F300.0 Z-0.6
G2 F800.0 X234.22799 Y41.27109 I-0.00047 J-0.2
G2 X233.92799 Y41.09788 I-0.2 J0.0
G2 Y41.44429 I0.1 J0.17321
G2 X234.02847 Y41.47109 I0.1 J-0.17321
G1 F300.0 Z-0.9
G2 F800.0 X234.22799 Y41.27109 I-0.00047 J-0.2
G2 X233.92799 Y41.09788 I-0.2 J0.0
G2 Y41.44429 I0.1 J0.17321
G2 X234.02847 Y41.47109 I0.1 J-0.17321
G1 F300.0 Z-1.2
G2 F800.0 X234.22799 Y41.27109 I-0.00047 J-0.2
G2 X233.92799 Y41.09788 I-0.2 J0.0
G2 Y41.44429 I0.1 J0.17321
G2 X234.02847 Y41.47109 I0.1 J-0.17321
G1 F300.0 Z-1.5
G2 F800.0 X234.22799 Y41.27109 I-0.00047 J-0.2
G2 X233.92799 Y41.09788 I-0.2 J0.0
G2 Y41.44429 I0.1 J0.17321
G2 X234.02847 Y41.47109 I0.1 J-0.17321
G1 F300.0 Z-1.8
G2 F800.0 X234.22799 Y41.27109 I-0.00047 J-0.2
G2 X233.92799 Y41.09788 I-0.2 J0.0
G2 Y41.44429 I0.1 J0.17321
G2 X234.02847 Y41.47109 I0.1 J-0.17321
G1 F300.0 Z-2.1
G2 F800.0 X234.22799 Y41.27109 I-0.00047 J-0.2
G2 X233.92799 Y41.09788 I-0.2 J0.0
G2 Y41.44429 I0.1 J0.17321
G2 X234.02847 Y41.47109 I0.1 J-0.17321
G1 F300.0 Z-2.4
G2 F800.0 X234.22799 Y41.27109 I-0.00047 J-0.2
G2 X233.92799 Y41.09788 I-0.2 J0.0
G2 Y41.44429 I0.1 J0.17321
G2 X234.02847 Y41.47109 I0.1 J-0.17321
G1 F300.0 Z-2.7
G2 F800.0 X234.22799 Y41.27109 I-0.00047 J-0.2
G2 X233.92799 Y41.09788 I-0.2 J0.0
G2 Y41.44429 I0.1 J0.17321
G2 X234.02847 Y41.47109 I0.1 J-0.17321
G1 F300.0 Z-3.0
G2 F800.0 X234.22799 Y41.27109 I-0.00047 J-0.2
G2 X233.92799 Y41.09788 I-0.2 J0.0
G2 Y41.44429 I0.1 J0.17321
G2 X234.02847 Y41.47109 I0.1 J-0.17321
G1 F300.0 Z-3.3
G2 F800.0 X234.22799 Y41.27109 I-0.00047 J-0.2
G2 X233.92799 Y41.09788 I-0.2 J0.0
G2 Y41.44429 I0.1 J0.17321
G2 X234.02847 Y41.47109 I0.1 J-0.17321
G1 F300.0 Z-3.6
G2 F800.0 X234.22799 Y41.27109 I-0.00047 J-0.2
G2 X233.92799 Y41.09788 I-0.2 J0.0
G2 Y41.44429 I0.1 J0.17321
G2 X234.02847 Y41.47109 I0.1 J-0.17321
G1 F300.0 Z-3.9
G2 F800.0 X234.22799 Y41.27109 I-0.00047 J-0.2
G2 X233.92799 Y41.09788 I-0.2 J0.0
G2 Y41.44429 I0.1 J0.17321
G2 X234.02847 Y41.47109 I0.1 J-0.17321
G1 F300.0 Z-4.2
G2 F800.0 X234.22799 Y41.27109 I-0.00047 J-0.2
G2 X233.92799 Y41.09788 I-0.2 J0.0
G2 Y41.44429 I0.1 J0.17321
G2 X234.02847 Y41.47109 I0.1 J-0.17321
G1 F300.0 Z-4.5
G2 F800.0 X234.22799 Y41.27109 I-0.00047 J-0.2
G2 X233.92799 Y41.09788 I-0.2 J0.0
G2 Y41.44429 I0.1 J0.17321
G2 X234.02847 Y41.47109 I0.1 J-0.17321
G1 F300.0 Z-4.8
G2 F800.0 X234.22799 Y41.27109 I-0.00047 J-0.2
G2 X233.92799 Y41.09788 I-0.2 J0.0
G2 Y41.44429 I0.1 J0.17321
G2 X234.02847 Y41.47109 I0.1 J-0.17321
G1 F300.0 Z-5.1
G2 F800.0 X234.22799 Y41.27109 I-0.00047 J-0.2
G2 X233.92799 Y41.09788 I-0.2 J0.0
G2 Y41.44429 I0.1 J0.17321
G2 X234.02847 Y41.47109 I0.1 J-0.17321
G1 F300.0 Z-5.3
G2 F800.0 X234.22799 Y41.27109 I-0.00047 J-0.2
G2 X233.92799 Y41.09788 I-0.2 J0.0
G2 Y41.44429 I0.1 J0.17321
G2 X234.02847 Y41.47109 I0.1 J-0.17321
G0 Z3.0
G0 X99.22799 Y41.27139
G0 Z1.0
G1 F300.0 Z-0.3
G2 F800.0 Y41.27109 I-0.2 J-0.0003
G2 X98.92799 Y41.09788 I-0.2 J0.0
G2 Y41.44429 I0.1 J0.17321
G2 X99.22799 Y41.27139 I0.1 J-0.17321
G1 F300.0 Z-0.6
G2 F800.0 Y41.27109 I-0.2 J-0.0003
G2 X98.92799 Y41.09788 I-0.2 J0.0
G2 Y41.44429 I0.1 J0.17321
G2 X99.22799 Y41.27139 I0.1 J-0.17321
G1 F300.0 Z-0.9
G2 F800.0 Y41.27109 I-0.2 J-0.0003
G2 X98.92799 Y41.09788 I-0.2 J0.0
G2 Y41.44429 I0.1 J0.17321
G2 X99.22799 Y41.27139 I0.1 J-0.17321
G1 F300.0 Z-1.2
G2 F800.0 Y41.27109 I-0.2 J-0.0003
G2 X98.92799 Y41.09788 I-0.2 J0.0
G2 Y41.44429 I0.1 J0.17321
G2 X99.22799 Y41.27139 I0.1 J-0.17321
G1 F300.0 Z-1.5
G2 F800.0 Y41.27109 I-0.2 J-0.0003
G2 X98.92799 Y41.09788 I-0.2 J0.0
G2 Y41.44429 I0.1 J0.17321
G2 X99.22799 Y41.27139 I0.1 J-0.17321
G1 F300.0 Z-1.8
G2 F800.0 Y41.27109 I-0.2 J-0.0003
G2 X98.92799 Y41.09788 I-0.2 J0.0
G2 Y41.44429 I0.1 J0.17321
G2 X99.22799 Y41.27139 I0.1 J-0.17321
G1 F300.0 Z-2.1
G2 F800.0 Y41.27109 I-0.2 J-0.0003
G2 X98.92799 Y41.09788 I-0.2 J0.0
G2 Y41.44429 I0.1 J0.17321
G2 X99.22799 Y41.27139 I0.1 J-0.17321
G1 F300.0 Z-2.4
G2 F800.0 Y41.27109 I-0.2 J-0.0003
G2 X98.92799 Y41.09788 I-0.2 J0.0
G2 Y41.44429 I0.1 J0.17321
G2 X99.22799 Y41.27139 I0.1 J-0.17321
G1 F300.0 Z-2.7
G2 F800.0 Y41.27109 I-0.2 J-0.0003
G2 X98.92799 Y41.09788 I-0.2 J0.0
G2 Y41.44429 I0.1 J0.17321
G2 X99.22799 Y41.27139 I0.1 J-0.17321
G1 F300.0 Z-3.0
G2 F800.0 Y41.27109 I-0.2 J-0.0003
G2 X98.92799 Y41.09788 I-0.2 J0.0
G2 Y41.44429 I0.1 J0.17321
G2 X99.22799 Y41.27139 I0.1 J-0.17321
G1 F300.0 Z-3.3
G2 F800.0 Y41.27109 I-0.2 J-0.0003
G2 X98.92799 Y41.09788 I-0.2 J0.0
G2 Y41.44429 I0.1 J0.17321
G2 X99.22799 Y41.27139 I0.1 J-0.17321
G1 F300.0 Z-3.6
G2 F800.0 Y41.27109 I-0.2 J-0.0003
G2 X98.92799 Y41.09788 I-0.2 J0.0
G2 Y41.44429 I0.1 J0.17321
G2 X99.22799 Y41.27139 I0.1 J-0.17321
G1 F300.0 Z-3.9
G2 F800.0 Y41.27109 I-0.2 J-0.0003
G2 X98.92799 Y41.09788 I-0.2 J0.0
G2 Y41.44429 I0.1 J0.17321
G2 X99.22799 Y41.27139 I0.1 J-0.17321
G1 F300.0 Z-4.2
G2 F800.0 Y41.27109 I-0.2 J-0.0003
G2 X98.92799 Y41.09788 I-0.2 J0.0
G2 Y41.44429 I0.1 J0.17321
G2 X99.22799 Y41.27139 I0.1 J-0.17321
G1 F300.0 Z-4.5
G2 F800.0 Y41.27109 I-0.2 J-0.0003
G2 X98.92799 Y41.09788 I-0.2 J0.0
G2 Y41.44429 I0.1 J0.17321
G2 X99.22799 Y41.27139 I0.1 J-0.17321
G1 F300.0 Z-4.8
G2 F800.0 Y41.27109 I-0.2 J-0.0003
G2 X98.92799 Y41.09788 I-0.2 J0.0
G2 Y41.44429 I0.1 J0.17321
G2 X99.22799 Y41.27139 I0.1 J-0.17321
G1 F300.0 Z-5.1
G2 F800.0 Y41.27109 I-0.2 J-0.0003
G2 X98.92799 Y41.09788 I-0.2 J0.0
G2 Y41.44429 I0.1 J0.17321
G2 X99.22799 Y41.27139 I0.1 J-0.17321
G1 F300.0 Z-5.3
G2 F800.0 Y41.27109 I-0.2 J-0.0003
G2 X98.92799 Y41.09788 I-0.2 J0.0
G2 Y41.44429 I0.1 J0.17321
G2 X99.22799 Y41.27139 I0.1 J-0.17321
G0 Z3.0
G0 X85.61009 Y34.96835
G0 Z1.0
G1 F300.0 Z-0.3
G2 F800.0 X85.62859 Y34.88434 I-0.1815 J-0.08401
G2 X85.32859 Y34.71113 I-0.2 J0.0
G2 Y35.05754 I0.1 J0.17321
G2 X85.61009 Y34.96835 I0.1 J-0.17321
G1 F300.0 Z-0.6
G2 F800.0 X85.62859 Y34.88434 I-0.1815 J-0.08401
G2 X85.32859 Y34.71113 I-0.2 J0.0
G2 Y35.05754 I0.1 J0.17321
G2 X85.61009 Y34.96835 I0.1 J-0.17321
G1 F300.0 Z-0.9
G2 F800.0 X85.62859 Y34.88434 I-0.1815 J-0.08401
G2 X85.32859 Y34.71113 I-0.2 J0.0
G2 Y35.05754 I0.1 J0.17321
G2 X85.61009 Y34.96835 I0.1 J-0.17321
G1 F300.0 Z-1.2
G2 F800.0 X85.62859 Y34.88434 I-0.1815 J-0.08401
G2 X85.32859 Y34.71113 I-0.2 J0.0
G2 Y35.05754 I0.1 J0.17321
G2 X85.61009 Y34.96835 I0.1 J-0.17321
G1 F300.0 Z-1.5
G2 F800.0 X85.62859 Y34.88434 I-0.1815 J-0.08401
G2 X85.32859 Y34.71113 I-0.2 J0.0
G2 Y35.05754 I0.1 J0.17321
G2 X85.61009 Y34.96835 I0.1 J-0.17321
G1 F300.0 Z-1.8
G2 F800.0 X85.62859 Y34.88434 I-0.1815 J-0.08401
G2 X85.32859 Y34.71113 I-0.2 J0.0
G2 Y35.05754 I0.1 J0.17321
G2 X85.61009 Y34.96835 I0.1 J-0.17321
G1 F300.0 Z-2.1
G2 F800.0 X85.62859 Y34.88434 I-0.1815 J-0.08401
G2 X85.32859 Y34.71113 I-0.2 J0.0
G2 Y35.05754 I0.1 J0.17321
G2 X85.61009 Y34.96835 I0.1 J-0.17321
G1 F300.0 Z-2.4
G2 F800.0 X85.62859 Y34.88434 I-0.1815 J-0.08401
G2 X85.32859 Y34.71113 I-0.2 J0.0
G2 Y35.05754 I0.1 J0.17321
G2 X85.61009 Y34.96835 I0.1 J-0.17321
G1 F300.0 Z-2.7
G2 F800.0 X85.62859 Y34.88434 I-0.1815 J-0.08401
G2 X85.32859 Y34.71113 I-0.2 J0.0
G2 Y35.05754 I0.1 J0.17321
G2 X85.61009 Y34.96835 I0.1 J-0.17321
G1 F300.0 Z-3.0
G2 F800.0 X85.62859 Y34.88434 I-0.1815 J-0.08401
G2 X85.32859 Y34.71113 I-0.2 J0.0
G2 Y35.05754 I0.1 J0.17321
G2 X85.61009 Y34.96835 I0.1 J-0.17321
G1 F300.0 Z-3.3
G2 F800.0 X85.62859 Y34.88434 I-0.1815 J-0.08401
G2 X85.32859 Y34.71113 I-0.2 J0.0
G2 Y35.05754 I0.1 J0.17321
G2 X85.61009 Y34.96835 I0.1 J-0.17321
G1 F300.0 Z-3.6
G2 F800.0 X85.62859 Y34.88434 I-0.1815 J-0.08401
G2 X85.32859 Y34.71113 I-0.2 J0.0
G2 Y35.05754 I0.1 J0.17321
G2 X85.61009 Y34.96835 I0.1 J-0.17321
G1 F300.0 Z-3.9
G2 F800.0 X85.62859 Y34.88434 I-0.1815 J-0.08401
G2 X85.32859 Y34.71113 I-0.2 J0.0
G2 Y35.05754 I0.1 J0.17321
G2 X85.61009 Y34.96835 I0.1 J-0.17321
G1 F300.0 Z-4.2
G2 F800.0 X85.62859 Y34.88434 I-0.1815 J-0.08401
G2 X85.32859 Y34.71113 I-0.2 J0.0
G2 Y35.05754 I0.1 J0.17321
G2 X85.61009 Y34.96835 I0.1 J-0.17321
G1 F300.0 Z-4.5
G2 F800.0 X85.62859 Y34.88434 I-0.1815 J-0.08401
G2 X85.32859 Y34.71113 I-0.2 J0.0
G2 Y35.05754 I0.1 J0.17321
G2 X85.61009 Y34.96835 I0.1 J-0.17321
G1 F300.0 Z-4.8
G2 F800.0 X85.62859 Y34.88434 I-0.1815 J-0.08401
G2 X85.32859 Y34.71113 I-0.2 J0.0
G2 Y35.05754 I0.1 J0.17321
G2 X85.61009 Y34.96835 I0.1 J-0.17321
G1 F300.0 Z-5.1
G2 F800.0 X85.62859 Y34.88434 I-0.1815 J-0.08401
G2 X85.32859 Y34.71113 I-0.2 J0.0
G2 Y35.05754 I0.1 J0.17321
G2 X85.61009 Y34.96835 I0.1 J-0.17321
G1 F300.0 Z-5.3
G2 F800.0 X85.62859 Y34.88434 I-0.1815 J-0.08401
G2 X85.32859 Y34.71113 I-0.2 J0.0
G2 Y35.05754 I0.1 J0.17321
G2 X85.61009 Y34.96835 I0.1 J-0.17321
G0 Z3.0
G0 X64.625 Y73.10911
G0 Z1.0
G1 F300.0 Z-0.3
G2 F800.0 X64.42859 Y73.11113 I-0.09641 J0.17523
G2 Y73.45754 I0.1 J0.17321
G2 X64.72859 Y73.28434 I0.1 J-0.17321
G2 X64.625 Y73.10911 I-0.2 J0.0
G1 F300.0 Z-0.6
G2 F800.0 X64.42859 Y73.11113 I-0.09641 J0.17523
G2 Y73.45754 I0.1 J0.17321
G2 X64.72859 Y73.28434 I0.1 J-0.17321
G2 X64.625 Y73.10911 I-0.2 J0.0
G1 F300.0 Z-0.9
G2 F800.0 X64.42859 Y73.11113 I-0.09641 J0.17523
G2 Y73.45754 I0.1 J0.17321
G2 X64.72859 Y73.28434 I0.1 J-0.17321
G2 X64.625 Y73.10911 I-0.2 J0.0
G1 F300.0 Z-1.2
G2 F800.0 X64.42859 Y73.11113 I-0.09641 J0.17523
G2 Y73.45754 I0.1 J0.17321
G2 X64.72859 Y73.28434 I0.1 J-0.17321
G2 X64.625 Y73.10911 I-0.2 J0.0
G1 F300.0 Z-1.5
G2 F800.0 X64.42859 Y73.11113 I-0.09641 J0.17523
G2 Y73.45754 I0.1 J0.17321
G2 X64.72859 Y73.28434 I0.1 J-0.17321
G2 X64.625 Y73.10911 I-0.2 J0.0
G1 F300.0 Z-1.8
G2 F800.0 X64.42859 Y73.11113 I-0.09641 J0.17523
G2 Y73.45754 I0.1 J0.17321
G2 X64.72859 Y73.28434 I0.1 J-0.17321
G2 X64.625 Y73.10911 I-0.2 J0.0
G1 F300.0 Z-2.1
G2 F800.0 X64.42859 Y73.11113 I-0.09641 J0.17523
G2 Y73.45754 I0.1 J0.17321
G2 X64.72859 Y73.28434 I0.1 J-0.17321
G2 X64.625 Y73.10911 I-0.2 J0.0
G1 F300.0 Z-2.4
G2 F800.0 X64.42859 Y73.11113 I-0.09641 J0.17523
G2 Y73.45754 I0.1 J0.17321
G2 X64.72859 Y73.28434 I0.1 J-0.17321
G2 X64.625 Y73.10911 I-0.2 J0.0
G1 F300.0 Z-2.7
G2 F800.0 X64.42859 Y73.11113 I-0.09641 J0.17523
G2 Y73.45754 I0.1 J0.17321
G2 X64.72859 Y73.28434 I0.1 J-0.17321
G2 X64.625 Y73.10911 I-0.2 J0.0
G1 F300.0 Z-3.0
G2 F800.0 X64.42859 Y73.11113 I-0.09641 J0.17523
G2 Y73.45754 I0.1 J0.17321
G2 X64.72859 Y73.28434 I0.1 J-0.17321
G2 X64.625 Y73.10911 I-0.2 J0.0
G1 F300.0 Z-3.3
G2 F800.0 X64.42859 Y73.11113 I-0.09641 J0.17523
G2 Y73.45754 I0.1 J0.17321
G2 X64.72859 Y73.28434 I0.1 J-0.17321
G2 X64.625 Y73.10911 I-0.2 J0.0
G1 F300.0 Z-3.6
G2 F800.0 X64.42859 Y73.11113 I-0.09641 J0.17523
G2 Y73.45754 I0.1 J0.17321
G2 X64.72859 Y73.28434 I0.1 J-0.17321
G2 X64.625 Y73.10911 I-0.2 J0.0
G1 F300.0 Z-3.9
G2 F800.0 X64.42859 Y73.11113 I-0.09641 J0.17523
G2 Y73.45754 I0.1 J0.17321
G2 X64.72859 Y73.28434 I0.1 J-0.17321
G2 X64.625 Y73.10911 I-0.2 J0.0
G1 F300.0 Z-4.2
G2 F800.0 X64.42859 Y73.11113 I-0.09641 J0.17523
G2 Y73.45754 I0.1 J0.17321
G2 X64.72859 Y73.28434 I0.1 J-0.17321
G2 X64.625 Y73.10911 I-0.2 J0.0
G1 F300.0 Z-4.5
G2 F800.0 X64.42859 Y73.11113 I-0.09641 J0.17523
G2 Y73.45754 I0.1 J0.17321
G2 X64.72859 Y73.28434 I0.1 J-0.17321
G2 X64.625 Y73.10911 I-0.2 J0.0
G1 F300.0 Z-4.8
G2 F800.0 X64.42859 Y73.11113 I-0.09641 J0.17523
G2 Y73.45754 I0.1 J0.17321
G2 X64.72859 Y73.28434 I0.1 J-0.17321
G2 X64.625 Y73.10911 I-0.2 J0.0
G1 F300.0 Z-5.1
G2 F800.0 X64.42859 Y73.11113 I-0.09641 J0.17523
G2 Y73.45754 I0.1 J0.17321
G2 X64.72859 Y73.28434 I0.1 J-0.17321
G2 X64.625 Y73.10911 I-0.2 J0.0
G1 F300.0 Z-5.3
G2 F800.0 X64.42859 Y73.11113 I-0.09641 J0.17523
G2 Y73.45754 I0.1 J0.17321
G2 X64.72859 Y73.28434 I0.1 J-0.17321
G2 X64.625 Y73.10911 I-0.2 J0.0
G0 Z3.0
G0 X18.58268 Y35.01184
G0 Z1.0
G1 F300.0 Z-0.3
G2 F800.0 X18.62859 Y34.88434 I-0.15409 J-0.1275
G2 X18.32859 Y34.71113 I-0.2 J0.0
G2 Y35.05754 I0.1 J0.17321
G2 X18.58268 Y35.01184 I0.1 J-0.17321
G1 F300.0 Z-0.6
G2 F800.0 X18.62859 Y34.88434 I-0.15409 J-0.1275
G2 X18.32859 Y34.71113 I-0.2 J0.0
G2 Y35.05754 I0.1 J0.17321
G2 X18.58268 Y35.01184 I0.1 J-0.17321
G1 F300.0 Z-0.9
G2 F800.0 X18.62859 Y34.88434 I-0.15409 J-0.1275
G2 X18.32859 Y34.71113 I-0.2 J0.0
G2 Y35.05754 I0.1 J0.17321
G2 X18.58268 Y35.01184 I0.1 J-0.17321
G1 F300.0 Z-1.2
G2 F800.0 X18.62859 Y34.88434 I-0.15409 J-0.1275
G2 X18.32859 Y34.71113 I-0.2 J0.0
G2 Y35.05754 I0.1 J0.17321
G2 X18.58268 Y35.01184 I0.1 J-0.17321
G1 F300.0 Z-1.5
G2 F800.0 X18.62859 Y34.88434 I-0.15409 J-0.1275
G2 X18.32859 Y34.71113 I-0.2 J0.0
G2 Y35.05754 I0.1 J0.17321
G2 X18.58268 Y35.01184 I0.1 J-0.17321
G1 F300.0 Z-1.8
G2 F800.0 X18.62859 Y34.88434 I-0.15409 J-0.1275
G2 X18.32859 Y34.71113 I-0.2 J0.0
G2 Y35.05754 I0.1 J0.17321
G2 X18.58268 Y35.01184 I0.1 J-0.17321
G1 F300.0 Z-2.1
G2 F800.0 X18.62859 Y34.88434 I-0.15409 J-0.1275
G2 X18.32859 Y34.71113 I-0.2 J0.0
G2 Y35.05754 I0.1 J0.17321
G2 X18.58268 Y35.01184 I0.1 J-0.17321
G1 F300.0 Z-2.4
G2 F800.0 X18.62859 Y34.88434 I-0.15409 J-0.1275
G2 X18.32859 Y34.71113 I-0.2 J0.0
G2 Y35.05754 I0.1 J0.17321
G2 X18.58268 Y35.01184 I0.1 J-0.17321
G1 F300.0 Z-2.7
G2 F800.0 X18.62859 Y34.88434 I-0.15409 J-0.1275
G2 X18.32859 Y34.71113 I-0.2 J0.0
G2 Y35.05754 I0.1 J0.17321
G2 X18.58268 Y35.01184 I0.1 J-0.17321
G1 F300.0 Z-3.0
G2 F800.0 X18.62859 Y34.88434 I-0.15409 J-0.1275
G2 X18.32859 Y34.71113 I-0.2 J0.0
G2 Y35.05754 I0.1 J0.17321
G2 X18.58268 Y35.01184 I0.1 J-0.17321
G1 F300.0 Z-3.3
G2 F800.0 X18.62859 Y34.88434 I-0.15409 J-0.1275
G2 X18.32859 Y34.71113 I-0.2 J0.0
G2 Y35.05754 I0.1 J0.17321
G2 X18.58268 Y35.01184 I0.1 J-0.17321
G1 F300.0 Z-3.6
G2 F800.0 X18.62859 Y34.88434 I-0.15409 J-0.1275
G2 X18.32859 Y34.71113 I-0.2 J0.0
G2 Y35.05754 I0.1 J0.17321
G2 X18.58268 Y35.01184 I0.1 J-0.17321
G1 F300.0 Z-3.9
G2 F800.0 X18.62859 Y34.88434 I-0.15409 J-0.1275
G2 X18.32859 Y34.71113 I-0.2 J0.0
G2 Y35.05754 I0.1 J0.17321
G2 X18.58268 Y35.01184 I0.1 J-0.17321
G1 F300.0 Z-4.2
G2 F800.0 X18.62859 Y34.88434 I-0.15409 J-0.1275
G2 X18.32859 Y34.71113 I-0.2 J0.0
G2 Y35.05754 I0.1 J0.17321
G2 X18.58268 Y35.01184 I0.1 J-0.17321
G1 F300.0 Z-4.5
G2 F800.0 X18.62859 Y34.88434 I-0.15409 J-0.1275
G2 X18.32859 Y34.71113 I-0.2 J0.0
G2 Y35.05754 I0.1 J0.17321
G2 X18.58268 Y35.01184 I0.1 J-0.17321
G1 F300.0 Z-4.8
G2 F800.0 X18.62859 Y34.88434 I-0.15409 J-0.1275
G2 X18.32859 Y34.71113 I-0.2 J0.0
G2 Y35.05754 I0.1 J0.17321
G2 X18.58268 Y35.01184 I0.1 J-0.17321
G1 F300.0 Z-5.1
G2 F800.0 X18.62859 Y34.88434 I-0.15409 J-0.1275
G2 X18.32859 Y34.71113 I-0.2 J0.0
G2 Y35.05754 I0.1 J0.17321
G2 X18.58268 Y35.01184 I0.1 J-0.17321
G1 F300.0 Z-5.3
G2 F800.0 X18.62859 Y34.88434 I-0.15409 J-0.1275
G2 X18.32859 Y34.71113 I-0.2 J0.0
G2 Y35.05754 I0.1 J0.17321
G2 X18.58268 Y35.01184 I0.1 J-0.17321
G0 Z3.0
G0 X39.08566 Y128.289
G0 Z1.0
G1 F300.0 Z-0.3
G2 F800.0 X39.02859 Y128.31113 I0.04294 J0.19534
G2 Y128.65754 I0.1 J0.17321
G2 X39.32859 Y128.48434 I0.1 J-0.17321
G2 X39.08566 Y128.289 I-0.2 J0.0
G1 F300.0 Z-0.6
G2 F800.0 X39.02859 Y128.31113 I0.04294 J0.19534
G2 Y128.65754 I0.1 J0.17321
G2 X39.32859 Y128.48434 I0.1 J-0.17321
G2 X39.08566 Y128.289 I-0.2 J0.0
G1 F300.0 Z-0.9
G2 F800.0 X39.02859 Y128.31113 I0.04294 J0.19534
G2 Y128.65754 I0.1 J0.17321
G2 X39.32859 Y128.48434 I0.1 J-0.17321
G2 X39.08566 Y128.289 I-0.2 J0.0
G1 F300.0 Z-1.2
G2 F800.0 X39.02859 Y128.31113 I0.04294 J0.19534
G2 Y128.65754 I0.1 J0.17321
G2 X39.32859 Y128.48434 I0.1 J-0.17321
G2 X39.08566 Y128.289 I-0.2 J0.0
G1 F300.0 Z-1.5
G2 F800.0 X39.02859 Y128.31113 I0.04294 J0.19534
G2 Y128.65754 I0.1 J0.17321
G2 X39.32859 Y128.48434 I0.1 J-0.17321
G2 X39.08566 Y128.289 I-0.2 J0.0
G1 F300.0 Z-1.8
G2 F800.0 X39.02859 Y128.31113 I0.04294 J0.19534
G2 Y128.65754 I0.1 J0.17321
G2 X39.32859 Y128.48434 I0.1 J-0.17321
G2 X39.08566 Y128.289 I-0.2 J0.0
G1 F300.0 Z-2.1
G2 F800.0 X39.02859 Y128.31113 I0.04294 J0.19534
G2 Y128.65754 I0.1 J0.17321
G2 X39.32859 Y128.48434 I0.1 J-0.17321
G2 X39.08566 Y128.289 I-0.2 J0.0
G1 F300.0 Z-2.4
G2 F800.0 X39.02859 Y128.31113 I0.04294 J0.19534
G2 Y128.65754 I0.1 J0.17321
G2 X39.32859 Y128.48434 I0.1 J-0.17321
G2 X39.08566 Y128.289 I-0.2 J0.0
G1 F300.0 Z-2.7
G2 F800.0 X39.02859 Y128.31113 I0.04294 J0.19534
G2 Y128.65754 I0.1 J0.17321
G2 X39.32859 Y128.48434 I0.1 J-0.17321
G2 X39.08566 Y128.289 I-0.2 J0.0
G1 F300.0 Z-3.0
G2 F800.0 X39.02859 Y128.31113 I0.04294 J0.19534
G2 Y128.65754 I0.1 J0.17321
G2 X39.32859 Y128.48434 I0.1 J-0.17321
G2 X39.08566 Y128.289 I-0.2 J0.0
G1 F300.0 Z-3.3
G2 F800.0 X39.02859 Y128.31113 I0.04294 J0.19534
G2 Y128.65754 I0.1 J0.17321
G2 X39.32859 Y128.48434 I0.1 J-0.17321
G2 X39.08566 Y128.289 I-0.2 J0.0
G1 F300.0 Z-3.6
G2 F800.0 X39.02859 Y128.31113 I0.04294 J0.19534
G2 Y128.65754 I0.1 J0.17321
G2 X39.32859 Y128.48434 I0.1 J-0.17321
G2 X39.08566 Y128.289 I-0.2 J0.0
G1 F300.0 Z-3.9
G2 F800.0 X39.02859 Y128.31113 I0.04294 J0.19534
G2 Y128.65754 I0.1 J0.17321
G2 X39.32859 Y128.48434 I0.1 J-0.17321
G2 X39.08566 Y128.289 I-0.2 J0.0
G1 F300.0 Z-4.2
G2 F800.0 X39.02859 Y128.31113 I0.04294 J0.19534
G2 Y128.65754 I0.1 J0.17321
G2 X39.32859 Y128.48434 I0.1 J-0.17321
G2 X39.08566 Y128.289 I-0.2 J0.0
G1 F300.0 Z-4.5
G2 F800.0 X39.02859 Y128.31113 I0.04294 J0.19534
G2 Y128.65754 I0.1 J0.17321
G2 X39.32859 Y128.48434 I0.1 J-0.17321
G2 X39.08566 Y128.289 I-0.2 J0.0
G1 F300.0 Z-4.8
G2 F800.0 X39.02859 Y128.31113 I0.04294 J0.19534
G2 Y128.65754 I0.1 J0.17321
G2 X39.32859 Y128.48434 I0.1 J-0.17321
G2 X39.08566 Y128.289 I-0.2 J0.0
G1 F300.0 Z-5.1
G2 F800.0 X39.02859 Y128.31113 I0.04294 J0.19534
G2 Y128.65754 I0.1 J0.17321
G2 X39.32859 Y128.48434 I0.1 J-0.17321
G2 X39.08566 Y128.289 I-0.2 J0.0
G1 F300.0 Z-5.3
G2 F800.0 X39.02859 Y128.31113 I0.04294 J0.19534
G2 Y128.65754 I0.1 J0.17321
G2 X39.32859 Y128.48434 I0.1 J-0.17321
G2 X39.08566 Y128.289 I-0.2 J0.0
G0 Z3.0
G0 X98.82821 Y125.50689
G0 Z1.0
G1 F300.0 Z-0.3
G2 F800.0 X98.92799 Y125.67079 I0.19978 J-0.0093
G2 X99.22799 Y125.49759 I0.1 J-0.17321
G2 X98.92799 Y125.32438 I-0.2 J0.0
G2 X98.82821 Y125.50689 I0.1 J0.17321
G1 F300.0 Z-0.6
G2 F800.0 X98.92799 Y125.67079 I0.19978 J-0.0093
G2 X99.22799 Y125.49759 I0.1 J-0.17321
G2 X98.92799 Y125.32438 I-0.2 J0.0
G2 X98.82821 Y125.50689 I0.1 J0.17321
G1 F300.0 Z-0.9
G2 F800.0 X98.92799 Y125.67079 I0.19978 J-0.0093
G2 X99.22799 Y125.49759 I0.1 J-0.17321
G2 X98.92799 Y125.32438 I-0.2 J0.0
G2 X98.82821 Y125.50689 I0.1 J0.17321
G1 F300.0 Z-1.2
G2 F800.0 X98.92799 Y125.67079 I0.19978 J-0.0093
G2 X99.22799 Y125.49759 I0.1 J-0.17321
G2 X98.92799 Y125.32438 I-0.2 J0.0
G2 X98.82821 Y125.50689 I0.1 J0.17321
G1 F300.0 Z-1.5
G2 F800.0 X98.92799 Y125.67079 I0.19978 J-0.0093
G2 X99.22799 Y125.49759 I0.1 J-0.17321
G2 X98.92799 Y125.32438 I-0.2 J0.0
G2 X98.82821 Y125.50689 I0.1 J0.17321
G1 F300.0 Z-1.8
G2 F800.0 X98.92799 Y125.67079 I0.19978 J-0.0093
G2 X99.22799 Y125.49759 I0.1 J-0.17321
G2 X98.92799 Y125.32438 I-0.2 J0.0
G2 X98.82821 Y125.50689 I0.1 J0.17321
G1 F300.0 Z-2.1
G2 F800.0 X98.92799 Y125.67079 I0.19978 J-0.0093
G2 X99.22799 Y125.49759 I0.1 J-0.17321
G2 X98.92799 Y125.32438 I-0.2 J0.0
G2 X98.82821 Y125.50689 I0.1 J0.17321
G1 F300.0 Z-2.4
G2 F800.0 X98.92799 Y125.67079 I0.19978 J-0.0093
G2 X99.22799 Y125.49759 I0.1 J-0.17321
G2 X98.92799 Y125.32438 I-0.2 J0.0
G2 X98.82821 Y125.50689 I0.1 J0.17321
G1 F300.0 Z-2.7
G2 F800.0 X98.92799 Y125.67079 I0.19978 J-0.0093
G2 X99.22799 Y125.49759 I0.1 J-0.17321
G2 X98.92799 Y125.32438 I-0.2 J0.0
G2 X98.82821 Y125.50689 I0.1 J0.17321
G1 F300.0 Z-3.0
G2 F800.0 X98.92799 Y125.67079 I0.19978 J-0.0093
G2 X99.22799 Y125.49759 I0.1 J-0.17321
G2 X98.92799 Y125.32438 I-0.2 J0.0
G2 X98.82821 Y125.50689 I0.1 J0.17321
G1 F300.0 Z-3.3
G2 F800.0 X98.92799 Y125.67079 I0.19978 J-0.0093
G2 X99.22799 Y125.49759 I0.1 J-0.17321
G2 X98.92799 Y125.32438 I-0.2 J0.0
G2 X98.82821 Y125.50689 I0.1 J0.17321
G1 F300.0 Z-3.6
G2 F800.0 X98.92799 Y125.67079 I0.19978 J-0.0093
G2 X99.22799 Y125.49759 I0.1 J-0.17321
G2 X98.92799 Y125.32438 I-0.2 J0.0
G2 X98.82821 Y125.50689 I0.1 J0.17321
G1 F300.0 Z-3.9
G2 F800.0 X98.92799 Y125.67079 I0.19978 J-0.0093
G2 X99.22799 Y125.49759 I0.1 J-0.17321
G2 X98.92799 Y125.32438 I-0.2 J0.0
G2 X98.82821 Y125.50689 I0.1 J0.17321
G1 F300.0 Z-4.2
G2 F800.0 X98.92799 Y125.67079 I0.19978 J-0.0093
G2 X99.22799 Y125.49759 I0.1 J-0.17321
G2 X98.92799 Y125.32438 I-0.2 J0.0
G2 X98.82821 Y125.50689 I0.1 J0.17321
G1 F300.0 Z-4.5
G2 F800.0 X98.92799 Y125.67079 I0.19978 J-0.0093
G2 X99.22799 Y125.49759 I0.1 J-0.17321
G2 X98.92799 Y125.32438 I-0.2 J0.0
G2 X98.82821 Y125.50689 I0.1 J0.17321
G1 F300.0 Z-4.8
G2 F800.0 X98.92799 Y125.67079 I0.19978 J-0.0093
G2 X99.22799 Y125.49759 I0.1 J-0.17321
G2 X98.92799 Y125.32438 I-0.2 J0.0
G2 X98.82821 Y125.50689 I0.1 J0.17321
G1 F300.0 Z-5.1
G2 F800.0 X98.92799 Y125.67079 I0.19978 J-0.0093
G2 X99.22799 Y125.49759 I0.1 J-0.17321
G2 X98.92799 Y125.32438 I-0.2 J0.0
G2 X98.82821 Y125.50689 I0.1 J0.17321
G1 F300.0 Z-5.3
G2 F800.0 X98.92799 Y125.67079 I0.19978 J-0.0093
G2 X99.22799 Y125.49759 I0.1 J-0.17321
G2 X98.92799 Y125.32438 I-0.2 J0.0
G2 X98.82821 Y125.50689 I0.1 J0.17321
( Contour5 )
S1000
G0 Z3.0
G0 X266.55416 Y161.79543
G0 Z1.0
G1 F300.0 Z-0.3
G2 F800.0 X262.90155 Y159.63708 I-2.90548 J0.74712
G1 X241.90155 Y165.03708
G3 X240.02799 Y163.58434 I-0.37356 J-1.45274
G2 X216.32799 Y139.88434 I-23.7 J0.0
G1 X106.72799
G2 X83.02799 Y163.58434 I0.0 J23.7
G3 X81.52799 Y165.08434 I-1.5 J0.0
G1 X51.52799
G3 X50.95107 Y164.96895 I0.0 J-1.5
G1 X8.95107 Y147.46895
G3 X8.14338 Y146.66126 I0.57692 J-1.38462
G1 X1.89338 Y131.66126
G3 X1.77799 Y131.08434 I1.38462 J-0.57692
G1 Y35.68434
G3 X1.89338 Y35.10742 I1.5 J0.0
G1 X8.14338 Y20.10742
G3 X8.95107 Y19.29972 I1.38462 J0.57692
G1 X50.95107 Y1.79972
G3 X51.52799 Y1.68434 I0.57692 J1.38462
G1 X81.52799
G3 X83.02799 Y3.18434 I0.0 J1.5
G2 X106.72799 Y26.88434 I23.7 J0.0
G1 X216.32799
G2 X240.02799 Y3.18434 I0.0 J-23.7
G3 X241.87542 Y1.72513 I1.5 J0.0
G1 X262.87542 Y6.72513
G3 X263.3047 Y6.90109 I-0.34743 J1.45921
G1 X301.3047 Y29.90109
G3 X301.59753 Y30.13263 I-0.7767 J1.28325
G1 X331.09753 Y60.13263
G3 X331.52799 Y61.18434 I-1.06954 J1.05171
G1 Y105.68434
G3 X331.08865 Y106.745 I-1.5 J0.0
G1 X301.58865 Y136.245
G3 X301.3047 Y136.46759 I-1.06066 J-1.06066
G1 X263.3047 Y159.46759
G3 X262.90155 Y159.63708 I-0.7767 J-1.28325
G2 X260.7432 Y163.28968 I0.74712 J2.90548
G0 Z3.0
G0 X266.55416 Y161.79543
G0 Z0.7
G1 F300.0 Z-0.6
G2 F800.0 X262.90155 Y159.63708 I-2.90548 J0.74712
G1 X241.90155 Y165.03708
G3 X240.02799 Y163.58434 I-0.37356 J-1.45274
G2 X216.32799 Y139.88434 I-23.7 J0.0
G1 X106.72799
G2 X83.02799 Y163.58434 I0.0 J23.7
G3 X81.52799 Y165.08434 I-1.5 J0.0
G1 X51.52799
G3 X50.95107 Y164.96895 I0.0 J-1.5
G1 X8.95107 Y147.46895
G3 X8.14338 Y146.66126 I0.57692 J-1.38462
G1 X1.89338 Y131.66126
G3 X1.77799 Y131.08434 I1.38462 J-0.57692
G1 Y35.68434
G3 X1.89338 Y35.10742 I1.5 J0.0
G1 X8.14338 Y20.10742
G3 X8.95107 Y19.29972 I1.38462 J0.57692
G1 X50.95107 Y1.79972
G3 X51.52799 Y1.68434 I0.57692 J1.38462
G1 X81.52799
G3 X83.02799 Y3.18434 I0.0 J1.5
G2 X106.72799 Y26.88434 I23.7 J0.0
G1 X216.32799
G2 X240.02799 Y3.18434 I0.0 J-23.7
G3 X241.87542 Y1.72513 I1.5 J0.0
G1 X262.87542 Y6.72513
G3 X263.3047 Y6.90109 I-0.34743 J1.45921
G1 X301.3047 Y29.90109
G3 X301.59753 Y30.13263 I-0.7767 J1.28325
G1 X331.09753 Y60.13263
G3 X331.52799 Y61.18434 I-1.06954 J1.05171
G1 Y105.68434
G3 X331.08865 Y106.745 I-1.5 J0.0
G1 X301.58865 Y136.245
G3 X301.3047 Y136.46759 I-1.06066 J-1.06066
G1 X263.3047 Y159.46759
G3 X262.90155 Y159.63708 I-0.7767 J-1.28325
G2 X260.7432 Y163.28968 I0.74712 J2.90548
G0 Z3.0
G0 X266.55416 Y161.79543
G0 Z0.4
G1 F300.0 Z-0.9
G2 F800.0 X262.90155 Y159.63708 I-2.90548 J0.74712
G1 X241.90155 Y165.03708
G3 X240.02799 Y163.58434 I-0.37356 J-1.45274
G2 X216.32799 Y139.88434 I-23.7 J0.0
G1 X106.72799
G2 X83.02799 Y163.58434 I0.0 J23.7
G3 X81.52799 Y165.08434 I-1.5 J0.0
G1 X51.52799
G3 X50.95107 Y164.96895 I0.0 J-1.5
G1 X8.95107 Y147.46895
G3 X8.14338 Y146.66126 I0.57692 J-1.38462
G1 X1.89338 Y131.66126
G3 X1.77799 Y131.08434 I1.38462 J-0.57692
G1 Y35.68434
G3 X1.89338 Y35.10742 I1.5 J0.0
G1 X8.14338 Y20.10742
G3 X8.95107 Y19.29972 I1.38462 J0.57692
G1 X50.95107 Y1.79972
G3 X51.52799 Y1.68434 I0.57692 J1.38462
G1 X81.52799
G3 X83.02799 Y3.18434 I0.0 J1.5
G2 X106.72799 Y26.88434 I23.7 J0.0
G1 X216.32799
G2 X240.02799 Y3.18434 I0.0 J-23.7
G3 X241.87542 Y1.72513 I1.5 J0.0
G1 X262.87542 Y6.72513
G3 X263.3047 Y6.90109 I-0.34743 J1.45921
G1 X301.3047 Y29.90109
G3 X301.59753 Y30.13263 I-0.7767 J1.28325
G1 X331.09753 Y60.13263
G3 X331.52799 Y61.18434 I-1.06954 J1.05171
G1 Y105.68434
G3 X331.08865 Y106.745 I-1.5 J0.0
G1 X301.58865 Y136.245
G3 X301.3047 Y136.46759 I-1.06066 J-1.06066
G1 X263.3047 Y159.46759
G3 X262.90155 Y159.63708 I-0.7767 J-1.28325
G2 X260.7432 Y163.28968 I0.74712 J2.90548
G0 Z3.0
G0 X266.55416 Y161.79543
G0 Z0.1
G1 F300.0 Z-1.2
G2 F800.0 X262.90155 Y159.63708 I-2.90548 J0.74712
G1 X241.90155 Y165.03708
G3 X240.02799 Y163.58434 I-0.37356 J-1.45274
G2 X216.32799 Y139.88434 I-23.7 J0.0
G1 X106.72799
G2 X83.02799 Y163.58434 I0.0 J23.7
G3 X81.52799 Y165.08434 I-1.5 J0.0
G1 X51.52799
G3 X50.95107 Y164.96895 I0.0 J-1.5
G1 X8.95107 Y147.46895
G3 X8.14338 Y146.66126 I0.57692 J-1.38462
G1 X1.89338 Y131.66126
G3 X1.77799 Y131.08434 I1.38462 J-0.57692
G1 Y35.68434
G3 X1.89338 Y35.10742 I1.5 J0.0
G1 X8.14338 Y20.10742
G3 X8.95107 Y19.29972 I1.38462 J0.57692
G1 X50.95107 Y1.79972
G3 X51.52799 Y1.68434 I0.57692 J1.38462
G1 X81.52799
G3 X83.02799 Y3.18434 I0.0 J1.5
G2 X106.72799 Y26.88434 I23.7 J0.0
G1 X216.32799
G2 X240.02799 Y3.18434 I0.0 J-23.7
G3 X241.87542 Y1.72513 I1.5 J0.0
G1 X262.87542 Y6.72513
G3 X263.3047 Y6.90109 I-0.34743 J1.45921
G1 X301.3047 Y29.90109
G3 X301.59753 Y30.13263 I-0.7767 J1.28325
G1 X331.09753 Y60.13263
G3 X331.52799 Y61.18434 I-1.06954 J1.05171
G1 Y105.68434
G3 X331.08865 Y106.745 I-1.5 J0.0
G1 X301.58865 Y136.245
G3 X301.3047 Y136.46759 I-1.06066 J-1.06066
G1 X263.3047 Y159.46759
G3 X262.90155 Y159.63708 I-0.7767 J-1.28325
G2 X260.7432 Y163.28968 I0.74712 J2.90548
G0 Z3.0
G0 X266.55416 Y161.79543
G0 Z-0.2
G1 F300.0 Z-1.5
G2 F800.0 X262.90155 Y159.63708 I-2.90548 J0.74712
G1 X241.90155 Y165.03708
G3 X240.02799 Y163.58434 I-0.37356 J-1.45274
G2 X216.32799 Y139.88434 I-23.7 J0.0
G1 X106.72799
G2 X83.02799 Y163.58434 I0.0 J23.7
G3 X81.52799 Y165.08434 I-1.5 J0.0
G1 X51.52799
G3 X50.95107 Y164.96895 I0.0 J-1.5
G1 X8.95107 Y147.46895
G3 X8.14338 Y146.66126 I0.57692 J-1.38462
G1 X1.89338 Y131.66126
G3 X1.77799 Y131.08434 I1.38462 J-0.57692
G1 Y35.68434
G3 X1.89338 Y35.10742 I1.5 J0.0
G1 X8.14338 Y20.10742
G3 X8.95107 Y19.29972 I1.38462 J0.57692
G1 X50.95107 Y1.79972
G3 X51.52799 Y1.68434 I0.57692 J1.38462
G1 X81.52799
G3 X83.02799 Y3.18434 I0.0 J1.5
G2 X106.72799 Y26.88434 I23.7 J0.0
G1 X216.32799
G2 X240.02799 Y3.18434 I0.0 J-23.7
G3 X241.87542 Y1.72513 I1.5 J0.0
G1 X262.87542 Y6.72513
G3 X263.3047 Y6.90109 I-0.34743 J1.45921
G1 X301.3047 Y29.90109
G3 X301.59753 Y30.13263 I-0.7767 J1.28325
G1 X331.09753 Y60.13263
G3 X331.52799 Y61.18434 I-1.06954 J1.05171
G1 Y105.68434
G3 X331.08865 Y106.745 I-1.5 J0.0
G1 X301.58865 Y136.245
G3 X301.3047 Y136.46759 I-1.06066 J-1.06066
G1 X263.3047 Y159.46759
G3 X262.90155 Y159.63708 I-0.7767 J-1.28325
G2 X260.7432 Y163.28968 I0.74712 J2.90548
G0 Z3.0
G0 X266.55416 Y161.79543
G0 Z-0.5
G1 F300.0 Z-1.8
G2 F800.0 X262.90155 Y159.63708 I-2.90548 J0.74712
G1 X241.90155 Y165.03708
G3 X240.02799 Y163.58434 I-0.37356 J-1.45274
G2 X216.32799 Y139.88434 I-23.7 J0.0
G1 X106.72799
G2 X83.02799 Y163.58434 I0.0 J23.7
G3 X81.52799 Y165.08434 I-1.5 J0.0
G1 X51.52799
G3 X50.95107 Y164.96895 I0.0 J-1.5
G1 X8.95107 Y147.46895
G3 X8.14338 Y146.66126 I0.57692 J-1.38462
G1 X1.89338 Y131.66126
G3 X1.77799 Y131.08434 I1.38462 J-0.57692
G1 Y35.68434
G3 X1.89338 Y35.10742 I1.5 J0.0
G1 X8.14338 Y20.10742
G3 X8.95107 Y19.29972 I1.38462 J0.57692
G1 X50.95107 Y1.79972
G3 X51.52799 Y1.68434 I0.57692 J1.38462
G1 X81.52799
G3 X83.02799 Y3.18434 I0.0 J1.5
G2 X106.72799 Y26.88434 I23.7 J0.0
G1 X216.32799
G2 X240.02799 Y3.18434 I0.0 J-23.7
G3 X241.87542 Y1.72513 I1.5 J0.0
G1 X262.87542 Y6.72513
G3 X263.3047 Y6.90109 I-0.34743 J1.45921
G1 X301.3047 Y29.90109
G3 X301.59753 Y30.13263 I-0.7767 J1.28325
G1 X331.09753 Y60.13263
G3 X331.52799 Y61.18434 I-1.06954 J1.05171
G1 Y105.68434
G3 X331.08865 Y106.745 I-1.5 J0.0
G1 X301.58865 Y136.245
G3 X301.3047 Y136.46759 I-1.06066 J-1.06066
G1 X263.3047 Y159.46759
G3 X262.90155 Y159.63708 I-0.7767 J-1.28325
G2 X260.7432 Y163.28968 I0.74712 J2.90548
G0 Z3.0
G0 X266.55416 Y161.79543
G0 Z-0.8
G1 F300.0 Z-2.1
G2 F800.0 X262.90155 Y159.63708 I-2.90548 J0.74712
G1 X241.90155 Y165.03708
G3 X240.02799 Y163.58434 I-0.37356 J-1.45274
G2 X216.32799 Y139.88434 I-23.7 J0.0
G1 X106.72799
G2 X83.02799 Y163.58434 I0.0 J23.7
G3 X81.52799 Y165.08434 I-1.5 J0.0
G1 X51.52799
G3 X50.95107 Y164.96895 I0.0 J-1.5
G1 X8.95107 Y147.46895
G3 X8.14338 Y146.66126 I0.57692 J-1.38462
G1 X1.89338 Y131.66126
G3 X1.77799 Y131.08434 I1.38462 J-0.57692
G1 Y35.68434
G3 X1.89338 Y35.10742 I1.5 J0.0
G1 X8.14338 Y20.10742
G3 X8.95107 Y19.29972 I1.38462 J0.57692
G1 X50.95107 Y1.79972
G3 X51.52799 Y1.68434 I0.57692 J1.38462
G1 X81.52799
G3 X83.02799 Y3.18434 I0.0 J1.5
G2 X106.72799 Y26.88434 I23.7 J0.0
G1 X216.32799
G2 X240.02799 Y3.18434 I0.0 J-23.7
G3 X241.87542 Y1.72513 I1.5 J0.0
G1 X262.87542 Y6.72513
G3 X263.3047 Y6.90109 I-0.34743 J1.45921
G1 X301.3047 Y29.90109
G3 X301.59753 Y30.13263 I-0.7767 J1.28325
G1 X331.09753 Y60.13263
G3 X331.52799 Y61.18434 I-1.06954 J1.05171
G1 Y105.68434
G3 X331.08865 Y106.745 I-1.5 J0.0
G1 X301.58865 Y136.245
G3 X301.3047 Y136.46759 I-1.06066 J-1.06066
G1 X263.3047 Y159.46759
G3 X262.90155 Y159.63708 I-0.7767 J-1.28325
G2 X260.7432 Y163.28968 I0.74712 J2.90548
G0 Z3.0
G0 X266.55416 Y161.79543
G0 Z-1.1
G1 F300.0 Z-2.4
G2 F800.0 X262.90155 Y159.63708 I-2.90548 J0.74712
G1 X241.90155 Y165.03708
G3 X240.02799 Y163.58434 I-0.37356 J-1.45274
G2 X216.32799 Y139.88434 I-23.7 J0.0
G1 X106.72799
G2 X83.02799 Y163.58434 I0.0 J23.7
G3 X81.52799 Y165.08434 I-1.5 J0.0
G1 X51.52799
G3 X50.95107 Y164.96895 I0.0 J-1.5
G1 X8.95107 Y147.46895
G3 X8.14338 Y146.66126 I0.57692 J-1.38462
G1 X1.89338 Y131.66126
G3 X1.77799 Y131.08434 I1.38462 J-0.57692
G1 Y35.68434
G3 X1.89338 Y35.10742 I1.5 J0.0
G1 X8.14338 Y20.10742
G3 X8.95107 Y19.29972 I1.38462 J0.57692
G1 X50.95107 Y1.79972
G3 X51.52799 Y1.68434 I0.57692 J1.38462
G1 X81.52799
G3 X83.02799 Y3.18434 I0.0 J1.5
G2 X106.72799 Y26.88434 I23.7 J0.0
G1 X216.32799
G2 X240.02799 Y3.18434 I0.0 J-23.7
G3 X241.87542 Y1.72513 I1.5 J0.0
G1 X262.87542 Y6.72513
G3 X263.3047 Y6.90109 I-0.34743 J1.45921
G1 X301.3047 Y29.90109
G3 X301.59753 Y30.13263 I-0.7767 J1.28325
G1 X331.09753 Y60.13263
G3 X331.52799 Y61.18434 I-1.06954 J1.05171
G1 Y105.68434
G3 X331.08865 Y106.745 I-1.5 J0.0
G1 X301.58865 Y136.245
G3 X301.3047 Y136.46759 I-1.06066 J-1.06066
G1 X263.3047 Y159.46759
G3 X262.90155 Y159.63708 I-0.7767 J-1.28325
G2 X260.7432 Y163.28968 I0.74712 J2.90548
G0 Z3.0
G0 X266.55416 Y161.79543
G0 Z-1.4
G1 F300.0 Z-2.7
G2 F800.0 X262.90155 Y159.63708 I-2.90548 J0.74712
G1 X241.90155 Y165.03708
G3 X240.02799 Y163.58434 I-0.37356 J-1.45274
G2 X216.32799 Y139.88434 I-23.7 J0.0
G1 X106.72799
G2 X83.02799 Y163.58434 I0.0 J23.7
G3 X81.52799 Y165.08434 I-1.5 J0.0
G1 X51.52799
G3 X50.95107 Y164.96895 I0.0 J-1.5
G1 X8.95107 Y147.46895
G3 X8.14338 Y146.66126 I0.57692 J-1.38462
G1 X1.89338 Y131.66126
G3 X1.77799 Y131.08434 I1.38462 J-0.57692
G1 Y35.68434
G3 X1.89338 Y35.10742 I1.5 J0.0
G1 X8.14338 Y20.10742
G3 X8.95107 Y19.29972 I1.38462 J0.57692
G1 X50.95107 Y1.79972
G3 X51.52799 Y1.68434 I0.57692 J1.38462
G1 X81.52799
G3 X83.02799 Y3.18434 I0.0 J1.5
G2 X106.72799 Y26.88434 I23.7 J0.0
G1 X216.32799
G2 X240.02799 Y3.18434 I0.0 J-23.7
G3 X241.87542 Y1.72513 I1.5 J0.0
G1 X262.87542 Y6.72513
G3 X263.3047 Y6.90109 I-0.34743 J1.45921
G1 X301.3047 Y29.90109
G3 X301.59753 Y30.13263 I-0.7767 J1.28325
G1 X331.09753 Y60.13263
G3 X331.52799 Y61.18434 I-1.06954 J1.05171
G1 Y105.68434
G3 X331.08865 Y106.745 I-1.5 J0.0
G1 X301.58865 Y136.245
G3 X301.3047 Y136.46759 I-1.06066 J-1.06066
G1 X263.3047 Y159.46759
G3 X262.90155 Y159.63708 I-0.7767 J-1.28325
G2 X260.7432 Y163.28968 I0.74712 J2.90548
G0 Z3.0
G0 X266.55416 Y161.79543
G0 Z-1.7
G1 F300.0 Z-3.0
G2 F800.0 X262.90155 Y159.63708 I-2.90548 J0.74712
G1 X241.90155 Y165.03708
G3 X240.02799 Y163.58434 I-0.37356 J-1.45274
G2 X216.32799 Y139.88434 I-23.7 J0.0
G1 X106.72799
G2 X83.02799 Y163.58434 I0.0 J23.7
G3 X81.52799 Y165.08434 I-1.5 J0.0
G1 X51.52799
G3 X50.95107 Y164.96895 I0.0 J-1.5
G1 X8.95107 Y147.46895
G3 X8.14338 Y146.66126 I0.57692 J-1.38462
G1 X1.89338 Y131.66126
G3 X1.77799 Y131.08434 I1.38462 J-0.57692
G1 Y35.68434
G3 X1.89338 Y35.10742 I1.5 J0.0
G1 X8.14338 Y20.10742
G3 X8.95107 Y19.29972 I1.38462 J0.57692
G1 X50.95107 Y1.79972
G3 X51.52799 Y1.68434 I0.57692 J1.38462
G1 X81.52799
G3 X83.02799 Y3.18434 I0.0 J1.5
G2 X106.72799 Y26.88434 I23.7 J0.0
G1 X216.32799
G2 X240.02799 Y3.18434 I0.0 J-23.7
G3 X241.87542 Y1.72513 I1.5 J0.0
G1 X262.87542 Y6.72513
G3 X263.3047 Y6.90109 I-0.34743 J1.45921
G1 X301.3047 Y29.90109
G3 X301.59753 Y30.13263 I-0.7767 J1.28325
G1 X331.09753 Y60.13263
G3 X331.52799 Y61.18434 I-1.06954 J1.05171
G1 Y105.68434
G3 X331.08865 Y106.745 I-1.5 J0.0
G1 X301.58865 Y136.245
G3 X301.3047 Y136.46759 I-1.06066 J-1.06066
G1 X263.3047 Y159.46759
G3 X262.90155 Y159.63708 I-0.7767 J-1.28325
G2 X260.7432 Y163.28968 I0.74712 J2.90548
G0 Z3.0
G0 X266.55416 Y161.79543
G0 Z-2.0
G1 F300.0 Z-3.3
G2 F800.0 X262.90155 Y159.63708 I-2.90548 J0.74712
G1 X241.90155 Y165.03708
G3 X240.02799 Y163.58434 I-0.37356 J-1.45274
G2 X216.32799 Y139.88434 I-23.7 J0.0
G1 X106.72799
G2 X83.02799 Y163.58434 I0.0 J23.7
G3 X81.52799 Y165.08434 I-1.5 J0.0
G1 X51.52799
G3 X50.95107 Y164.96895 I0.0 J-1.5
G1 X8.95107 Y147.46895
G3 X8.14338 Y146.66126 I0.57692 J-1.38462
G1 X1.89338 Y131.66126
G3 X1.77799 Y131.08434 I1.38462 J-0.57692
G1 Y35.68434
G3 X1.89338 Y35.10742 I1.5 J0.0
G1 X8.14338 Y20.10742
G3 X8.95107 Y19.29972 I1.38462 J0.57692
G1 X50.95107 Y1.79972
G3 X51.52799 Y1.68434 I0.57692 J1.38462
G1 X81.52799
G3 X83.02799 Y3.18434 I0.0 J1.5
G2 X106.72799 Y26.88434 I23.7 J0.0
G1 X216.32799
G2 X240.02799 Y3.18434 I0.0 J-23.7
G3 X241.87542 Y1.72513 I1.5 J0.0
G1 X262.87542 Y6.72513
G3 X263.3047 Y6.90109 I-0.34743 J1.45921
G1 X301.3047 Y29.90109
G3 X301.59753 Y30.13263 I-0.7767 J1.28325
G1 X331.09753 Y60.13263
G3 X331.52799 Y61.18434 I-1.06954 J1.05171
G1 Y105.68434
G3 X331.08865 Y106.745 I-1.5 J0.0
G1 X301.58865 Y136.245
G3 X301.3047 Y136.46759 I-1.06066 J-1.06066
G1 X263.3047 Y159.46759
G3 X262.90155 Y159.63708 I-0.7767 J-1.28325
G2 X260.7432 Y163.28968 I0.74712 J2.90548
G0 Z3.0
G0 X266.55416 Y161.79543
G0 Z-2.3
G1 F300.0 Z-3.6
G2 F800.0 X262.90155 Y159.63708 I-2.90548 J0.74712
G1 X241.90155 Y165.03708
G3 X240.02799 Y163.58434 I-0.37356 J-1.45274
G2 X216.32799 Y139.88434 I-23.7 J0.0
G1 X106.72799
G2 X83.02799 Y163.58434 I0.0 J23.7
G3 X81.52799 Y165.08434 I-1.5 J0.0
G1 X51.52799
G3 X50.95107 Y164.96895 I0.0 J-1.5
G1 X8.95107 Y147.46895
G3 X8.14338 Y146.66126 I0.57692 J-1.38462
G1 X1.89338 Y131.66126
G3 X1.77799 Y131.08434 I1.38462 J-0.57692
G1 Y35.68434
G3 X1.89338 Y35.10742 I1.5 J0.0
G1 X8.14338 Y20.10742
G3 X8.95107 Y19.29972 I1.38462 J0.57692
G1 X50.95107 Y1.79972
G3 X51.52799 Y1.68434 I0.57692 J1.38462
G1 X81.52799
G3 X83.02799 Y3.18434 I0.0 J1.5
G2 X106.72799 Y26.88434 I23.7 J0.0
G1 X216.32799
G2 X240.02799 Y3.18434 I0.0 J-23.7
G3 X241.87542 Y1.72513 I1.5 J0.0
G1 X262.87542 Y6.72513
G3 X263.3047 Y6.90109 I-0.34743 J1.45921
G1 X301.3047 Y29.90109
G3 X301.59753 Y30.13263 I-0.7767 J1.28325
G1 X331.09753 Y60.13263
G3 X331.52799 Y61.18434 I-1.06954 J1.05171
G1 Y105.68434
G3 X331.08865 Y106.745 I-1.5 J0.0
G1 X301.58865 Y136.245
G3 X301.3047 Y136.46759 I-1.06066 J-1.06066
G1 X263.3047 Y159.46759
G3 X262.90155 Y159.63708 I-0.7767 J-1.28325
G2 X260.7432 Y163.28968 I0.74712 J2.90548
G0 Z3.0
G0 X266.55416 Y161.79543
G0 Z-2.6
G1 F300.0 Z-3.9
G2 F800.0 X262.90155 Y159.63708 I-2.90548 J0.74712
G1 X241.90155 Y165.03708
G3 X240.02799 Y163.58434 I-0.37356 J-1.45274
G2 X216.32799 Y139.88434 I-23.7 J0.0
G1 X106.72799
G2 X83.02799 Y163.58434 I0.0 J23.7
G3 X81.52799 Y165.08434 I-1.5 J0.0
G1 X51.52799
G3 X50.95107 Y164.96895 I0.0 J-1.5
G1 X8.95107 Y147.46895
G3 X8.14338 Y146.66126 I0.57692 J-1.38462
G1 X1.89338 Y131.66126
G3 X1.77799 Y131.08434 I1.38462 J-0.57692
G1 Y35.68434
G3 X1.89338 Y35.10742 I1.5 J0.0
G1 X8.14338 Y20.10742
G3 X8.95107 Y19.29972 I1.38462 J0.57692
G1 X50.95107 Y1.79972
G3 X51.52799 Y1.68434 I0.57692 J1.38462
G1 X81.52799
G3 X83.02799 Y3.18434 I0.0 J1.5
G2 X106.72799 Y26.88434 I23.7 J0.0
G1 X216.32799
G2 X240.02799 Y3.18434 I0.0 J-23.7
G3 X241.87542 Y1.72513 I1.5 J0.0
G1 X262.87542 Y6.72513
G3 X263.3047 Y6.90109 I-0.34743 J1.45921
G1 X301.3047 Y29.90109
G3 X301.59753 Y30.13263 I-0.7767 J1.28325
G1 X331.09753 Y60.13263
G3 X331.52799 Y61.18434 I-1.06954 J1.05171
G1 Y105.68434
G3 X331.08865 Y106.745 I-1.5 J0.0
G1 X301.58865 Y136.245
G3 X301.3047 Y136.46759 I-1.06066 J-1.06066
G1 X263.3047 Y159.46759
G3 X262.90155 Y159.63708 I-0.7767 J-1.28325
G2 X260.7432 Y163.28968 I0.74712 J2.90548
G0 Z3.0
G0 X266.55416 Y161.79543
G0 Z-2.9
G1 F300.0 Z-4.2
G2 F800.0 X262.90155 Y159.63708 I-2.90548 J0.74712
G1 X241.90155 Y165.03708
G3 X240.02799 Y163.58434 I-0.37356 J-1.45274
G2 X216.32799 Y139.88434 I-23.7 J0.0
G1 X106.72799
G2 X83.02799 Y163.58434 I0.0 J23.7
G3 X81.52799 Y165.08434 I-1.5 J0.0
G1 X51.52799
G3 X50.95107 Y164.96895 I0.0 J-1.5
G1 X8.95107 Y147.46895
G3 X8.14338 Y146.66126 I0.57692 J-1.38462
G1 X1.89338 Y131.66126
G3 X1.77799 Y131.08434 I1.38462 J-0.57692
G1 Y35.68434
G3 X1.89338 Y35.10742 I1.5 J0.0
G1 X8.14338 Y20.10742
G3 X8.95107 Y19.29972 I1.38462 J0.57692
G1 X50.95107 Y1.79972
G3 X51.52799 Y1.68434 I0.57692 J1.38462
G1 X81.52799
G3 X83.02799 Y3.18434 I0.0 J1.5
G2 X106.72799 Y26.88434 I23.7 J0.0
G1 X216.32799
G2 X240.02799 Y3.18434 I0.0 J-23.7
G3 X241.87542 Y1.72513 I1.5 J0.0
G1 X262.87542 Y6.72513
G3 X263.3047 Y6.90109 I-0.34743 J1.45921
G1 X301.3047 Y29.90109
G3 X301.59753 Y30.13263 I-0.7767 J1.28325
G1 X331.09753 Y60.13263
G3 X331.52799 Y61.18434 I-1.06954 J1.05171
G1 Y105.68434
G3 X331.08865 Y106.745 I-1.5 J0.0
G1 X301.58865 Y136.245
G3 X301.3047 Y136.46759 I-1.06066 J-1.06066
G1 X263.3047 Y159.46759
G3 X262.90155 Y159.63708 I-0.7767 J-1.28325
G2 X260.7432 Y163.28968 I0.74712 J2.90548
G0 Z3.0
G0 X266.55416 Y161.79543
G0 Z-3.2
G1 F300.0 Z-4.5
G2 F800.0 X262.90155 Y159.63708 I-2.90548 J0.74712
G1 X241.90155 Y165.03708
G3 X240.02799 Y163.58434 I-0.37356 J-1.45274
G2 X216.32799 Y139.88434 I-23.7 J0.0
G1 X106.72799
G2 X83.02799 Y163.58434 I0.0 J23.7
G3 X81.52799 Y165.08434 I-1.5 J0.0
G1 X51.52799
G3 X50.95107 Y164.96895 I0.0 J-1.5
G1 X8.95107 Y147.46895
G3 X8.14338 Y146.66126 I0.57692 J-1.38462
G1 X1.89338 Y131.66126
G3 X1.77799 Y131.08434 I1.38462 J-0.57692
G1 Y35.68434
G3 X1.89338 Y35.10742 I1.5 J0.0
G1 X8.14338 Y20.10742
G3 X8.95107 Y19.29972 I1.38462 J0.57692
G1 X50.95107 Y1.79972
G3 X51.52799 Y1.68434 I0.57692 J1.38462
G1 X81.52799
G3 X83.02799 Y3.18434 I0.0 J1.5
G2 X106.72799 Y26.88434 I23.7 J0.0
G1 X216.32799
G2 X240.02799 Y3.18434 I0.0 J-23.7
G3 X241.87542 Y1.72513 I1.5 J0.0
G1 X262.87542 Y6.72513
G3 X263.3047 Y6.90109 I-0.34743 J1.45921
G1 X301.3047 Y29.90109
G3 X301.59753 Y30.13263 I-0.7767 J1.28325
G1 X331.09753 Y60.13263
G3 X331.52799 Y61.18434 I-1.06954 J1.05171
G1 Y105.68434
G3 X331.08865 Y106.745 I-1.5 J0.0
G1 X301.58865 Y136.245
G3 X301.3047 Y136.46759 I-1.06066 J-1.06066
G1 X263.3047 Y159.46759
G3 X262.90155 Y159.63708 I-0.7767 J-1.28325
G2 X260.7432 Y163.28968 I0.74712 J2.90548
G0 Z3.0
G0 X264.3958 Y165.44804
G0 Z-3.5
G1 F300.0 Z-4.8
G2 F800.0 X266.55416 Y161.79543 I-0.74712 J-2.90548
G2 X262.90155 Y159.63708 I-2.90548 J0.74712
G0 Z3.0
G0 X266.55416 Y161.79543
G1 F300.0 Z-4.8
G2 F800.0 X262.90155 Y159.63708 I-2.90548 J0.74712
G1 X241.90155 Y165.03708
G3 X240.02799 Y163.58434 I-0.37356 J-1.45274
G2 X216.32799 Y139.88434 I-23.7 J0.0
G1 X163.5
G0 Z-4.5
G1 X156.5
G0 Z3.0
G0 X159.5 Y142.88434
G0 Z-3.5
G1 F300.0 Z-4.8
G2 F800.0 X156.5 Y139.88434 I-3.0 J0.0
G1 X106.72799
G2 X83.02799 Y163.58434 I0.0 J23.7
G3 X81.52799 Y165.08434 I-1.5 J0.0
G1 X51.52799
G3 X50.95107 Y164.96895 I0.0 J-1.5
G1 X8.95107 Y147.46895
G3 X8.14338 Y146.66126 I0.57692 J-1.38462
G1 X1.89338 Y131.66126
G3 X1.77799 Y131.08434 I1.38462 J-0.57692
G1 Y119.5
G0 Z-4.5
G1 Y112.5
G0 Z3.0
G0 X-1.22201 Y115.5
G0 Z-3.5
G1 F300.0 Z-4.8
G2 F800.0 X1.77799 Y112.5 I0.0 J-3.0
G1 Y63.5
G0 Z-4.5
G1 Y56.5
G0 Z3.0
G0 X-1.22201 Y59.5
G0 Z-3.5
G1 F300.0 Z-4.8
G2 F800.0 X1.77799 Y56.5 I0.0 J-3.0
G1 Y35.68434
G3 X1.89338 Y35.10742 I1.5 J0.0
G1 X8.14338 Y20.10742
G3 X8.95107 Y19.29972 I1.38462 J0.57692
G1 X50.95107 Y1.79972
G3 X51.52799 Y1.68434 I0.57692 J1.38462
G1 X81.52799
G3 X83.02799 Y3.18434 I0.0 J1.5
G2 X106.72799 Y26.88434 I23.7 J0.0
G1 X156.5
G0 Z-4.5
G1 X163.5
G0 Z3.0
G0 X160.5 Y23.88434
G0 Z-3.5
G1 F300.0 Z-4.8
G2 F800.0 X163.5 Y26.88434 I3.0 J0.0
G1 X216.32799
G2 X240.02799 Y3.18434 I0.0 J-23.7
G3 X241.87542 Y1.72513 I1.5 J0.0
G1 X262.87542 Y6.72513
G3 X263.3047 Y6.90109 I-0.34743 J1.45921
G1 X301.3047 Y29.90109
G3 X301.59753 Y30.13263 I-0.7767 J1.28325
G1 X313.6064 Y42.34504
G0 Z-4.5
G1 X318.51438 Y47.3362
G0 Z3.0
G0 X318.55003 Y43.09371
G0 Z-3.5
G1 F300.0 Z-4.8
G2 F800.0 X318.51438 Y47.3362 I2.10342 J2.13907
G1 X331.09753 Y60.13263
G3 X331.52799 Y61.18434 I-1.06954 J1.05171
G1 Y105.68434
G3 X331.08865 Y106.745 I-1.5 J0.0
G1 X320.8917 Y116.94195
G0 Z-4.5
G1 X315.94195 Y121.8917
G0 Z3.0
G0 X320.18459
G0 Z-3.5
G1 F300.0 Z-4.8
G2 F800.0 X315.94195 I-2.12132 J2.12132
G1 X301.58865 Y136.245
G3 X301.3047 Y136.46759 I-1.06066 J-1.06066
G1 X263.3047 Y159.46759
G3 X262.90155 Y159.63708 I-0.7767 J-1.28325
G0 Z3.0
G0 X266.55416 Y161.79543
G1 F300.0 Z-4.8
G2 F800.0 X262.90155 Y159.63708 I-2.90548 J0.74712
G2 X260.7432 Y163.28968 I0.74712 J2.90548
G0 Z3.0
G0 X264.3958 Y165.44804
G0 Z-3.8
G1 F300.0 Z-5.1
G2 F800.0 X266.55416 Y161.79543 I-0.74712 J-2.90548
G2 X262.90155 Y159.63708 I-2.90548 J0.74712
G0 Z3.0
G0 X266.55416 Y161.79543
G1 F300.0 Z-5.1
G2 F800.0 X262.90155 Y159.63708 I-2.90548 J0.74712
G1 X241.90155 Y165.03708
G3 X240.02799 Y163.58434 I-0.37356 J-1.45274
G2 X216.32799 Y139.88434 I-23.7 J0.0
G1 X163.5
G0 Z-4.5
G1 X156.5
G0 Z3.0
G0 X159.5 Y142.88434
G0 Z-3.8
G1 F300.0 Z-5.1
G2 F800.0 X156.5 Y139.88434 I-3.0 J0.0
G1 X106.72799
G2 X83.02799 Y163.58434 I0.0 J23.7
G3 X81.52799 Y165.08434 I-1.5 J0.0
G1 X51.52799
G3 X50.95107 Y164.96895 I0.0 J-1.5
G1 X8.95107 Y147.46895
G3 X8.14338 Y146.66126 I0.57692 J-1.38462
G1 X1.89338 Y131.66126
G3 X1.77799 Y131.08434 I1.38462 J-0.57692
G1 Y119.5
G0 Z-4.5
G1 Y112.5
G0 Z3.0
G0 X-1.22201 Y115.5
G0 Z-3.8
G1 F300.0 Z-5.1
G2 F800.0 X1.77799 Y112.5 I0.0 J-3.0
G1 Y63.5
G0 Z-4.5
G1 Y56.5
G0 Z3.0
G0 X-1.22201 Y59.5
G0 Z-3.8
G1 F300.0 Z-5.1
G2 F800.0 X1.77799 Y56.5 I0.0 J-3.0
G1 Y35.68434
G3 X1.89338 Y35.10742 I1.5 J0.0
G1 X8.14338 Y20.10742
G3 X8.95107 Y19.29972 I1.38462 J0.57692
G1 X50.95107 Y1.79972
G3 X51.52799 Y1.68434 I0.57692 J1.38462
G1 X81.52799
G3 X83.02799 Y3.18434 I0.0 J1.5
G2 X106.72799 Y26.88434 I23.7 J0.0
G1 X156.5
G0 Z-4.5
G1 X163.5
G0 Z3.0
G0 X160.5 Y23.88434
G0 Z-3.8
G1 F300.0 Z-5.1
G2 F800.0 X163.5 Y26.88434 I3.0 J0.0
G1 X216.32799
G2 X240.02799 Y3.18434 I0.0 J-23.7
G3 X241.87542 Y1.72513 I1.5 J0.0
G1 X262.87542 Y6.72513
G3 X263.3047 Y6.90109 I-0.34743 J1.45921
G1 X301.3047 Y29.90109
G3 X301.59753 Y30.13263 I-0.7767 J1.28325
G1 X313.6064 Y42.34504
G0 Z-4.5
G1 X318.51438 Y47.3362
G0 Z3.0
G0 X318.55003 Y43.09371
G0 Z-3.8
G1 F300.0 Z-5.1
G2 F800.0 X318.51438 Y47.3362 I2.10342 J2.13907
G1 X331.09753 Y60.13263
G3 X331.52799 Y61.18434 I-1.06954 J1.05171
G1 Y105.68434
G3 X331.08865 Y106.745 I-1.5 J0.0
G1 X320.8917 Y116.94195
G0 Z-4.5
G1 X315.94195 Y121.8917
G0 Z3.0
G0 X320.18459
G0 Z-3.8
G1 F300.0 Z-5.1
G2 F800.0 X315.94195 I-2.12132 J2.12132
G1 X301.58865 Y136.245
G3 X301.3047 Y136.46759 I-1.06066 J-1.06066
G1 X263.3047 Y159.46759
G3 X262.90155 Y159.63708 I-0.7767 J-1.28325
G0 Z3.0
G0 X266.55416 Y161.79543
G1 F300.0 Z-5.1
G2 F800.0 X262.90155 Y159.63708 I-2.90548 J0.74712
G2 X260.7432 Y163.28968 I0.74712 J2.90548
G0 Z3.0
G0 X264.3958 Y165.44804
G0 Z-4.1
G1 F300.0 Z-5.4
G2 F800.0 X266.55416 Y161.79543 I-0.74712 J-2.90548
G2 X262.90155 Y159.63708 I-2.90548 J0.74712
G0 Z3.0
G0 X266.55416 Y161.79543
G1 F300.0 Z-5.4
G2 F800.0 X262.90155 Y159.63708 I-2.90548 J0.74712
G1 X241.90155 Y165.03708
G3 X240.02799 Y163.58434 I-0.37356 J-1.45274
G2 X216.32799 Y139.88434 I-23.7 J0.0
G1 X163.5
G0 Z-4.5
G1 X156.5
G0 Z3.0
G0 X159.5 Y142.88434
G0 Z-4.1
G1 F300.0 Z-5.4
G2 F800.0 X156.5 Y139.88434 I-3.0 J0.0
G1 X106.72799
G2 X83.02799 Y163.58434 I0.0 J23.7
G3 X81.52799 Y165.08434 I-1.5 J0.0
G1 X51.52799
G3 X50.95107 Y164.96895 I0.0 J-1.5
G1 X8.95107 Y147.46895
G3 X8.14338 Y146.66126 I0.57692 J-1.38462
G1 X1.89338 Y131.66126
G3 X1.77799 Y131.08434 I1.38462 J-0.57692
G1 Y119.5
G0 Z-4.5
G1 Y112.5
G0 Z3.0
G0 X-1.22201 Y115.5
G0 Z-4.1
G1 F300.0 Z-5.4
G2 F800.0 X1.77799 Y112.5 I0.0 J-3.0
G1 Y63.5
G0 Z-4.5
G1 Y56.5
G0 Z3.0
G0 X-1.22201 Y59.5
G0 Z-4.1
G1 F300.0 Z-5.4
G2 F800.0 X1.77799 Y56.5 I0.0 J-3.0
G1 Y35.68434
G3 X1.89338 Y35.10742 I1.5 J0.0
G1 X8.14338 Y20.10742
G3 X8.95107 Y19.29972 I1.38462 J0.57692
G1 X50.95107 Y1.79972
G3 X51.52799 Y1.68434 I0.57692 J1.38462
G1 X81.52799
G3 X83.02799 Y3.18434 I0.0 J1.5
G2 X106.72799 Y26.88434 I23.7 J0.0
G1 X156.5
G0 Z-4.5
G1 X163.5
G0 Z3.0
G0 X160.5 Y23.88434
G0 Z-4.1
G1 F300.0 Z-5.4
G2 F800.0 X163.5 Y26.88434 I3.0 J0.0
G1 X216.32799
G2 X240.02799 Y3.18434 I0.0 J-23.7
G3 X241.87542 Y1.72513 I1.5 J0.0
G1 X262.87542 Y6.72513
G3 X263.3047 Y6.90109 I-0.34743 J1.45921
G1 X301.3047 Y29.90109
G3 X301.59753 Y30.13263 I-0.7767 J1.28325
G1 X313.6064 Y42.34504
G0 Z-4.5
G1 X318.51438 Y47.3362
G0 Z3.0
G0 X318.55003 Y43.09371
G0 Z-4.1
G1 F300.0 Z-5.4
G2 F800.0 X318.51438 Y47.3362 I2.10342 J2.13907
G1 X331.09753 Y60.13263
G3 X331.52799 Y61.18434 I-1.06954 J1.05171
G1 Y105.68434
G3 X331.08865 Y106.745 I-1.5 J0.0
G1 X320.8917 Y116.94195
G0 Z-4.5
G1 X315.94195 Y121.8917
G0 Z3.0
G0 X320.18459
G0 Z-4.1
G1 F300.0 Z-5.4
G2 F800.0 X315.94195 I-2.12132 J2.12132
G1 X301.58865 Y136.245
G3 X301.3047 Y136.46759 I-1.06066 J-1.06066
G1 X263.3047 Y159.46759
G3 X262.90155 Y159.63708 I-0.7767 J-1.28325
G0 Z3.0
G0 X266.55416 Y161.79543
G1 F300.0 Z-5.4
G2 F800.0 X262.90155 Y159.63708 I-2.90548 J0.74712
G2 X260.7432 Y163.28968 I0.74712 J2.90548
G0 Z3.0
G0 X264.3958 Y165.44804
G0 Z-4.4
G1 F300.0 Z-5.5
G2 F800.0 X266.55416 Y161.79543 I-0.74712 J-2.90548
G2 X262.90155 Y159.63708 I-2.90548 J0.74712
G0 Z3.0
G0 X266.55416 Y161.79543
G0 Z-4.5
G1 F300.0 Z-5.5
G2 F800.0 X262.90155 Y159.63708 I-2.90548 J0.74712
G1 X241.90155 Y165.03708
G3 X240.02799 Y163.58434 I-0.37356 J-1.45274
G2 X216.32799 Y139.88434 I-23.7 J0.0
G1 X163.5
G0 Z-4.5
G1 X156.5
G0 Z3.0
G0 X159.5 Y142.88434
G0 Z-4.4
G1 F300.0 Z-5.5
G2 F800.0 X156.5 Y139.88434 I-3.0 J0.0
G1 X106.72799
G2 X83.02799 Y163.58434 I0.0 J23.7
G3 X81.52799 Y165.08434 I-1.5 J0.0
G1 X51.52799
G3 X50.95107 Y164.96895 I0.0 J-1.5
G1 X8.95107 Y147.46895
G3 X8.14338 Y146.66126 I0.57692 J-1.38462
G1 X1.89338 Y131.66126
G3 X1.77799 Y131.08434 I1.38462 J-0.57692
G1 Y119.5
G0 Z-4.5
G1 Y112.5
G0 Z3.0
G0 X-1.22201 Y115.5
G0 Z-4.4
G1 F300.0 Z-5.5
G2 F800.0 X1.77799 Y112.5 I0.0 J-3.0
G1 Y63.5
G0 Z-4.5
G1 Y56.5
G0 Z3.0
G0 X-1.22201 Y59.5
G0 Z-4.4
G1 F300.0 Z-5.5
G2 F800.0 X1.77799 Y56.5 I0.0 J-3.0
G1 Y35.68434
G3 X1.89338 Y35.10742 I1.5 J0.0
G1 X8.14338 Y20.10742
G3 X8.95107 Y19.29972 I1.38462 J0.57692
G1 X50.95107 Y1.79972
G3 X51.52799 Y1.68434 I0.57692 J1.38462
G1 X81.52799
G3 X83.02799 Y3.18434 I0.0 J1.5
G2 X106.72799 Y26.88434 I23.7 J0.0
G1 X156.5
G0 Z-4.5
G1 X163.5
G0 Z3.0
G0 X160.5 Y23.88434
G0 Z-4.4
G1 F300.0 Z-5.5
G2 F800.0 X163.5 Y26.88434 I3.0 J0.0
G1 X216.32799
G2 X240.02799 Y3.18434 I0.0 J-23.7
G3 X241.87542 Y1.72513 I1.5 J0.0
G1 X262.87542 Y6.72513
G3 X263.3047 Y6.90109 I-0.34743 J1.45921
G1 X301.3047 Y29.90109
G3 X301.59753 Y30.13263 I-0.7767 J1.28325
G1 X313.6064 Y42.34504
G0 Z-4.5
G1 X318.51438 Y47.3362
G0 Z3.0
G0 X318.55003 Y43.09371
G0 Z-4.4
G1 F300.0 Z-5.5
G2 F800.0 X318.51438 Y47.3362 I2.10342 J2.13907
G1 X331.09753 Y60.13263
G3 X331.52799 Y61.18434 I-1.06954 J1.05171
G1 Y105.68434
G3 X331.08865 Y106.745 I-1.5 J0.0
G1 X320.8917 Y116.94195
G0 Z-4.5
G1 X315.94195 Y121.8917
G0 Z3.0
G0 X320.18459
G0 Z-4.4
G1 F300.0 Z-5.5
G2 F800.0 X315.94195 I-2.12132 J2.12132
G1 X301.58865 Y136.245
G3 X301.3047 Y136.46759 I-1.06066 J-1.06066
G1 X263.3047 Y159.46759
G3 X262.90155 Y159.63708 I-0.7767 J-1.28325
G0 Z3.0
G0 X266.55416 Y161.79543
G0 Z-4.5
G1 F300.0 Z-5.5
G2 F800.0 X262.90155 Y159.63708 I-2.90548 J0.74712
G2 X260.7432 Y163.28968 I0.74712 J2.90548
G0 Z3.0
M5
M30
