( Made using CamBam - http://www.cambam.co.uk )
( support chenille 1/21/2015 11:07:18 PM )
( T0 : 2.0 )
G21 G90 G64 P0.05 G40
G0 Z3.0
( T0 : 2.0 )
M0
( Perçage1 )
G17
M3 S1000
G0 X-44.5 Y0.0
G0 Z3.0
G0 X-44.3 Y0.0
G0 Z1.0
G1 F300.0 Z0.0
G2 F800.0 X-44.6 Y-0.17321 Z-0.33333 I-0.2 J0.0
G2 Y0.17321 Z-0.66667 I0.1 J0.17321
G2 X-44.3 Y0.0 Z-1.0 I0.1 J-0.17321
G2 X-44.6 Y-0.17321 Z-1.33333 I-0.2 J0.0
G2 Y0.17321 Z-1.66667 I0.1 J0.17321
G2 X-44.3 Y0.0 Z-2.0 I0.1 J-0.17321
G2 X-44.6 Y-0.17321 Z-2.33333 I-0.2 J0.0
G2 Y0.17321 Z-2.66667 I0.1 J0.17321
G2 X-44.3 Y0.0 Z-3.0 I0.1 J-0.17321
G2 X-44.6 Y-0.17321 Z-3.33333 I-0.2 J0.0
G2 Y0.17321 Z-3.66667 I0.1 J0.17321
G2 X-44.3 Y0.0 Z-4.0 I0.1 J-0.17321
G2 X-44.6 Y-0.17321 Z-4.33333 I-0.2 J0.0
G2 Y0.17321 Z-4.66667 I0.1 J0.17321
G2 X-44.3 Y0.0 Z-5.0 I0.1 J-0.17321
G2 X-44.6 Y-0.17321 Z-5.33333 I-0.2 J0.0
G2 X-44.7 Y0.0 Z-5.5 I0.1 J0.17321
G2 X-44.4 Y0.17321 I0.2 J0.0
G2 Y-0.17321 I-0.1 J-0.17321
G2 X-44.7 Y0.0 I-0.1 J0.17321
G0 Z3.0
G0 X-30.3
G0 Z1.0
G1 F300.0 Z0.0
G2 F800.0 X-30.6 Y-0.17321 Z-0.33333 I-0.2 J0.0
G2 Y0.17321 Z-0.66667 I0.1 J0.17321
G2 X-30.3 Y0.0 Z-1.0 I0.1 J-0.17321
G2 X-30.6 Y-0.17321 Z-1.33333 I-0.2 J0.0
G2 Y0.17321 Z-1.66667 I0.1 J0.17321
G2 X-30.3 Y0.0 Z-2.0 I0.1 J-0.17321
G2 X-30.6 Y-0.17321 Z-2.33333 I-0.2 J0.0
G2 Y0.17321 Z-2.66667 I0.1 J0.17321
G2 X-30.3 Y0.0 Z-3.0 I0.1 J-0.17321
G2 X-30.6 Y-0.17321 Z-3.33333 I-0.2 J0.0
G2 Y0.17321 Z-3.66667 I0.1 J0.17321
G2 X-30.3 Y0.0 Z-4.0 I0.1 J-0.17321
G2 X-30.6 Y-0.17321 Z-4.33333 I-0.2 J0.0
G2 Y0.17321 Z-4.66667 I0.1 J0.17321
G2 X-30.3 Y0.0 Z-5.0 I0.1 J-0.17321
G2 X-30.6 Y-0.17321 Z-5.33333 I-0.2 J0.0
G2 X-30.7 Y0.0 Z-5.5 I0.1 J0.17321
G2 X-30.4 Y0.17321 I0.2 J0.0
G2 Y-0.17321 I-0.1 J-0.17321
G2 X-30.7 Y0.0 I-0.1 J0.17321
G0 Z3.0
G0 X30.7
G0 Z1.0
G1 F300.0 Z0.0
G2 F800.0 X30.4 Y-0.17321 Z-0.33333 I-0.2 J0.0
G2 Y0.17321 Z-0.66667 I0.1 J0.17321
G2 X30.7 Y0.0 Z-1.0 I0.1 J-0.17321
G2 X30.4 Y-0.17321 Z-1.33333 I-0.2 J0.0
G2 Y0.17321 Z-1.66667 I0.1 J0.17321
G2 X30.7 Y0.0 Z-2.0 I0.1 J-0.17321
G2 X30.4 Y-0.17321 Z-2.33333 I-0.2 J0.0
G2 Y0.17321 Z-2.66667 I0.1 J0.17321
G2 X30.7 Y0.0 Z-3.0 I0.1 J-0.17321
G2 X30.4 Y-0.17321 Z-3.33333 I-0.2 J0.0
G2 Y0.17321 Z-3.66667 I0.1 J0.17321
G2 X30.7 Y0.0 Z-4.0 I0.1 J-0.17321
G2 X30.4 Y-0.17321 Z-4.33333 I-0.2 J0.0
G2 Y0.17321 Z-4.66667 I0.1 J0.17321
G2 X30.7 Y0.0 Z-5.0 I0.1 J-0.17321
G2 X30.4 Y-0.17321 Z-5.33333 I-0.2 J0.0
G2 X30.3 Y0.0 Z-5.5 I0.1 J0.17321
G2 X30.6 Y0.17321 I0.2 J0.0
G2 Y-0.17321 I-0.1 J-0.17321
G2 X30.3 Y0.0 I-0.1 J0.17321
G0 Z3.0
G0 X44.7
G0 Z1.0
G1 F300.0 Z0.0
G2 F800.0 X44.4 Y-0.17321 Z-0.33333 I-0.2 J0.0
G2 Y0.17321 Z-0.66667 I0.1 J0.17321
G2 X44.7 Y0.0 Z-1.0 I0.1 J-0.17321
G2 X44.4 Y-0.17321 Z-1.33333 I-0.2 J0.0
G2 Y0.17321 Z-1.66667 I0.1 J0.17321
G2 X44.7 Y0.0 Z-2.0 I0.1 J-0.17321
G2 X44.4 Y-0.17321 Z-2.33333 I-0.2 J0.0
G2 Y0.17321 Z-2.66667 I0.1 J0.17321
G2 X44.7 Y0.0 Z-3.0 I0.1 J-0.17321
G2 X44.4 Y-0.17321 Z-3.33333 I-0.2 J0.0
G2 Y0.17321 Z-3.66667 I0.1 J0.17321
G2 X44.7 Y0.0 Z-4.0 I0.1 J-0.17321
G2 X44.4 Y-0.17321 Z-4.33333 I-0.2 J0.0
G2 Y0.17321 Z-4.66667 I0.1 J0.17321
G2 X44.7 Y0.0 Z-5.0 I0.1 J-0.17321
G2 X44.4 Y-0.17321 Z-5.33333 I-0.2 J0.0
G2 X44.3 Y0.0 Z-5.5 I0.1 J0.17321
G2 X44.6 Y0.17321 I0.2 J0.0
G2 Y-0.17321 I-0.1 J-0.17321
G2 X44.3 Y0.0 I-0.1 J0.17321
( Contour2 )
S1000
G0 Z3.0
G0 X11.31325
G0 Z1.0
G1 F300.0 Z-1.0
G2 F800.0 X10.26325 Y-0.60622 I-0.7 J0.0
G2 Y0.60622 I0.35 J0.60622
G2 X11.31325 Y0.0 I0.35 J-0.60622
G1 F300.0 Z-2.0
G2 F800.0 X10.26325 Y-0.60622 I-0.7 J0.0
G2 Y0.60622 I0.35 J0.60622
G2 X11.31325 Y0.0 I0.35 J-0.60622
G1 F300.0 Z-3.0
G2 F800.0 X10.26325 Y-0.60622 I-0.7 J0.0
G2 Y0.60622 I0.35 J0.60622
G2 X11.31325 Y0.0 I0.35 J-0.60622
G1 F300.0 Z-4.0
G2 F800.0 X10.26325 Y-0.60622 I-0.7 J0.0
G2 Y0.60622 I0.35 J0.60622
G2 X11.31325 Y0.0 I0.35 J-0.60622
G1 F300.0 Z-5.0
G2 F800.0 X10.26325 Y-0.60622 I-0.7 J0.0
G2 Y0.60622 I0.35 J0.60622
G2 X11.31325 Y0.0 I0.35 J-0.60622
G1 F300.0 Z-5.5
G2 F800.0 X10.26325 Y-0.60622 I-0.7 J0.0
G2 Y0.60622 I0.35 J0.60622
G2 X11.31325 Y0.0 I0.35 J-0.60622
G0 Z3.0
G0 X-9.91325
G0 Z1.0
G1 F300.0 Z-1.0
G2 F800.0 X-10.96325 Y-0.60622 I-0.7 J0.0
G2 Y0.60622 I0.35 J0.60622
G2 X-9.91325 Y0.0 I0.35 J-0.60622
G1 F300.0 Z-2.0
G2 F800.0 X-10.96325 Y-0.60622 I-0.7 J0.0
G2 Y0.60622 I0.35 J0.60622
G2 X-9.91325 Y0.0 I0.35 J-0.60622
G1 F300.0 Z-3.0
G2 F800.0 X-10.96325 Y-0.60622 I-0.7 J0.0
G2 Y0.60622 I0.35 J0.60622
G2 X-9.91325 Y0.0 I0.35 J-0.60622
G1 F300.0 Z-4.0
G2 F800.0 X-10.96325 Y-0.60622 I-0.7 J0.0
G2 Y0.60622 I0.35 J0.60622
G2 X-9.91325 Y0.0 I0.35 J-0.60622
G1 F300.0 Z-5.0
G2 F800.0 X-10.96325 Y-0.60622 I-0.7 J0.0
G2 Y0.60622 I0.35 J0.60622
G2 X-9.91325 Y0.0 I0.35 J-0.60622
G1 F300.0 Z-5.5
G2 F800.0 X-10.96325 Y-0.60622 I-0.7 J0.0
G2 Y0.60622 I0.35 J0.60622
G2 X-9.91325 Y0.0 I0.35 J-0.60622
G0 Z3.0
G0 X-17.93821 Y20.60206
G0 Z1.0
G1 F300.0 Z-1.0
G2 F800.0 X-18.54228 Y20.6481 I-0.25407 J0.65226
G2 Y21.86054 I0.35 J0.60622
G2 X-17.49228 Y21.25432 I0.35 J-0.60622
G2 X-17.93821 Y20.60206 I-0.7 J0.0
G1 F300.0 Z-2.0
G2 F800.0 X-18.54228 Y20.6481 I-0.25407 J0.65226
G2 Y21.86054 I0.35 J0.60622
G2 X-17.49228 Y21.25432 I0.35 J-0.60622
G2 X-17.93821 Y20.60206 I-0.7 J0.0
G1 F300.0 Z-3.0
G2 F800.0 X-18.54228 Y20.6481 I-0.25407 J0.65226
G2 Y21.86054 I0.35 J0.60622
G2 X-17.49228 Y21.25432 I0.35 J-0.60622
G2 X-17.93821 Y20.60206 I-0.7 J0.0
G1 F300.0 Z-4.0
G2 F800.0 X-18.54228 Y20.6481 I-0.25407 J0.65226
G2 Y21.86054 I0.35 J0.60622
G2 X-17.49228 Y21.25432 I0.35 J-0.60622
G2 X-17.93821 Y20.60206 I-0.7 J0.0
G1 F300.0 Z-5.0
G2 F800.0 X-18.54228 Y20.6481 I-0.25407 J0.65226
G2 Y21.86054 I0.35 J0.60622
G2 X-17.49228 Y21.25432 I0.35 J-0.60622
G2 X-17.93821 Y20.60206 I-0.7 J0.0
G1 F300.0 Z-5.5
G2 F800.0 X-18.54228 Y20.6481 I-0.25407 J0.65226
G2 Y21.86054 I0.35 J0.60622
G2 X-17.49228 Y21.25432 I0.35 J-0.60622
G2 X-17.93821 Y20.60206 I-0.7 J0.0
( Contour3 )
S1000
G0 Z3.0
G0 X-11.73847 Y15.60922
G0 Z1.0
G1 F300.0 Z-1.0
G2 F800.0 X-10.32517 Y15.55826 I0.68117 J-0.73213
G1 X-2.36255 Y7.0
G1 X-24.69701
G1 X-11.94672 Y17.30111
G1 X-10.32517 Y15.55826
G2 X-10.37613 Y14.14497 I-0.73213 J-0.68117
G0 Z3.0
G0 X-11.73847 Y15.60922
G0 Z0.0
G1 F300.0 Z-2.0
G2 F800.0 X-10.32517 Y15.55826 I0.68117 J-0.73213
G1 X-2.36255 Y7.0
G1 X-24.69701
G1 X-11.94672 Y17.30111
G1 X-10.32517 Y15.55826
G2 X-10.37613 Y14.14497 I-0.73213 J-0.68117
G0 Z3.0
G0 X-11.73847 Y15.60922
G0 Z-1.0
G1 F300.0 Z-3.0
G2 F800.0 X-10.32517 Y15.55826 I0.68117 J-0.73213
G1 X-2.36255 Y7.0
G1 X-24.69701
G1 X-11.94672 Y17.30111
G1 X-10.32517 Y15.55826
G2 X-10.37613 Y14.14497 I-0.73213 J-0.68117
G0 Z3.0
G0 X-11.73847 Y15.60922
G0 Z-2.0
G1 F300.0 Z-4.0
G2 F800.0 X-10.32517 Y15.55826 I0.68117 J-0.73213
G1 X-2.36255 Y7.0
G1 X-24.69701
G1 X-11.94672 Y17.30111
G1 X-10.32517 Y15.55826
G2 X-10.37613 Y14.14497 I-0.73213 J-0.68117
G0 Z3.0
G0 X-11.73847 Y15.60922
G0 Z-3.0
G1 F300.0 Z-5.0
G2 F800.0 X-10.32517 Y15.55826 I0.68117 J-0.73213
G1 X-2.36255 Y7.0
G1 X-24.69701
G1 X-11.94672 Y17.30111
G1 X-10.32517 Y15.55826
G2 X-10.37613 Y14.14497 I-0.73213 J-0.68117
G0 Z3.0
G0 X-11.73847 Y15.60922
G0 Z-4.0
G1 F300.0 Z-5.5
G2 F800.0 X-10.32517 Y15.55826 I0.68117 J-0.73213
G1 X-2.36255 Y7.0
G1 X-24.69701
G1 X-11.94672 Y17.30111
G1 X-10.32517 Y15.55826
G2 X-10.37613 Y14.14497 I-0.73213 J-0.68117
( Contour4 )
S1000
G0 Z3.0
G0 X-0.75444 Y35.34257
G0 Z1.0
G1 F300.0 Z-1.0
G2 F800.0 X-0.60502 Y36.74887 I0.77786 J0.62844
G1 X1.70513 Y38.61527
G2 X2.96201 Y37.05955 I0.62844 J-0.77786
G1 X-1.70513 Y33.28891
G2 X-2.96201 Y34.84462 I-0.62844 J0.77786
G1 X-0.60502 Y36.74887
G2 X0.80128 Y36.59945 I0.62844 J-0.77786
G0 Z3.0
G0 X-0.75444 Y35.34257
G0 Z0.0
G1 F300.0 Z-2.0
G2 F800.0 X-0.60502 Y36.74887 I0.77786 J0.62844
G1 X1.70513 Y38.61527
G2 X2.96201 Y37.05955 I0.62844 J-0.77786
G1 X-1.70513 Y33.28891
G2 X-2.96201 Y34.84462 I-0.62844 J0.77786
G1 X-0.60502 Y36.74887
G2 X0.80128 Y36.59945 I0.62844 J-0.77786
G0 Z3.0
G0 X-0.75444 Y35.34257
G0 Z-1.0
G1 F300.0 Z-3.0
G2 F800.0 X-0.60502 Y36.74887 I0.77786 J0.62844
G1 X1.70513 Y38.61527
G2 X2.96201 Y37.05955 I0.62844 J-0.77786
G1 X-1.70513 Y33.28891
G2 X-2.96201 Y34.84462 I-0.62844 J0.77786
G1 X-0.60502 Y36.74887
G2 X0.80128 Y36.59945 I0.62844 J-0.77786
G0 Z3.0
G0 X-0.75444 Y35.34257
G0 Z-2.0
G1 F300.0 Z-4.0
G2 F800.0 X-0.60502 Y36.74887 I0.77786 J0.62844
G1 X1.70513 Y38.61527
G2 X2.96201 Y37.05955 I0.62844 J-0.77786
G1 X-1.70513 Y33.28891
G2 X-2.96201 Y34.84462 I-0.62844 J0.77786
G1 X-0.60502 Y36.74887
G2 X0.80128 Y36.59945 I0.62844 J-0.77786
G0 Z3.0
G0 X-0.75444 Y35.34257
G0 Z-3.0
G1 F300.0 Z-5.0
G2 F800.0 X-0.60502 Y36.74887 I0.77786 J0.62844
G1 X1.70513 Y38.61527
G2 X2.96201 Y37.05955 I0.62844 J-0.77786
G1 X-1.70513 Y33.28891
G2 X-2.96201 Y34.84462 I-0.62844 J0.77786
G1 X-0.60502 Y36.74887
G2 X0.80128 Y36.59945 I0.62844 J-0.77786
G0 Z3.0
G0 X-0.75444 Y35.34257
G0 Z-4.0
G1 F300.0 Z-5.5
G2 F800.0 X-0.60502 Y36.74887 I0.77786 J0.62844
G1 X1.70513 Y38.61527
G2 X2.96201 Y37.05955 I0.62844 J-0.77786
G1 X-1.70513 Y33.28891
G2 X-2.96201 Y34.84462 I-0.62844 J0.77786
G1 X-0.60502 Y36.74887
G2 X0.80128 Y36.59945 I0.62844 J-0.77786
( Contour5 )
S1000
G0 Z3.0
G0 X39.6 Y1.0
G0 Z1.0
G1 F300.0 Z-1.0
G2 F800.0 X40.6 Y0.0 I0.0 J-1.0
G2 X35.95 Y-2.68468 I-3.1 J0.0
G2 Y2.68468 I1.55 J2.68468
G2 X40.6 Y0.0 I1.55 J-2.68468
G2 X39.6 Y-1.0 I-1.0 J0.0
G0 Z3.0
G0 Y1.0
G0 Z0.0
G1 F300.0 Z-2.0
G2 F800.0 X40.6 Y0.0 I0.0 J-1.0
G2 X35.95 Y-2.68468 I-3.1 J0.0
G2 Y2.68468 I1.55 J2.68468
G2 X40.6 Y0.0 I1.55 J-2.68468
G2 X39.6 Y-1.0 I-1.0 J0.0
G0 Z3.0
G0 Y1.0
G0 Z-1.0
G1 F300.0 Z-3.0
G2 F800.0 X40.6 Y0.0 I0.0 J-1.0
G2 X35.95 Y-2.68468 I-3.1 J0.0
G2 Y2.68468 I1.55 J2.68468
G2 X40.6 Y0.0 I1.55 J-2.68468
G2 X39.6 Y-1.0 I-1.0 J0.0
G0 Z3.0
G0 Y1.0
G0 Z-2.0
G1 F300.0 Z-4.0
G2 F800.0 X40.6 Y0.0 I0.0 J-1.0
G2 X35.95 Y-2.68468 I-3.1 J0.0
G2 Y2.68468 I1.55 J2.68468
G2 X40.6 Y0.0 I1.55 J-2.68468
G2 X39.6 Y-1.0 I-1.0 J0.0
G0 Z3.0
G0 Y1.0
G0 Z-3.0
G1 F300.0 Z-5.0
G2 F800.0 X40.6 Y0.0 I0.0 J-1.0
G2 X35.95 Y-2.68468 I-3.1 J0.0
G2 Y2.68468 I1.55 J2.68468
G2 X40.6 Y0.0 I1.55 J-2.68468
G2 X39.6 Y-1.0 I-1.0 J0.0
G0 Z3.0
G0 Y1.0
G0 Z-4.0
G1 F300.0 Z-5.5
G2 F800.0 X40.6 Y0.0 I0.0 J-1.0
G2 X35.95 Y-2.68468 I-3.1 J0.0
G2 Y2.68468 I1.55 J2.68468
G2 X40.6 Y0.0 I1.55 J-2.68468
G2 X39.6 Y-1.0 I-1.0 J0.0
G0 Z3.0
G0 X-35.4 Y1.0
G0 Z1.0
G1 F300.0 Z-1.0
G2 F800.0 X-34.4 Y0.0 I0.0 J-1.0
G2 X-39.05 Y-2.68468 I-3.1 J0.0
G2 Y2.68468 I1.55 J2.68468
G2 X-34.4 Y0.0 I1.55 J-2.68468
G2 X-35.4 Y-1.0 I-1.0 J0.0
G0 Z3.0
G0 Y1.0
G0 Z0.0
G1 F300.0 Z-2.0
G2 F800.0 X-34.4 Y0.0 I0.0 J-1.0
G2 X-39.05 Y-2.68468 I-3.1 J0.0
G2 Y2.68468 I1.55 J2.68468
G2 X-34.4 Y0.0 I1.55 J-2.68468
G2 X-35.4 Y-1.0 I-1.0 J0.0
G0 Z3.0
G0 Y1.0
G0 Z-1.0
G1 F300.0 Z-3.0
G2 F800.0 X-34.4 Y0.0 I0.0 J-1.0
G2 X-39.05 Y-2.68468 I-3.1 J0.0
G2 Y2.68468 I1.55 J2.68468
G2 X-34.4 Y0.0 I1.55 J-2.68468
G2 X-35.4 Y-1.0 I-1.0 J0.0
G0 Z3.0
G0 Y1.0
G0 Z-2.0
G1 F300.0 Z-4.0
G2 F800.0 X-34.4 Y0.0 I0.0 J-1.0
G2 X-39.05 Y-2.68468 I-3.1 J0.0
G2 Y2.68468 I1.55 J2.68468
G2 X-34.4 Y0.0 I1.55 J-2.68468
G2 X-35.4 Y-1.0 I-1.0 J0.0
G0 Z3.0
G0 Y1.0
G0 Z-3.0
G1 F300.0 Z-5.0
G2 F800.0 X-34.4 Y0.0 I0.0 J-1.0
G2 X-39.05 Y-2.68468 I-3.1 J0.0
G2 Y2.68468 I1.55 J2.68468
G2 X-34.4 Y0.0 I1.55 J-2.68468
G2 X-35.4 Y-1.0 I-1.0 J0.0
G0 Z3.0
G0 Y1.0
G0 Z-4.0
G1 F300.0 Z-5.5
G2 F800.0 X-34.4 Y0.0 I0.0 J-1.0
G2 X-39.05 Y-2.68468 I-3.1 J0.0
G2 Y2.68468 I1.55 J2.68468
G2 X-34.4 Y0.0 I1.55 J-2.68468
G2 X-35.4 Y-1.0 I-1.0 J0.0
( Contour6 )
S1000
G0 Z3.0
G0 X-41.0 Y-8.0
G0 Z1.0
G1 F300.0 Z-1.0
G2 F800.0 X-40.0 Y-7.0 I1.0 J0.0
G1 X44.5
G3 Y7.0 I0.0 J7.0
G1 X16.75986
G1 X-1.03012 Y26.12076
G1 X6.73266 Y32.3924
G3 X-2.06551 Y43.28241 I-4.39908 J5.445
G1 X-48.89908 Y5.445
G3 X-44.5 Y-7.0 I4.39908 J-5.445
G1 X-40.0
G2 X-39.0 Y-8.0 I0.0 J-1.0
G0 Z3.0
G0 X-41.0
G0 Z0.0
G1 F300.0 Z-2.0
G2 F800.0 X-40.0 Y-7.0 I1.0 J0.0
G1 X44.5
G3 Y7.0 I0.0 J7.0
G1 X16.75986
G1 X-1.03012 Y26.12076
G1 X6.73266 Y32.3924
G3 X-2.06551 Y43.28241 I-4.39908 J5.445
G1 X-48.89908 Y5.445
G3 X-44.5 Y-7.0 I4.39908 J-5.445
G1 X-40.0
G2 X-39.0 Y-8.0 I0.0 J-1.0
G0 Z3.0
G0 X-41.0
G0 Z-1.0
G1 F300.0 Z-3.0
G2 F800.0 X-40.0 Y-7.0 I1.0 J0.0
G1 X44.5
G3 Y7.0 I0.0 J7.0
G1 X16.75986
G1 X-1.03012 Y26.12076
G1 X6.73266 Y32.3924
G3 X-2.06551 Y43.28241 I-4.39908 J5.445
G1 X-48.89908 Y5.445
G3 X-44.5 Y-7.0 I4.39908 J-5.445
G1 X-40.0
G2 X-39.0 Y-8.0 I0.0 J-1.0
G0 Z3.0
G0 X-41.0
G0 Z-2.0
G1 F300.0 Z-4.0
G2 F800.0 X-40.0 Y-7.0 I1.0 J0.0
G1 X44.5
G3 Y7.0 I0.0 J7.0
G1 X16.75986
G1 X-1.03012 Y26.12076
G1 X6.73266 Y32.3924
G3 X-2.06551 Y43.28241 I-4.39908 J5.445
G1 X-48.89908 Y5.445
G3 X-44.5 Y-7.0 I4.39908 J-5.445
G1 X-40.0
G2 X-39.0 Y-8.0 I0.0 J-1.0
G0 Z3.0
G0 X-41.0
G0 Z-3.0
G1 F300.0 Z-5.0
G2 F800.0 X-40.0 Y-7.0 I1.0 J0.0
G1 X-1.5
G0 Z-4.5
G1 X3.5
G1 F300.0 Z-5.0
G1 F800.0 X44.5
G3 Y7.0 I0.0 J7.0
G1 X16.75986
G1 X8.48327 Y15.89572
G0 Z-4.5
G1 X5.07742 Y19.55635
G1 F300.0 Z-5.0
G1 F800.0 X-1.03012 Y26.12076
G1 X6.73266 Y32.3924
G3 X-2.06551 Y43.28241 I-4.39908 J5.445
G1 X-24.4013 Y25.23706
G0 Z-4.5
G1 X-28.29059 Y22.09485
G1 F300.0 Z-5.0
G1 F800.0 X-48.89908 Y5.445
G3 X-44.5 Y-7.0 I4.39908 J-5.445
G1 X-40.0
G2 X-39.0 Y-8.0 I0.0 J-1.0
G0 Z3.0
G0 X-41.0
G0 Z-4.0
G1 F300.0 Z-5.5
G2 F800.0 X-40.0 Y-7.0 I1.0 J0.0
G1 X-1.5
G0 Z-4.5
G1 X3.5
G1 F300.0 Z-5.5
G1 F800.0 X44.5
G3 Y7.0 I0.0 J7.0
G1 X16.75986
G1 X8.48327 Y15.89572
G0 Z-4.5
G1 X5.07742 Y19.55635
G1 F300.0 Z-5.5
G1 F800.0 X-1.03012 Y26.12076
G1 X6.73266 Y32.3924
G3 X-2.06551 Y43.28241 I-4.39908 J5.445
G1 X-24.4013 Y25.23706
G0 Z-4.5
G1 X-28.29059 Y22.09485
G1 F300.0 Z-5.5
G1 F800.0 X-48.89908 Y5.445
G3 X-44.5 Y-7.0 I4.39908 J-5.445
G1 X-40.0
G2 X-39.0 Y-8.0 I0.0 J-1.0
G0 Z3.0
M5
M30
