( Made using CamBam - http://www.cambam.co.uk )
( support chenille prog 1/22/2015 10:09:20 AM )
( T0 : 2.0 )
G21 G90 G64 P0.05 G40
G0 Z3.0
( T0 : 2.0 )
M0
( Contour1 )
G17
M3 S1000
G0 X-17.49228 Y21.25432
G0 Z1.0
G1 F300.0 Z-1.0
G2 F800.0 X-18.54228 Y20.6481 I-0.7 J0.0
G2 Y21.86054 I0.35 J0.60622
G2 X-17.49228 Y21.25432 I0.35 J-0.60622
G1 F300.0 Z-2.0
G2 F800.0 X-18.54228 Y20.6481 I-0.7 J0.0
G2 Y21.86054 I0.35 J0.60622
G2 X-17.49228 Y21.25432 I0.35 J-0.60622
G1 F300.0 Z-3.0
G2 F800.0 X-18.54228 Y20.6481 I-0.7 J0.0
G2 Y21.86054 I0.35 J0.60622
G2 X-17.49228 Y21.25432 I0.35 J-0.60622
G1 F300.0 Z-4.0
G2 F800.0 X-18.54228 Y20.6481 I-0.7 J0.0
G2 Y21.86054 I0.35 J0.60622
G2 X-17.49228 Y21.25432 I0.35 J-0.60622
G1 F300.0 Z-5.0
G2 F800.0 X-18.54228 Y20.6481 I-0.7 J0.0
G2 Y21.86054 I0.35 J0.60622
G2 X-17.49228 Y21.25432 I0.35 J-0.60622
G1 F300.0 Z-5.5
G2 F800.0 X-18.54228 Y20.6481 I-0.7 J0.0
G2 Y21.86054 I0.35 J0.60622
G2 X-17.49228 Y21.25432 I0.35 J-0.60622
G0 Z3.0
G0 X-10.8288 Y0.66599
G0 Z1.0
G1 F300.0 Z-1.0
G2 F800.0 X-9.91325 Y0.0 I0.21555 J-0.66599
G2 X-10.96325 Y-0.60622 I-0.7 J0.0
G2 Y0.60622 I0.35 J0.60622
G2 X-10.8288 Y0.66599 I0.35 J-0.60622
G1 F300.0 Z-2.0
G2 F800.0 X-9.91325 Y0.0 I0.21555 J-0.66599
G2 X-10.96325 Y-0.60622 I-0.7 J0.0
G2 Y0.60622 I0.35 J0.60622
G2 X-10.8288 Y0.66599 I0.35 J-0.60622
G1 F300.0 Z-3.0
G2 F800.0 X-9.91325 Y0.0 I0.21555 J-0.66599
G2 X-10.96325 Y-0.60622 I-0.7 J0.0
G2 Y0.60622 I0.35 J0.60622
G2 X-10.8288 Y0.66599 I0.35 J-0.60622
G1 F300.0 Z-4.0
G2 F800.0 X-9.91325 Y0.0 I0.21555 J-0.66599
G2 X-10.96325 Y-0.60622 I-0.7 J0.0
G2 Y0.60622 I0.35 J0.60622
G2 X-10.8288 Y0.66599 I0.35 J-0.60622
G1 F300.0 Z-5.0
G2 F800.0 X-9.91325 Y0.0 I0.21555 J-0.66599
G2 X-10.96325 Y-0.60622 I-0.7 J0.0
G2 Y0.60622 I0.35 J0.60622
G2 X-10.8288 Y0.66599 I0.35 J-0.60622
G1 F300.0 Z-5.5
G2 F800.0 X-9.91325 Y0.0 I0.21555 J-0.66599
G2 X-10.96325 Y-0.60622 I-0.7 J0.0
G2 Y0.60622 I0.35 J0.60622
G2 X-10.8288 Y0.66599 I0.35 J-0.60622
G0 Z3.0
G0 X9.91359 Y0.02173
G0 Z1.0
G1 F300.0 Z-1.0
G2 F800.0 X10.26325 Y0.60622 I0.69966 J-0.02173
G2 X11.31325 Y0.0 I0.35 J-0.60622
G2 X10.26325 Y-0.60622 I-0.7 J0.0
G2 X9.91359 Y0.02173 I0.35 J0.60622
G1 F300.0 Z-2.0
G2 F800.0 X10.26325 Y0.60622 I0.69966 J-0.02173
G2 X11.31325 Y0.0 I0.35 J-0.60622
G2 X10.26325 Y-0.60622 I-0.7 J0.0
G2 X9.91359 Y0.02173 I0.35 J0.60622
G1 F300.0 Z-3.0
G2 F800.0 X10.26325 Y0.60622 I0.69966 J-0.02173
G2 X11.31325 Y0.0 I0.35 J-0.60622
G2 X10.26325 Y-0.60622 I-0.7 J0.0
G2 X9.91359 Y0.02173 I0.35 J0.60622
G1 F300.0 Z-4.0
G2 F800.0 X10.26325 Y0.60622 I0.69966 J-0.02173
G2 X11.31325 Y0.0 I0.35 J-0.60622
G2 X10.26325 Y-0.60622 I-0.7 J0.0
G2 X9.91359 Y0.02173 I0.35 J0.60622
G1 F300.0 Z-5.0
G2 F800.0 X10.26325 Y0.60622 I0.69966 J-0.02173
G2 X11.31325 Y0.0 I0.35 J-0.60622
G2 X10.26325 Y-0.60622 I-0.7 J0.0
G2 X9.91359 Y0.02173 I0.35 J0.60622
G1 F300.0 Z-5.5
G2 F800.0 X10.26325 Y0.60622 I0.69966 J-0.02173
G2 X11.31325 Y0.0 I0.35 J-0.60622
G2 X10.26325 Y-0.60622 I-0.7 J0.0
G2 X9.91359 Y0.02173 I0.35 J0.60622
( Contour2 )
S1000
G0 Z3.0
G0 X-10.17914 Y13.19921
G0 Z1.0
G1 F300.0 Z-1.0
G2 F800.0 X-8.76585 Y13.14826 I0.68117 J-0.73213
G1 X-3.5107 Y7.5
G1 X-23.28251
G1 X-11.99518 Y16.61916
G1 X-8.76585 Y13.14826
G2 X-8.8168 Y11.73496 I-0.73213 J-0.68117
G1 F300.0 X-10.17914 Y13.19921
G1 Z-2.0
G2 F800.0 X-8.76585 Y13.14826 I0.68117 J-0.73213
G1 X-3.5107 Y7.5
G1 X-23.28251
G1 X-11.99518 Y16.61916
G1 X-8.76585 Y13.14826
G2 X-8.8168 Y11.73496 I-0.73213 J-0.68117
G1 F300.0 X-10.17914 Y13.19921
G1 Z-3.0
G2 F800.0 X-8.76585 Y13.14826 I0.68117 J-0.73213
G1 X-3.5107 Y7.5
G1 X-23.28251
G1 X-11.99518 Y16.61916
G1 X-8.76585 Y13.14826
G2 X-8.8168 Y11.73496 I-0.73213 J-0.68117
G1 F300.0 X-10.17914 Y13.19921
G1 Z-4.0
G2 F800.0 X-8.76585 Y13.14826 I0.68117 J-0.73213
G1 X-3.5107 Y7.5
G1 X-23.28251
G1 X-11.99518 Y16.61916
G1 X-8.76585 Y13.14826
G2 X-8.8168 Y11.73496 I-0.73213 J-0.68117
G1 F300.0 X-10.17914 Y13.19921
G1 Z-5.0
G2 F800.0 X-8.76585 Y13.14826 I0.68117 J-0.73213
G1 X-3.5107 Y7.5
G1 X-23.28251
G1 X-11.99518 Y16.61916
G1 X-8.76585 Y13.14826
G2 X-8.8168 Y11.73496 I-0.73213 J-0.68117
G1 F300.0 X-10.17914 Y13.19921
G1 Z-5.5
G2 F800.0 X-8.76585 Y13.14826 I0.68117 J-0.73213
G1 X-3.5107 Y7.5
G1 X-23.28251
G1 X-11.99518 Y16.61916
G1 X-8.76585 Y13.14826
G2 X-8.8168 Y11.73496 I-0.73213 J-0.68117
( Contour3 )
S1000
G0 Z3.0
G0 X-2.06447 Y34.28418
G0 Z1.0
G1 F300.0 Z-1.0
G2 F800.0 X-1.98976 Y34.98733 I0.38893 J0.31422
G1 X2.01935 Y38.22634
G2 X2.64779 Y37.44848 I0.31422 J-0.38893
G1 X-2.01935 Y33.67784
G2 X-2.64779 Y34.45569 I-0.31422 J0.38893
G1 X-1.98976 Y34.98733
G2 X-1.28661 Y34.91262 I0.31422 J-0.38893
G1 F300.0 X-2.06447 Y34.28418
G1 Z-2.0
G2 F800.0 X-1.98976 Y34.98733 I0.38893 J0.31422
G1 X2.01935 Y38.22634
G2 X2.64779 Y37.44848 I0.31422 J-0.38893
G1 X-2.01935 Y33.67784
G2 X-2.64779 Y34.45569 I-0.31422 J0.38893
G1 X-1.98976 Y34.98733
G2 X-1.28661 Y34.91262 I0.31422 J-0.38893
G1 F300.0 X-2.06447 Y34.28418
G1 Z-3.0
G2 F800.0 X-1.98976 Y34.98733 I0.38893 J0.31422
G1 X2.01935 Y38.22634
G2 X2.64779 Y37.44848 I0.31422 J-0.38893
G1 X-2.01935 Y33.67784
G2 X-2.64779 Y34.45569 I-0.31422 J0.38893
G1 X-1.98976 Y34.98733
G2 X-1.28661 Y34.91262 I0.31422 J-0.38893
G1 F300.0 X-2.06447 Y34.28418
G1 Z-4.0
G2 F800.0 X-1.98976 Y34.98733 I0.38893 J0.31422
G1 X2.01935 Y38.22634
G2 X2.64779 Y37.44848 I0.31422 J-0.38893
G1 X-2.01935 Y33.67784
G2 X-2.64779 Y34.45569 I-0.31422 J0.38893
G1 X-1.98976 Y34.98733
G2 X-1.28661 Y34.91262 I0.31422 J-0.38893
G1 F300.0 X-2.06447 Y34.28418
G1 Z-5.0
G2 F800.0 X-1.98976 Y34.98733 I0.38893 J0.31422
G1 X2.01935 Y38.22634
G2 X2.64779 Y37.44848 I0.31422 J-0.38893
G1 X-2.01935 Y33.67784
G2 X-2.64779 Y34.45569 I-0.31422 J0.38893
G1 X-1.98976 Y34.98733
G2 X-1.28661 Y34.91262 I0.31422 J-0.38893
G1 F300.0 X-2.06447 Y34.28418
G1 Z-5.5
G2 F800.0 X-1.98976 Y34.98733 I0.38893 J0.31422
G1 X2.01935 Y38.22634
G2 X2.64779 Y37.44848 I0.31422 J-0.38893
G1 X-2.01935 Y33.67784
G2 X-2.64779 Y34.45569 I-0.31422 J0.38893
G1 X-1.98976 Y34.98733
G2 X-1.28661 Y34.91262 I0.31422 J-0.38893
G0 Z3.0
G0 X-36.35502 Y1.83004
G0 Z1.0
G1 F300.0 Z-1.0
G2 F800.0 X-35.64794 Y1.82479 I0.35092 J-0.35617
G2 X-34.9 Y0.0 I-1.85206 J-1.82479
G2 X-38.8 Y-2.25167 I-2.6 J0.0
G2 Y2.25167 I1.3 J2.25167
G2 X-35.64794 Y1.82479 I1.3 J-2.25167
G2 X-35.65318 Y1.1177 I-0.35617 J-0.35092
G1 F300.0 X-36.35502 Y1.83004
G1 Z-2.0
G2 F800.0 X-35.64794 Y1.82479 I0.35092 J-0.35617
G2 X-34.9 Y0.0 I-1.85206 J-1.82479
G2 X-38.8 Y-2.25167 I-2.6 J0.0
G2 Y2.25167 I1.3 J2.25167
G2 X-35.64794 Y1.82479 I1.3 J-2.25167
G2 X-35.65318 Y1.1177 I-0.35617 J-0.35092
G1 F300.0 X-36.35502 Y1.83004
G1 Z-3.0
G2 F800.0 X-35.64794 Y1.82479 I0.35092 J-0.35617
G2 X-34.9 Y0.0 I-1.85206 J-1.82479
G2 X-38.8 Y-2.25167 I-2.6 J0.0
G2 Y2.25167 I1.3 J2.25167
G2 X-35.64794 Y1.82479 I1.3 J-2.25167
G2 X-35.65318 Y1.1177 I-0.35617 J-0.35092
G1 F300.0 X-36.35502 Y1.83004
G1 Z-4.0
G2 F800.0 X-35.64794 Y1.82479 I0.35092 J-0.35617
G2 X-34.9 Y0.0 I-1.85206 J-1.82479
G2 X-38.8 Y-2.25167 I-2.6 J0.0
G2 Y2.25167 I1.3 J2.25167
G2 X-35.64794 Y1.82479 I1.3 J-2.25167
G2 X-35.65318 Y1.1177 I-0.35617 J-0.35092
G1 F300.0 X-36.35502 Y1.83004
G1 Z-5.0
G2 F800.0 X-35.64794 Y1.82479 I0.35092 J-0.35617
G2 X-34.9 Y0.0 I-1.85206 J-1.82479
G2 X-38.8 Y-2.25167 I-2.6 J0.0
G2 Y2.25167 I1.3 J2.25167
G2 X-35.64794 Y1.82479 I1.3 J-2.25167
G2 X-35.65318 Y1.1177 I-0.35617 J-0.35092
G1 F300.0 X-36.35502 Y1.83004
G1 Z-5.5
G2 F800.0 X-35.64794 Y1.82479 I0.35092 J-0.35617
G2 X-34.9 Y0.0 I-1.85206 J-1.82479
G2 X-38.8 Y-2.25167 I-2.6 J0.0
G2 Y2.25167 I1.3 J2.25167
G2 X-35.64794 Y1.82479 I1.3 J-2.25167
G2 X-35.65318 Y1.1177 I-0.35617 J-0.35092
G0 Z3.0
G0 X35.38818 Y-0.44747
G0 Z1.0
G1 F300.0 Z-1.0
G2 F800.0 X34.90081 Y0.06484 I0.01247 J0.49984
G2 X36.2 Y2.25167 I2.59919 J-0.06484
G2 X40.1 Y0.0 I1.3 J-2.25167
G2 X36.2 Y-2.25167 I-2.6 J0.0
G2 X34.90081 Y0.06484 I1.3 J2.25167
G2 X35.41312 Y0.55222 I0.49984 J-0.01247
G1 F300.0 X35.38818 Y-0.44747
G1 Z-2.0
G2 F800.0 X34.90081 Y0.06484 I0.01247 J0.49984
G2 X36.2 Y2.25167 I2.59919 J-0.06484
G2 X40.1 Y0.0 I1.3 J-2.25167
G2 X36.2 Y-2.25167 I-2.6 J0.0
G2 X34.90081 Y0.06484 I1.3 J2.25167
G2 X35.41312 Y0.55222 I0.49984 J-0.01247
G1 F300.0 X35.38818 Y-0.44747
G1 Z-3.0
G2 F800.0 X34.90081 Y0.06484 I0.01247 J0.49984
G2 X36.2 Y2.25167 I2.59919 J-0.06484
G2 X40.1 Y0.0 I1.3 J-2.25167
G2 X36.2 Y-2.25167 I-2.6 J0.0
G2 X34.90081 Y0.06484 I1.3 J2.25167
G2 X35.41312 Y0.55222 I0.49984 J-0.01247
G1 F300.0 X35.38818 Y-0.44747
G1 Z-4.0
G2 F800.0 X34.90081 Y0.06484 I0.01247 J0.49984
G2 X36.2 Y2.25167 I2.59919 J-0.06484
G2 X40.1 Y0.0 I1.3 J-2.25167
G2 X36.2 Y-2.25167 I-2.6 J0.0
G2 X34.90081 Y0.06484 I1.3 J2.25167
G2 X35.41312 Y0.55222 I0.49984 J-0.01247
G1 F300.0 X35.38818 Y-0.44747
G1 Z-5.0
G2 F800.0 X34.90081 Y0.06484 I0.01247 J0.49984
G2 X36.2 Y2.25167 I2.59919 J-0.06484
G2 X40.1 Y0.0 I1.3 J-2.25167
G2 X36.2 Y-2.25167 I-2.6 J0.0
G2 X34.90081 Y0.06484 I1.3 J2.25167
G2 X35.41312 Y0.55222 I0.49984 J-0.01247
G1 F300.0 X35.38818 Y-0.44747
G1 Z-5.5
G2 F800.0 X34.90081 Y0.06484 I0.01247 J0.49984
G2 X36.2 Y2.25167 I2.59919 J-0.06484
G2 X40.1 Y0.0 I1.3 J-2.25167
G2 X36.2 Y-2.25167 I-2.6 J0.0
G2 X34.90081 Y0.06484 I1.3 J2.25167
G2 X35.41312 Y0.55222 I0.49984 J-0.01247
( Contour4 )
S1000
G0 Z3.0
G0 X34.0 Y8.5
G0 Z1.0
G1 F300.0 Z-1.0
G2 F800.0 X33.0 Y7.5 I-1.0 J0.0
G1 X16.97761
G1 X-0.29883 Y26.06879
G1 X7.04688 Y32.00348
G3 X-2.37973 Y43.67134 I-4.7133 J5.83393
G1 X-49.2133 Y5.83393
G3 X-44.5 Y-7.5 I4.7133 J-5.83393
G1 X44.5
G3 Y7.5 I0.0 J7.5
G1 X33.0
G2 X32.0 Y8.5 I0.0 J1.0
G1 F300.0 X34.0
G1 Z-2.0
G2 F800.0 X33.0 Y7.5 I-1.0 J0.0
G1 X16.97761
G1 X-0.29883 Y26.06879
G1 X7.04688 Y32.00348
G3 X-2.37973 Y43.67134 I-4.7133 J5.83393
G1 X-49.2133 Y5.83393
G3 X-44.5 Y-7.5 I4.7133 J-5.83393
G1 X44.5
G3 Y7.5 I0.0 J7.5
G1 X33.0
G2 X32.0 Y8.5 I0.0 J1.0
G1 F300.0 X34.0
G1 Z-3.0
G2 F800.0 X33.0 Y7.5 I-1.0 J0.0
G1 X16.97761
G1 X-0.29883 Y26.06879
G1 X7.04688 Y32.00348
G3 X-2.37973 Y43.67134 I-4.7133 J5.83393
G1 X-49.2133 Y5.83393
G3 X-44.5 Y-7.5 I4.7133 J-5.83393
G1 X44.5
G3 Y7.5 I0.0 J7.5
G1 X33.0
G2 X32.0 Y8.5 I0.0 J1.0
G1 F300.0 X34.0
G1 Z-4.0
G2 F800.0 X33.0 Y7.5 I-1.0 J0.0
G1 X16.97761
G1 X-0.29883 Y26.06879
G1 X7.04688 Y32.00348
G3 X-2.37973 Y43.67134 I-4.7133 J5.83393
G1 X-49.2133 Y5.83393
G3 X-44.5 Y-7.5 I4.7133 J-5.83393
G1 X44.5
G3 Y7.5 I0.0 J7.5
G1 X33.0
G2 X32.0 Y8.5 I0.0 J1.0
G1 F300.0 X34.0
G1 Z-5.0
G2 F800.0 X33.0 Y7.5 I-1.0 J0.0
G1 X16.97761
G1 X11.11531 Y13.80083
G0 Z-4.5
G1 X7.02829 Y18.19358
G1 F300.0 Z-5.0
G1 F800.0 X-0.29883 Y26.06879
G1 X7.04688 Y32.00348
G3 X-2.37973 Y43.67134 I-4.7133 J5.83393
G1 X-23.95398 Y26.24124
G0 Z-4.5
G1 X-28.62113 Y22.4706
G1 F300.0 Z-5.0
G1 F800.0 X-49.2133 Y5.83393
G3 X-44.5 Y-7.5 I4.7133 J-5.83393
G1 X-2.0
G0 Z-4.5
G1 X4.0
G1 F300.0 Z-5.0
G1 F800.0 X44.5
G3 Y7.5 I0.0 J7.5
G1 X33.0
G2 X32.0 Y8.5 I0.0 J1.0
G1 F300.0 X34.0
G1 Z-5.5
G2 F800.0 X33.0 Y7.5 I-1.0 J0.0
G1 X16.97761
G1 X11.11531 Y13.80083
G0 Z-4.5
G1 X7.02829 Y18.19358
G1 F300.0 Z-5.5
G1 F800.0 X-0.29883 Y26.06879
G1 X7.04688 Y32.00348
G3 X-2.37973 Y43.67134 I-4.7133 J5.83393
G1 X-23.95398 Y26.24124
G0 Z-4.5
G1 X-28.62113 Y22.4706
G1 F300.0 Z-5.5
G1 F800.0 X-49.2133 Y5.83393
G3 X-44.5 Y-7.5 I4.7133 J-5.83393
G1 X-2.0
G0 Z-4.5
G1 X4.0
G1 F300.0 Z-5.5
G1 F800.0 X44.5
G3 Y7.5 I0.0 J7.5
G1 X33.0
G2 X32.0 Y8.5 I0.0 J1.0
( Contour5 )
S1000
G0 Z3.0
G0 X44.75 Y0.0
G0 Z1.0
G1 F300.0 Z-1.0
G2 F800.0 X44.375 Y-0.21651 I-0.25 J0.0
G2 Y0.21651 I0.125 J0.21651
G2 X44.75 Y0.0 I0.125 J-0.21651
G1 F300.0 Z-2.0
G2 F800.0 X44.375 Y-0.21651 I-0.25 J0.0
G2 Y0.21651 I0.125 J0.21651
G2 X44.75 Y0.0 I0.125 J-0.21651
G1 F300.0 Z-3.0
G2 F800.0 X44.375 Y-0.21651 I-0.25 J0.0
G2 Y0.21651 I0.125 J0.21651
G2 X44.75 Y0.0 I0.125 J-0.21651
G1 F300.0 Z-4.0
G2 F800.0 X44.375 Y-0.21651 I-0.25 J0.0
G2 Y0.21651 I0.125 J0.21651
G2 X44.75 Y0.0 I0.125 J-0.21651
G1 F300.0 Z-5.0
G2 F800.0 X44.375 Y-0.21651 I-0.25 J0.0
G2 Y0.21651 I0.125 J0.21651
G2 X44.75 Y0.0 I0.125 J-0.21651
G1 F300.0 Z-5.5
G2 F800.0 X44.375 Y-0.21651 I-0.25 J0.0
G2 Y0.21651 I0.125 J0.21651
G2 X44.75 Y0.0 I0.125 J-0.21651
G0 Z3.0
G0 X30.75
G0 Z1.0
G1 F300.0 Z-1.0
G2 F800.0 X30.375 Y-0.21651 I-0.25 J0.0
G2 Y0.21651 I0.125 J0.21651
G2 X30.75 Y0.0 I0.125 J-0.21651
G1 F300.0 Z-2.0
G2 F800.0 X30.375 Y-0.21651 I-0.25 J0.0
G2 Y0.21651 I0.125 J0.21651
G2 X30.75 Y0.0 I0.125 J-0.21651
G1 F300.0 Z-3.0
G2 F800.0 X30.375 Y-0.21651 I-0.25 J0.0
G2 Y0.21651 I0.125 J0.21651
G2 X30.75 Y0.0 I0.125 J-0.21651
G1 F300.0 Z-4.0
G2 F800.0 X30.375 Y-0.21651 I-0.25 J0.0
G2 Y0.21651 I0.125 J0.21651
G2 X30.75 Y0.0 I0.125 J-0.21651
G1 F300.0 Z-5.0
G2 F800.0 X30.375 Y-0.21651 I-0.25 J0.0
G2 Y0.21651 I0.125 J0.21651
G2 X30.75 Y0.0 I0.125 J-0.21651
G1 F300.0 Z-5.5
G2 F800.0 X30.375 Y-0.21651 I-0.25 J0.0
G2 Y0.21651 I0.125 J0.21651
G2 X30.75 Y0.0 I0.125 J-0.21651
G0 Z3.0
G0 X-30.25
G0 Z1.0
G1 F300.0 Z-1.0
G2 F800.0 X-30.625 Y-0.21651 I-0.25 J0.0
G2 Y0.21651 I0.125 J0.21651
G2 X-30.25 Y0.0 I0.125 J-0.21651
G1 F300.0 Z-2.0
G2 F800.0 X-30.625 Y-0.21651 I-0.25 J0.0
G2 Y0.21651 I0.125 J0.21651
G2 X-30.25 Y0.0 I0.125 J-0.21651
G1 F300.0 Z-3.0
G2 F800.0 X-30.625 Y-0.21651 I-0.25 J0.0
G2 Y0.21651 I0.125 J0.21651
G2 X-30.25 Y0.0 I0.125 J-0.21651
G1 F300.0 Z-4.0
G2 F800.0 X-30.625 Y-0.21651 I-0.25 J0.0
G2 Y0.21651 I0.125 J0.21651
G2 X-30.25 Y0.0 I0.125 J-0.21651
G1 F300.0 Z-5.0
G2 F800.0 X-30.625 Y-0.21651 I-0.25 J0.0
G2 Y0.21651 I0.125 J0.21651
G2 X-30.25 Y0.0 I0.125 J-0.21651
G1 F300.0 Z-5.5
G2 F800.0 X-30.625 Y-0.21651 I-0.25 J0.0
G2 Y0.21651 I0.125 J0.21651
G2 X-30.25 Y0.0 I0.125 J-0.21651
G0 Z3.0
G0 X-44.25
G0 Z1.0
G1 F300.0 Z-1.0
G2 F800.0 X-44.625 Y-0.21651 I-0.25 J0.0
G2 Y0.21651 I0.125 J0.21651
G2 X-44.25 Y0.0 I0.125 J-0.21651
G1 F300.0 Z-2.0
G2 F800.0 X-44.625 Y-0.21651 I-0.25 J0.0
G2 Y0.21651 I0.125 J0.21651
G2 X-44.25 Y0.0 I0.125 J-0.21651
G1 F300.0 Z-3.0
G2 F800.0 X-44.625 Y-0.21651 I-0.25 J0.0
G2 Y0.21651 I0.125 J0.21651
G2 X-44.25 Y0.0 I0.125 J-0.21651
G1 F300.0 Z-4.0
G2 F800.0 X-44.625 Y-0.21651 I-0.25 J0.0
G2 Y0.21651 I0.125 J0.21651
G2 X-44.25 Y0.0 I0.125 J-0.21651
G1 F300.0 Z-5.0
G2 F800.0 X-44.625 Y-0.21651 I-0.25 J0.0
G2 Y0.21651 I0.125 J0.21651
G2 X-44.25 Y0.0 I0.125 J-0.21651
G1 F300.0 Z-5.5
G2 F800.0 X-44.625 Y-0.21651 I-0.25 J0.0
G2 Y0.21651 I0.125 J0.21651
G2 X-44.25 Y0.0 I0.125 J-0.21651
G0 Z3.0
M5
M30
