( Made using CamBam - http://www.cambam.co.uk )
( triangle de base 4/8/2015 10:18:14 PM )
( T0 : 2.0 )
G21 G90 G64 G40
G0 Z3.0
( T0 : 2.0 )
T0 M6
( Contour9 )
G17
M3 S1000
G0 X14.1311 Y26.6857
G0 Z1.0
G1 F300.0 Z-1.0
G2 F800.0 X13.9811 Y26.5991 I-0.1 J0.0
G2 Y26.7723 I0.05 J0.0866
G2 X14.1311 Y26.6857 I0.05 J-0.0866
G1 F300.0 Z-2.0
G2 F800.0 X13.9811 Y26.5991 I-0.1 J0.0
G2 Y26.7723 I0.05 J0.0866
G2 X14.1311 Y26.6857 I0.05 J-0.0866
G1 F300.0 Z-2.2
G2 F800.0 X13.9811 Y26.5991 I-0.1 J0.0
G2 Y26.7723 I0.05 J0.0866
G2 X14.1311 Y26.6857 I0.05 J-0.0866
G0 Z3.0
G0 X30.8689
G0 Z1.0
G1 F300.0 Z-1.0
G2 F800.0 X30.9189 Y26.7723 I0.1 J0.0
G2 X31.0689 Y26.6857 I0.05 J-0.0866
G2 X30.9189 Y26.5991 I-0.1 J0.0
G2 X30.8689 Y26.6857 I0.05 J0.0866
G1 F300.0 Z-2.0
G2 F800.0 X30.9189 Y26.7723 I0.1 J0.0
G2 X31.0689 Y26.6857 I0.05 J-0.0866
G2 X30.9189 Y26.5991 I-0.1 J0.0
G2 X30.8689 Y26.6857 I0.05 J0.0866
G1 F300.0 Z-2.2
G2 F800.0 X30.9189 Y26.7723 I0.1 J0.0
G2 X31.0689 Y26.6857 I0.05 J-0.0866
G2 X30.9189 Y26.5991 I-0.1 J0.0
G2 X30.8689 Y26.6857 I0.05 J0.0866
G0 Z3.0
G0 X43.4342 Y29.9109
G0 Z1.0
G1 F300.0 Z-1.0
G2 F800.0 X43.4811 Y30.0223 I0.0969 J0.0249
G2 X43.6311 Y29.9357 I0.05 J-0.0866
G2 X43.4811 Y29.8491 I-0.1 J0.0
G2 X43.4342 Y29.9109 I0.05 J0.0866
G1 F300.0 Z-2.0
G2 F800.0 X43.4811 Y30.0223 I0.0969 J0.0249
G2 X43.6311 Y29.9357 I0.05 J-0.0866
G2 X43.4811 Y29.8491 I-0.1 J0.0
G2 X43.4342 Y29.9109 I0.05 J0.0866
G1 F300.0 Z-2.2
G2 F800.0 X43.4811 Y30.0223 I0.0969 J0.0249
G2 X43.6311 Y29.9357 I0.05 J-0.0866
G2 X43.4811 Y29.8491 I-0.1 J0.0
G2 X43.4342 Y29.9109 I0.05 J0.0866
G0 Z3.0
G0 X60.3689 Y29.9356
G0 Z1.0
G1 F300.0 Z-1.0
G2 F800.0 X60.4189 Y30.0223 I0.1 J0.0001
G2 X60.5689 Y29.9357 I0.05 J-0.0866
G2 X60.4189 Y29.8491 I-0.1 J0.0
G2 X60.3689 Y29.9356 I0.05 J0.0866
G1 F300.0 Z-2.0
G2 F800.0 X60.4189 Y30.0223 I0.1 J0.0001
G2 X60.5689 Y29.9357 I0.05 J-0.0866
G2 X60.4189 Y29.8491 I-0.1 J0.0
G2 X60.3689 Y29.9356 I0.05 J0.0866
G1 F300.0 Z-2.2
G2 F800.0 X60.4189 Y30.0223 I0.1 J0.0001
G2 X60.5689 Y29.9357 I0.05 J-0.0866
G2 X60.4189 Y29.8491 I-0.1 J0.0
G2 X60.3689 Y29.9356 I0.05 J0.0866
G0 Z3.0
G0 X71.9347 Y26.7126
G0 Z1.0
G1 F300.0 Z-1.0
G2 F800.0 X71.9811 Y26.7723 I0.0963 J-0.0268
G2 X72.1311 Y26.6857 I0.05 J-0.0866
G2 X71.9811 Y26.5991 I-0.1 J0.0
G2 X71.9347 Y26.7126 I0.05 J0.0866
G1 F300.0 Z-2.0
G2 F800.0 X71.9811 Y26.7723 I0.0963 J-0.0268
G2 X72.1311 Y26.6857 I0.05 J-0.0866
G2 X71.9811 Y26.5991 I-0.1 J0.0
G2 X71.9347 Y26.7126 I0.05 J0.0866
G1 F300.0 Z-2.2
G2 F800.0 X71.9811 Y26.7723 I0.0963 J-0.0268
G2 X72.1311 Y26.6857 I0.05 J-0.0866
G2 X71.9811 Y26.5991 I-0.1 J0.0
G2 X71.9347 Y26.7126 I0.05 J0.0866
G0 Z3.0
G0 X88.8689 Y26.6859
G0 Z1.0
G1 F300.0 Z-1.0
G2 F800.0 X88.9189 Y26.7723 I0.1 J-0.0002
G2 X89.0689 Y26.6857 I0.05 J-0.0866
G2 X88.9189 Y26.5991 I-0.1 J0.0
G2 X88.8689 Y26.6859 I0.05 J0.0866
G1 F300.0 Z-2.0
G2 F800.0 X88.9189 Y26.7723 I0.1 J-0.0002
G2 X89.0689 Y26.6857 I0.05 J-0.0866
G2 X88.9189 Y26.5991 I-0.1 J0.0
G2 X88.8689 Y26.6859 I0.05 J0.0866
G1 F300.0 Z-2.2
G2 F800.0 X88.9189 Y26.7723 I0.1 J-0.0002
G2 X89.0689 Y26.6857 I0.05 J-0.0866
G2 X88.9189 Y26.5991 I-0.1 J0.0
G2 X88.8689 Y26.6859 I0.05 J0.0866
G0 Z3.0
G0 X101.4342 Y29.9109
G0 Z1.0
G1 F300.0 Z-1.0
G2 F800.0 X101.4811 Y30.0223 I0.0969 J0.0249
G2 X101.6311 Y29.9357 I0.05 J-0.0866
G2 X101.4811 Y29.8491 I-0.1 J0.0
G2 X101.4342 Y29.9109 I0.05 J0.0866
G1 F300.0 Z-2.0
G2 F800.0 X101.4811 Y30.0223 I0.0969 J0.0249
G2 X101.6311 Y29.9357 I0.05 J-0.0866
G2 X101.4811 Y29.8491 I-0.1 J0.0
G2 X101.4342 Y29.9109 I0.05 J0.0866
G1 F300.0 Z-2.2
G2 F800.0 X101.4811 Y30.0223 I0.0969 J0.0249
G2 X101.6311 Y29.9357 I0.05 J-0.0866
G2 X101.4811 Y29.8491 I-0.1 J0.0
G2 X101.4342 Y29.9109 I0.05 J0.0866
G0 Z3.0
G0 X118.3689 Y29.9356
G0 Z1.0
G1 F300.0 Z-1.0
G2 F800.0 X118.4189 Y30.0223 I0.1 J0.0001
G2 X118.5689 Y29.9357 I0.05 J-0.0866
G2 X118.4189 Y29.8491 I-0.1 J0.0
G2 X118.3689 Y29.9356 I0.05 J0.0866
G1 F300.0 Z-2.0
G2 F800.0 X118.4189 Y30.0223 I0.1 J0.0001
G2 X118.5689 Y29.9357 I0.05 J-0.0866
G2 X118.4189 Y29.8491 I-0.1 J0.0
G2 X118.3689 Y29.9356 I0.05 J0.0866
G1 F300.0 Z-2.2
G2 F800.0 X118.4189 Y30.0223 I0.1 J0.0001
G2 X118.5689 Y29.9357 I0.05 J-0.0866
G2 X118.4189 Y29.8491 I-0.1 J0.0
G2 X118.3689 Y29.9356 I0.05 J0.0866
G0 Z3.0
G0 X129.9347 Y26.7126
G0 Z1.0
G1 F300.0 Z-1.0
G2 F800.0 X129.9811 Y26.7723 I0.0963 J-0.0268
G2 X130.1311 Y26.6857 I0.05 J-0.0866
G2 X129.9811 Y26.5991 I-0.1 J0.0
G2 X129.9347 Y26.7126 I0.05 J0.0866
G1 F300.0 Z-2.0
G2 F800.0 X129.9811 Y26.7723 I0.0963 J-0.0268
G2 X130.1311 Y26.6857 I0.05 J-0.0866
G2 X129.9811 Y26.5991 I-0.1 J0.0
G2 X129.9347 Y26.7126 I0.05 J0.0866
G1 F300.0 Z-2.2
G2 F800.0 X129.9811 Y26.7723 I0.0963 J-0.0268
G2 X130.1311 Y26.6857 I0.05 J-0.0866
G2 X129.9811 Y26.5991 I-0.1 J0.0
G2 X129.9347 Y26.7126 I0.05 J0.0866
G0 Z3.0
G0 X146.8689 Y26.6859
G0 Z1.0
G1 F300.0 Z-1.0
G2 F800.0 X146.9189 Y26.7723 I0.1 J-0.0002
G2 X147.0689 Y26.6857 I0.05 J-0.0866
G2 X146.9189 Y26.5991 I-0.1 J0.0
G2 X146.8689 Y26.6859 I0.05 J0.0866
G1 F300.0 Z-2.0
G2 F800.0 X146.9189 Y26.7723 I0.1 J-0.0002
G2 X147.0689 Y26.6857 I0.05 J-0.0866
G2 X146.9189 Y26.5991 I-0.1 J0.0
G2 X146.8689 Y26.6859 I0.05 J0.0866
G1 F300.0 Z-2.2
G2 F800.0 X146.9189 Y26.7723 I0.1 J-0.0002
G2 X147.0689 Y26.6857 I0.05 J-0.0866
G2 X146.9189 Y26.5991 I-0.1 J0.0
G2 X146.8689 Y26.6859 I0.05 J0.0866
G0 Z3.0
G0 X159.4342 Y29.9109
G0 Z1.0
G1 F300.0 Z-1.0
G2 F800.0 X159.4811 Y30.0223 I0.0969 J0.0249
G2 X159.6311 Y29.9357 I0.05 J-0.0866
G2 X159.4811 Y29.8491 I-0.1 J0.0
G2 X159.4342 Y29.9109 I0.05 J0.0866
G1 F300.0 Z-2.0
G2 F800.0 X159.4811 Y30.0223 I0.0969 J0.0249
G2 X159.6311 Y29.9357 I0.05 J-0.0866
G2 X159.4811 Y29.8491 I-0.1 J0.0
G2 X159.4342 Y29.9109 I0.05 J0.0866
G1 F300.0 Z-2.2
G2 F800.0 X159.4811 Y30.0223 I0.0969 J0.0249
G2 X159.6311 Y29.9357 I0.05 J-0.0866
G2 X159.4811 Y29.8491 I-0.1 J0.0
G2 X159.4342 Y29.9109 I0.05 J0.0866
G0 Z3.0
G0 X176.3689 Y29.9356
G0 Z1.0
G1 F300.0 Z-1.0
G2 F800.0 X176.4189 Y30.0223 I0.1 J0.0001
G2 X176.5689 Y29.9357 I0.05 J-0.0866
G2 X176.4189 Y29.8491 I-0.1 J0.0
G2 X176.3689 Y29.9356 I0.05 J0.0866
G1 F300.0 Z-2.0
G2 F800.0 X176.4189 Y30.0223 I0.1 J0.0001
G2 X176.5689 Y29.9357 I0.05 J-0.0866
G2 X176.4189 Y29.8491 I-0.1 J0.0
G2 X176.3689 Y29.9356 I0.05 J0.0866
G1 F300.0 Z-2.2
G2 F800.0 X176.4189 Y30.0223 I0.1 J0.0001
G2 X176.5689 Y29.9357 I0.05 J-0.0866
G2 X176.4189 Y29.8491 I-0.1 J0.0
G2 X176.3689 Y29.9356 I0.05 J0.0866
G0 Z3.0
G0 X187.9347 Y26.7126
G0 Z1.0
G1 F300.0 Z-1.0
G2 F800.0 X187.9811 Y26.7723 I0.0963 J-0.0268
G2 X188.1311 Y26.6857 I0.05 J-0.0866
G2 X187.9811 Y26.5991 I-0.1 J0.0
G2 X187.9347 Y26.7126 I0.05 J0.0866
G1 F300.0 Z-2.0
G2 F800.0 X187.9811 Y26.7723 I0.0963 J-0.0268
G2 X188.1311 Y26.6857 I0.05 J-0.0866
G2 X187.9811 Y26.5991 I-0.1 J0.0
G2 X187.9347 Y26.7126 I0.05 J0.0866
G1 F300.0 Z-2.2
G2 F800.0 X187.9811 Y26.7723 I0.0963 J-0.0268
G2 X188.1311 Y26.6857 I0.05 J-0.0866
G2 X187.9811 Y26.5991 I-0.1 J0.0
G2 X187.9347 Y26.7126 I0.05 J0.0866
G0 Z3.0
G0 X204.8689 Y26.6859
G0 Z1.0
G1 F300.0 Z-1.0
G2 F800.0 X204.9189 Y26.7723 I0.1 J-0.0002
G2 X205.0689 Y26.6857 I0.05 J-0.0866
G2 X204.9189 Y26.5991 I-0.1 J0.0
G2 X204.8689 Y26.6859 I0.05 J0.0866
G1 F300.0 Z-2.0
G2 F800.0 X204.9189 Y26.7723 I0.1 J-0.0002
G2 X205.0689 Y26.6857 I0.05 J-0.0866
G2 X204.9189 Y26.5991 I-0.1 J0.0
G2 X204.8689 Y26.6859 I0.05 J0.0866
G1 F300.0 Z-2.2
G2 F800.0 X204.9189 Y26.7723 I0.1 J-0.0002
G2 X205.0689 Y26.6857 I0.05 J-0.0866
G2 X204.9189 Y26.5991 I-0.1 J0.0
G2 X204.8689 Y26.6859 I0.05 J0.0866
G0 Z3.0
G0 X217.4342 Y29.9109
G0 Z1.0
G1 F300.0 Z-1.0
G2 F800.0 X217.4811 Y30.0223 I0.0969 J0.0249
G2 X217.6311 Y29.9357 I0.05 J-0.0866
G2 X217.4811 Y29.8491 I-0.1 J0.0
G2 X217.4342 Y29.9109 I0.05 J0.0866
G1 F300.0 Z-2.0
G2 F800.0 X217.4811 Y30.0223 I0.0969 J0.0249
G2 X217.6311 Y29.9357 I0.05 J-0.0866
G2 X217.4811 Y29.8491 I-0.1 J0.0
G2 X217.4342 Y29.9109 I0.05 J0.0866
G1 F300.0 Z-2.2
G2 F800.0 X217.4811 Y30.0223 I0.0969 J0.0249
G2 X217.6311 Y29.9357 I0.05 J-0.0866
G2 X217.4811 Y29.8491 I-0.1 J0.0
G2 X217.4342 Y29.9109 I0.05 J0.0866
G0 Z3.0
G0 X234.3689 Y29.9356
G0 Z1.0
G1 F300.0 Z-1.0
G2 F800.0 X234.4189 Y30.0223 I0.1 J0.0001
G2 X234.5689 Y29.9357 I0.05 J-0.0866
G2 X234.4189 Y29.8491 I-0.1 J0.0
G2 X234.3689 Y29.9356 I0.05 J0.0866
G1 F300.0 Z-2.0
G2 F800.0 X234.4189 Y30.0223 I0.1 J0.0001
G2 X234.5689 Y29.9357 I0.05 J-0.0866
G2 X234.4189 Y29.8491 I-0.1 J0.0
G2 X234.3689 Y29.9356 I0.05 J0.0866
G1 F300.0 Z-2.2
G2 F800.0 X234.4189 Y30.0223 I0.1 J0.0001
G2 X234.5689 Y29.9357 I0.05 J-0.0866
G2 X234.4189 Y29.8491 I-0.1 J0.0
G2 X234.3689 Y29.9356 I0.05 J0.0866
G0 Z3.0
G0 X246.9342 Y26.7106
G0 Z1.0
G1 F300.0 Z-1.0
G2 F800.0 X246.9811 Y26.7723 I0.0969 J-0.0249
G2 X247.1311 Y26.6857 I0.05 J-0.0866
G2 X246.9811 Y26.5991 I-0.1 J0.0
G2 X246.9342 Y26.7106 I0.05 J0.0866
G1 F300.0 Z-2.0
G2 F800.0 X246.9811 Y26.7723 I0.0969 J-0.0249
G2 X247.1311 Y26.6857 I0.05 J-0.0866
G2 X246.9811 Y26.5991 I-0.1 J0.0
G2 X246.9342 Y26.7106 I0.05 J0.0866
G1 F300.0 Z-2.2
G2 F800.0 X246.9811 Y26.7723 I0.0969 J-0.0249
G2 X247.1311 Y26.6857 I0.05 J-0.0866
G2 X246.9811 Y26.5991 I-0.1 J0.0
G2 X246.9342 Y26.7106 I0.05 J0.0866
G0 Z3.0
G0 X263.8689 Y26.6859
G0 Z1.0
G1 F300.0 Z-1.0
G2 F800.0 X263.9189 Y26.7723 I0.1 J-0.0001
G2 X264.0689 Y26.6857 I0.05 J-0.0866
G2 X263.9189 Y26.5991 I-0.1 J0.0
G2 X263.8689 Y26.6859 I0.05 J0.0866
G1 F300.0 Z-2.0
G2 F800.0 X263.9189 Y26.7723 I0.1 J-0.0001
G2 X264.0689 Y26.6857 I0.05 J-0.0866
G2 X263.9189 Y26.5991 I-0.1 J0.0
G2 X263.8689 Y26.6859 I0.05 J0.0866
G1 F300.0 Z-2.2
G2 F800.0 X263.9189 Y26.7723 I0.1 J-0.0001
G2 X264.0689 Y26.6857 I0.05 J-0.0866
G2 X263.9189 Y26.5991 I-0.1 J0.0
G2 X263.8689 Y26.6859 I0.05 J0.0866
G0 Z3.0
G0 X276.4342 Y29.9109
G0 Z1.0
G1 F300.0 Z-1.0
G2 F800.0 X276.4811 Y30.0223 I0.0969 J0.0249
G2 X276.6311 Y29.9357 I0.05 J-0.0866
G2 X276.4811 Y29.8491 I-0.1 J0.0
G2 X276.4342 Y29.9109 I0.05 J0.0866
G1 F300.0 Z-2.0
G2 F800.0 X276.4811 Y30.0223 I0.0969 J0.0249
G2 X276.6311 Y29.9357 I0.05 J-0.0866
G2 X276.4811 Y29.8491 I-0.1 J0.0
G2 X276.4342 Y29.9109 I0.05 J0.0866
G1 F300.0 Z-2.2
G2 F800.0 X276.4811 Y30.0223 I0.0969 J0.0249
G2 X276.6311 Y29.9357 I0.05 J-0.0866
G2 X276.4811 Y29.8491 I-0.1 J0.0
G2 X276.4342 Y29.9109 I0.05 J0.0866
G0 Z3.0
G0 X293.3689 Y29.9356
G0 Z1.0
G1 F300.0 Z-1.0
G2 F800.0 X293.4189 Y30.0223 I0.1 J0.0001
G2 X293.5689 Y29.9357 I0.05 J-0.0866
G2 X293.4189 Y29.8491 I-0.1 J0.0
G2 X293.3689 Y29.9356 I0.05 J0.0866
G1 F300.0 Z-2.0
G2 F800.0 X293.4189 Y30.0223 I0.1 J0.0001
G2 X293.5689 Y29.9357 I0.05 J-0.0866
G2 X293.4189 Y29.8491 I-0.1 J0.0
G2 X293.3689 Y29.9356 I0.05 J0.0866
G1 F300.0 Z-2.2
G2 F800.0 X293.4189 Y30.0223 I0.1 J0.0001
G2 X293.5689 Y29.9357 I0.05 J-0.0866
G2 X293.4189 Y29.8491 I-0.1 J0.0
G2 X293.3689 Y29.9356 I0.05 J0.0866
G0 Z3.0
G0 X285.0333 Y53.5272
G0 Z1.0
G1 F300.0 Z-1.0
G2 F800.0 X284.95 Y53.5349 I-0.0333 J0.0943
G2 Y53.7081 I0.05 J0.0866
G2 X285.1 Y53.6215 I0.05 J-0.0866
G2 X285.0333 Y53.5272 I-0.1 J0.0
G1 F300.0 Z-2.0
G2 F800.0 X284.95 Y53.5349 I-0.0333 J0.0943
G2 Y53.7081 I0.05 J0.0866
G2 X285.1 Y53.6215 I0.05 J-0.0866
G2 X285.0333 Y53.5272 I-0.1 J0.0
G1 F300.0 Z-2.2
G2 F800.0 X284.95 Y53.5349 I-0.0333 J0.0943
G2 Y53.7081 I0.05 J0.0866
G2 X285.1 Y53.6215 I0.05 J-0.0866
G2 X285.0333 Y53.5272 I-0.1 J0.0
G0 Z3.0
G0 X255.5932 Y64.9638
G0 Z1.0
G1 F300.0 Z-1.0
G2 F800.0 X255.45 Y64.9134 I-0.0932 J0.0362
G2 Y65.0866 I0.05 J0.0866
G2 X255.6 Y65.0 I0.05 J-0.0866
G2 X255.5932 Y64.9638 I-0.1 J0.0
G1 F300.0 Z-2.0
G2 F800.0 X255.45 Y64.9134 I-0.0932 J0.0362
G2 Y65.0866 I0.05 J0.0866
G2 X255.6 Y65.0 I0.05 J-0.0866
G2 X255.5932 Y64.9638 I-0.1 J0.0
G1 F300.0 Z-2.2
G2 F800.0 X255.45 Y64.9134 I-0.0932 J0.0362
G2 Y65.0866 I0.05 J0.0866
G2 X255.6 Y65.0 I0.05 J-0.0866
G2 X255.5932 Y64.9638 I-0.1 J0.0
G0 Z3.0
G0 X263.9356 Y88.5914
G0 Z1.0
G1 F300.0 Z-1.0
G2 F800.0 X263.9189 Y88.5991 I0.0333 J0.0943
G2 Y88.7723 I0.05 J0.0866
G2 X264.0689 Y88.6857 I0.05 J-0.0866
G2 X263.9356 Y88.5914 I-0.1 J0.0
G1 F300.0 Z-2.0
G2 F800.0 X263.9189 Y88.5991 I0.0333 J0.0943
G2 Y88.7723 I0.05 J0.0866
G2 X264.0689 Y88.6857 I0.05 J-0.0866
G2 X263.9356 Y88.5914 I-0.1 J0.0
G1 F300.0 Z-2.2
G2 F800.0 X263.9189 Y88.5991 I0.0333 J0.0943
G2 Y88.7723 I0.05 J0.0866
G2 X264.0689 Y88.6857 I0.05 J-0.0866
G2 X263.9356 Y88.5914 I-0.1 J0.0
G0 Z3.0
G0 X276.4344 Y91.9101
G0 Z1.0
G1 F300.0 Z-1.0
G2 F800.0 X276.4811 Y92.0223 I0.0967 J0.0257
G2 X276.6311 Y91.9357 I0.05 J-0.0866
G2 X276.4811 Y91.8491 I-0.1 J0.0
G2 X276.4344 Y91.9101 I0.05 J0.0866
G1 F300.0 Z-2.0
G2 F800.0 X276.4811 Y92.0223 I0.0967 J0.0257
G2 X276.6311 Y91.9357 I0.05 J-0.0866
G2 X276.4811 Y91.8491 I-0.1 J0.0
G2 X276.4344 Y91.9101 I0.05 J0.0866
G1 F300.0 Z-2.2
G2 F800.0 X276.4811 Y92.0223 I0.0967 J0.0257
G2 X276.6311 Y91.9357 I0.05 J-0.0866
G2 X276.4811 Y91.8491 I-0.1 J0.0
G2 X276.4344 Y91.9101 I0.05 J0.0866
G0 Z3.0
G0 X293.3689 Y91.9356
G0 Z1.0
G1 F300.0 Z-1.0
G2 F800.0 X293.4189 Y92.0223 I0.1 J0.0002
G2 X293.5689 Y91.9357 I0.05 J-0.0866
G2 X293.4189 Y91.8491 I-0.1 J0.0
G2 X293.3689 Y91.9356 I0.05 J0.0866
G1 F300.0 Z-2.0
G2 F800.0 X293.4189 Y92.0223 I0.1 J0.0002
G2 X293.5689 Y91.9357 I0.05 J-0.0866
G2 X293.4189 Y91.8491 I-0.1 J0.0
G2 X293.3689 Y91.9356 I0.05 J0.0866
G1 F300.0 Z-2.2
G2 F800.0 X293.4189 Y92.0223 I0.1 J0.0002
G2 X293.5689 Y91.9357 I0.05 J-0.0866
G2 X293.4189 Y91.8491 I-0.1 J0.0
G2 X293.3689 Y91.9356 I0.05 J0.0866
G0 Z3.0
G0 X285.0333 Y115.5272
G0 Z1.0
G1 F300.0 Z-1.0
G2 F800.0 X284.95 Y115.5349 I-0.0333 J0.0943
G2 Y115.7081 I0.05 J0.0866
G2 X285.1 Y115.6215 I0.05 J-0.0866
G2 X285.0333 Y115.5272 I-0.1 J0.0
G1 F300.0 Z-2.0
G2 F800.0 X284.95 Y115.5349 I-0.0333 J0.0943
G2 Y115.7081 I0.05 J0.0866
G2 X285.1 Y115.6215 I0.05 J-0.0866
G2 X285.0333 Y115.5272 I-0.1 J0.0
G1 F300.0 Z-2.2
G2 F800.0 X284.95 Y115.5349 I-0.0333 J0.0943
G2 Y115.7081 I0.05 J0.0866
G2 X285.1 Y115.6215 I0.05 J-0.0866
G2 X285.0333 Y115.5272 I-0.1 J0.0
G0 Z3.0
G0 X255.5931 Y127.0281
G0 Z1.0
G1 F300.0 Z-1.0
G2 F800.0 X255.45 Y126.9779 I-0.0931 J0.0364
G2 Y127.1511 I0.05 J0.0866
G2 X255.6 Y127.0645 I0.05 J-0.0866
G2 X255.5931 Y127.0281 I-0.1 J0.0
G1 F300.0 Z-2.0
G2 F800.0 X255.45 Y126.9779 I-0.0931 J0.0364
G2 Y127.1511 I0.05 J0.0866
G2 X255.6 Y127.0645 I0.05 J-0.0866
G2 X255.5931 Y127.0281 I-0.1 J0.0
G1 F300.0 Z-2.2
G2 F800.0 X255.45 Y126.9779 I-0.0931 J0.0364
G2 Y127.1511 I0.05 J0.0866
G2 X255.6 Y127.0645 I0.05 J-0.0866
G2 X255.5931 Y127.0281 I-0.1 J0.0
G0 Z3.0
G0 X263.9356 Y150.6559
G0 Z1.0
G1 F300.0 Z-1.0
G2 F800.0 X263.9189 Y150.6636 I0.0333 J0.0943
G2 Y150.8368 I0.05 J0.0866
G2 X264.0689 Y150.7502 I0.05 J-0.0866
G2 X263.9356 Y150.6559 I-0.1 J0.0
G1 F300.0 Z-2.0
G2 F800.0 X263.9189 Y150.6636 I0.0333 J0.0943
G2 Y150.8368 I0.05 J0.0866
G2 X264.0689 Y150.7502 I0.05 J-0.0866
G2 X263.9356 Y150.6559 I-0.1 J0.0
G1 F300.0 Z-2.2
G2 F800.0 X263.9189 Y150.6636 I0.0333 J0.0943
G2 Y150.8368 I0.05 J0.0866
G2 X264.0689 Y150.7502 I0.05 J-0.0866
G2 X263.9356 Y150.6559 I-0.1 J0.0
G0 Z3.0
G0 X276.4344 Y153.9746
G0 Z1.0
G1 F300.0 Z-1.0
G2 F800.0 X276.4811 Y154.0868 I0.0967 J0.0257
G2 X276.6311 Y154.0002 I0.05 J-0.0866
G2 X276.4811 Y153.9136 I-0.1 J0.0
G2 X276.4344 Y153.9746 I0.05 J0.0866
G1 F300.0 Z-2.0
G2 F800.0 X276.4811 Y154.0868 I0.0967 J0.0257
G2 X276.6311 Y154.0002 I0.05 J-0.0866
G2 X276.4811 Y153.9136 I-0.1 J0.0
G2 X276.4344 Y153.9746 I0.05 J0.0866
G1 F300.0 Z-2.2
G2 F800.0 X276.4811 Y154.0868 I0.0967 J0.0257
G2 X276.6311 Y154.0002 I0.05 J-0.0866
G2 X276.4811 Y153.9136 I-0.1 J0.0
G2 X276.4344 Y153.9746 I0.05 J0.0866
G0 Z3.0
G0 X293.3689 Y154.0001
G0 Z1.0
G1 F300.0 Z-1.0
G2 F800.0 X293.4189 Y154.0868 I0.1 J0.0002
G2 X293.5689 Y154.0002 I0.05 J-0.0866
G2 X293.4189 Y153.9136 I-0.1 J0.0
G2 X293.3689 Y154.0001 I0.05 J0.0866
G1 F300.0 Z-2.0
G2 F800.0 X293.4189 Y154.0868 I0.1 J0.0002
G2 X293.5689 Y154.0002 I0.05 J-0.0866
G2 X293.4189 Y153.9136 I-0.1 J0.0
G2 X293.3689 Y154.0001 I0.05 J0.0866
G1 F300.0 Z-2.2
G2 F800.0 X293.4189 Y154.0868 I0.1 J0.0002
G2 X293.5689 Y154.0002 I0.05 J-0.0866
G2 X293.4189 Y153.9136 I-0.1 J0.0
G2 X293.3689 Y154.0001 I0.05 J0.0866
G0 Z3.0
G0 X285.0333 Y177.5917
G0 Z1.0
G1 F300.0 Z-1.0
G2 F800.0 X284.95 Y177.5994 I-0.0333 J0.0943
G2 Y177.7726 I0.05 J0.0866
G2 X285.1 Y177.686 I0.05 J-0.0866
G2 X285.0333 Y177.5917 I-0.1 J0.0
G1 F300.0 Z-2.0
G2 F800.0 X284.95 Y177.5994 I-0.0333 J0.0943
G2 Y177.7726 I0.05 J0.0866
G2 X285.1 Y177.686 I0.05 J-0.0866
G2 X285.0333 Y177.5917 I-0.1 J0.0
G1 F300.0 Z-2.2
G2 F800.0 X284.95 Y177.5994 I-0.0333 J0.0943
G2 Y177.7726 I0.05 J0.0866
G2 X285.1 Y177.686 I0.05 J-0.0866
G2 X285.0333 Y177.5917 I-0.1 J0.0
G0 Z3.0
G0 X255.5932 Y189.0283
G0 Z1.0
G1 F300.0 Z-1.0
G2 F800.0 X255.45 Y188.9779 I-0.0932 J0.0362
G2 Y189.1511 I0.05 J0.0866
G2 X255.6 Y189.0645 I0.05 J-0.0866
G2 X255.5932 Y189.0283 I-0.1 J0.0
G1 F300.0 Z-2.0
G2 F800.0 X255.45 Y188.9779 I-0.0932 J0.0362
G2 Y189.1511 I0.05 J0.0866
G2 X255.6 Y189.0645 I0.05 J-0.0866
G2 X255.5932 Y189.0283 I-0.1 J0.0
G1 F300.0 Z-2.2
G2 F800.0 X255.45 Y188.9779 I-0.0932 J0.0362
G2 Y189.1511 I0.05 J0.0866
G2 X255.6 Y189.0645 I0.05 J-0.0866
G2 X255.5932 Y189.0283 I-0.1 J0.0
G0 Z3.0
G0 X263.9356 Y212.6559
G0 Z1.0
G1 F300.0 Z-1.0
G2 F800.0 X263.9189 Y212.6636 I0.0333 J0.0943
G2 Y212.8368 I0.05 J0.0866
G2 X264.0689 Y212.7502 I0.05 J-0.0866
G2 X263.9356 Y212.6559 I-0.1 J0.0
G1 F300.0 Z-2.0
G2 F800.0 X263.9189 Y212.6636 I0.0333 J0.0943
G2 Y212.8368 I0.05 J0.0866
G2 X264.0689 Y212.7502 I0.05 J-0.0866
G2 X263.9356 Y212.6559 I-0.1 J0.0
G1 F300.0 Z-2.2
G2 F800.0 X263.9189 Y212.6636 I0.0333 J0.0943
G2 Y212.8368 I0.05 J0.0866
G2 X264.0689 Y212.7502 I0.05 J-0.0866
G2 X263.9356 Y212.6559 I-0.1 J0.0
G0 Z3.0
G0 X276.4344 Y215.9746
G0 Z1.0
G1 F300.0 Z-1.0
G2 F800.0 X276.4811 Y216.0868 I0.0967 J0.0257
G2 X276.6311 Y216.0002 I0.05 J-0.0866
G2 X276.4811 Y215.9136 I-0.1 J0.0
G2 X276.4344 Y215.9746 I0.05 J0.0866
G1 F300.0 Z-2.0
G2 F800.0 X276.4811 Y216.0868 I0.0967 J0.0257
G2 X276.6311 Y216.0002 I0.05 J-0.0866
G2 X276.4811 Y215.9136 I-0.1 J0.0
G2 X276.4344 Y215.9746 I0.05 J0.0866
G1 F300.0 Z-2.2
G2 F800.0 X276.4811 Y216.0868 I0.0967 J0.0257
G2 X276.6311 Y216.0002 I0.05 J-0.0866
G2 X276.4811 Y215.9136 I-0.1 J0.0
G2 X276.4344 Y215.9746 I0.05 J0.0866
G0 Z3.0
G0 X293.3689 Y216.0001
G0 Z1.0
G1 F300.0 Z-1.0
G2 F800.0 X293.4189 Y216.0868 I0.1 J0.0002
G2 X293.5689 Y216.0002 I0.05 J-0.0866
G2 X293.4189 Y215.9136 I-0.1 J0.0
G2 X293.3689 Y216.0001 I0.05 J0.0866
G1 F300.0 Z-2.0
G2 F800.0 X293.4189 Y216.0868 I0.1 J0.0002
G2 X293.5689 Y216.0002 I0.05 J-0.0866
G2 X293.4189 Y215.9136 I-0.1 J0.0
G2 X293.3689 Y216.0001 I0.05 J0.0866
G1 F300.0 Z-2.2
G2 F800.0 X293.4189 Y216.0868 I0.1 J0.0002
G2 X293.5689 Y216.0002 I0.05 J-0.0866
G2 X293.4189 Y215.9136 I-0.1 J0.0
G2 X293.3689 Y216.0001 I0.05 J0.0866
G0 Z3.0
G0 X285.0333 Y239.5917
G0 Z1.0
G1 F300.0 Z-1.0
G2 F800.0 X284.95 Y239.5994 I-0.0333 J0.0943
G2 Y239.7726 I0.05 J0.0866
G2 X285.1 Y239.686 I0.05 J-0.0866
G2 X285.0333 Y239.5917 I-0.1 J0.0
G1 F300.0 Z-2.0
G2 F800.0 X284.95 Y239.5994 I-0.0333 J0.0943
G2 Y239.7726 I0.05 J0.0866
G2 X285.1 Y239.686 I0.05 J-0.0866
G2 X285.0333 Y239.5917 I-0.1 J0.0
G1 F300.0 Z-2.2
G2 F800.0 X284.95 Y239.5994 I-0.0333 J0.0943
G2 Y239.7726 I0.05 J0.0866
G2 X285.1 Y239.686 I0.05 J-0.0866
G2 X285.0333 Y239.5917 I-0.1 J0.0
G0 Z3.0
G0 X255.5927 Y251.4782
G0 Z1.0
G1 F300.0 Z-1.0
G2 F800.0 X255.45 Y251.429 I-0.0927 J0.0374
G2 Y251.6022 I0.05 J0.0866
G2 X255.6 Y251.5156 I0.05 J-0.0866
G2 X255.5927 Y251.4782 I-0.1 J0.0
G1 F300.0 Z-2.0
G2 F800.0 X255.45 Y251.429 I-0.0927 J0.0374
G2 Y251.6022 I0.05 J0.0866
G2 X255.6 Y251.5156 I0.05 J-0.0866
G2 X255.5927 Y251.4782 I-0.1 J0.0
G1 F300.0 Z-2.2
G2 F800.0 X255.45 Y251.429 I-0.0927 J0.0374
G2 Y251.6022 I0.05 J0.0866
G2 X255.6 Y251.5156 I0.05 J-0.0866
G2 X255.5927 Y251.4782 I-0.1 J0.0
G0 Z3.0
G0 X263.9356 Y275.107
G0 Z1.0
G1 F300.0 Z-1.0
G2 F800.0 X263.9189 Y275.1147 I0.0333 J0.0943
G2 Y275.2879 I0.05 J0.0866
G2 X264.0689 Y275.2013 I0.05 J-0.0866
G2 X263.9356 Y275.107 I-0.1 J0.0
G1 F300.0 Z-2.0
G2 F800.0 X263.9189 Y275.1147 I0.0333 J0.0943
G2 Y275.2879 I0.05 J0.0866
G2 X264.0689 Y275.2013 I0.05 J-0.0866
G2 X263.9356 Y275.107 I-0.1 J0.0
G1 F300.0 Z-2.2
G2 F800.0 X263.9189 Y275.1147 I0.0333 J0.0943
G2 Y275.2879 I0.05 J0.0866
G2 X264.0689 Y275.2013 I0.05 J-0.0866
G2 X263.9356 Y275.107 I-0.1 J0.0
G0 Z3.0
G0 X276.4344 Y278.4257
G0 Z1.0
G1 F300.0 Z-1.0
G2 F800.0 X276.4811 Y278.5379 I0.0967 J0.0257
G2 X276.6311 Y278.4513 I0.05 J-0.0866
G2 X276.4811 Y278.3647 I-0.1 J0.0
G2 X276.4344 Y278.4257 I0.05 J0.0866
G1 F300.0 Z-2.0
G2 F800.0 X276.4811 Y278.5379 I0.0967 J0.0257
G2 X276.6311 Y278.4513 I0.05 J-0.0866
G2 X276.4811 Y278.3647 I-0.1 J0.0
G2 X276.4344 Y278.4257 I0.05 J0.0866
G1 F300.0 Z-2.2
G2 F800.0 X276.4811 Y278.5379 I0.0967 J0.0257
G2 X276.6311 Y278.4513 I0.05 J-0.0866
G2 X276.4811 Y278.3647 I-0.1 J0.0
G2 X276.4344 Y278.4257 I0.05 J0.0866
G0 Z3.0
G0 X293.3689 Y278.4512
G0 Z1.0
G1 F300.0 Z-1.0
G2 F800.0 X293.4189 Y278.5379 I0.1 J0.0002
G2 X293.5689 Y278.4513 I0.05 J-0.0866
G2 X293.4189 Y278.3647 I-0.1 J0.0
G2 X293.3689 Y278.4512 I0.05 J0.0866
G1 F300.0 Z-2.0
G2 F800.0 X293.4189 Y278.5379 I0.1 J0.0002
G2 X293.5689 Y278.4513 I0.05 J-0.0866
G2 X293.4189 Y278.3647 I-0.1 J0.0
G2 X293.3689 Y278.4512 I0.05 J0.0866
G1 F300.0 Z-2.2
G2 F800.0 X293.4189 Y278.5379 I0.1 J0.0002
G2 X293.5689 Y278.4513 I0.05 J-0.0866
G2 X293.4189 Y278.3647 I-0.1 J0.0
G2 X293.3689 Y278.4512 I0.05 J0.0866
G0 Z3.0
G0 X285.0333 Y302.0428
G0 Z1.0
G1 F300.0 Z-1.0
G2 F800.0 X284.95 Y302.0505 I-0.0333 J0.0943
G2 Y302.2237 I0.05 J0.0866
G2 X285.1 Y302.1371 I0.05 J-0.0866
G2 X285.0333 Y302.0428 I-0.1 J0.0
G1 F300.0 Z-2.0
G2 F800.0 X284.95 Y302.0505 I-0.0333 J0.0943
G2 Y302.2237 I0.05 J0.0866
G2 X285.1 Y302.1371 I0.05 J-0.0866
G2 X285.0333 Y302.0428 I-0.1 J0.0
G1 F300.0 Z-2.2
G2 F800.0 X284.95 Y302.0505 I-0.0333 J0.0943
G2 Y302.2237 I0.05 J0.0866
G2 X285.1 Y302.1371 I0.05 J-0.0866
G2 X285.0333 Y302.0428 I-0.1 J0.0
G0 Z3.0
G0 X255.5932 Y313.4794
G0 Z1.0
G1 F300.0 Z-1.0
G2 F800.0 X255.45 Y313.429 I-0.0932 J0.0362
G2 Y313.6022 I0.05 J0.0866
G2 X255.6 Y313.5156 I0.05 J-0.0866
G2 X255.5932 Y313.4794 I-0.1 J0.0
G1 F300.0 Z-2.0
G2 F800.0 X255.45 Y313.429 I-0.0932 J0.0362
G2 Y313.6022 I0.05 J0.0866
G2 X255.6 Y313.5156 I0.05 J-0.0866
G2 X255.5932 Y313.4794 I-0.1 J0.0
G1 F300.0 Z-2.2
G2 F800.0 X255.45 Y313.429 I-0.0932 J0.0362
G2 Y313.6022 I0.05 J0.0866
G2 X255.6 Y313.5156 I0.05 J-0.0866
G2 X255.5932 Y313.4794 I-0.1 J0.0
G0 Z3.0
G0 X263.9356 Y337.107
G0 Z1.0
G1 F300.0 Z-1.0
G2 F800.0 X263.9189 Y337.1147 I0.0333 J0.0943
G2 Y337.2879 I0.05 J0.0866
G2 X264.0689 Y337.2013 I0.05 J-0.0866
G2 X263.9356 Y337.107 I-0.1 J0.0
G1 F300.0 Z-2.0
G2 F800.0 X263.9189 Y337.1147 I0.0333 J0.0943
G2 Y337.2879 I0.05 J0.0866
G2 X264.0689 Y337.2013 I0.05 J-0.0866
G2 X263.9356 Y337.107 I-0.1 J0.0
G1 F300.0 Z-2.2
G2 F800.0 X263.9189 Y337.1147 I0.0333 J0.0943
G2 Y337.2879 I0.05 J0.0866
G2 X264.0689 Y337.2013 I0.05 J-0.0866
G2 X263.9356 Y337.107 I-0.1 J0.0
G0 Z3.0
G0 X276.4344 Y340.4257
G0 Z1.0
G1 F300.0 Z-1.0
G2 F800.0 X276.4811 Y340.5379 I0.0967 J0.0257
G2 X276.6311 Y340.4513 I0.05 J-0.0866
G2 X276.4811 Y340.3647 I-0.1 J0.0
G2 X276.4344 Y340.4257 I0.05 J0.0866
G1 F300.0 Z-2.0
G2 F800.0 X276.4811 Y340.5379 I0.0967 J0.0257
G2 X276.6311 Y340.4513 I0.05 J-0.0866
G2 X276.4811 Y340.3647 I-0.1 J0.0
G2 X276.4344 Y340.4257 I0.05 J0.0866
G1 F300.0 Z-2.2
G2 F800.0 X276.4811 Y340.5379 I0.0967 J0.0257
G2 X276.6311 Y340.4513 I0.05 J-0.0866
G2 X276.4811 Y340.3647 I-0.1 J0.0
G2 X276.4344 Y340.4257 I0.05 J0.0866
G0 Z3.0
G0 X293.3689 Y340.4512
G0 Z1.0
G1 F300.0 Z-1.0
G2 F800.0 X293.4189 Y340.5379 I0.1 J0.0002
G2 X293.5689 Y340.4513 I0.05 J-0.0866
G2 X293.4189 Y340.3647 I-0.1 J0.0
G2 X293.3689 Y340.4512 I0.05 J0.0866
G1 F300.0 Z-2.0
G2 F800.0 X293.4189 Y340.5379 I0.1 J0.0002
G2 X293.5689 Y340.4513 I0.05 J-0.0866
G2 X293.4189 Y340.3647 I-0.1 J0.0
G2 X293.3689 Y340.4512 I0.05 J0.0866
G1 F300.0 Z-2.2
G2 F800.0 X293.4189 Y340.5379 I0.1 J0.0002
G2 X293.5689 Y340.4513 I0.05 J-0.0866
G2 X293.4189 Y340.3647 I-0.1 J0.0
G2 X293.3689 Y340.4512 I0.05 J0.0866
G0 Z3.0
G0 X285.0333 Y364.0428
G0 Z1.0
G1 F300.0 Z-1.0
G2 F800.0 X284.95 Y364.0505 I-0.0333 J0.0943
G2 Y364.2237 I0.05 J0.0866
G2 X285.1 Y364.1371 I0.05 J-0.0866
G2 X285.0333 Y364.0428 I-0.1 J0.0
G1 F300.0 Z-2.0
G2 F800.0 X284.95 Y364.0505 I-0.0333 J0.0943
G2 Y364.2237 I0.05 J0.0866
G2 X285.1 Y364.1371 I0.05 J-0.0866
G2 X285.0333 Y364.0428 I-0.1 J0.0
G1 F300.0 Z-2.2
G2 F800.0 X284.95 Y364.0505 I-0.0333 J0.0943
G2 Y364.2237 I0.05 J0.0866
G2 X285.1 Y364.1371 I0.05 J-0.0866
G2 X285.0333 Y364.0428 I-0.1 J0.0
G0 Z3.0
G0 X255.5912 Y377.3223
G0 Z1.0
G1 F300.0 Z-1.0
G2 F800.0 X255.45 Y377.2769 I-0.0912 J0.0411
G2 Y377.4501 I0.05 J0.0866
G2 X255.6 Y377.3635 I0.05 J-0.0866
G2 X255.5912 Y377.3223 I-0.1 J0.0
G1 F300.0 Z-2.0
G2 F800.0 X255.45 Y377.2769 I-0.0912 J0.0411
G2 Y377.4501 I0.05 J0.0866
G2 X255.6 Y377.3635 I0.05 J-0.0866
G2 X255.5912 Y377.3223 I-0.1 J0.0
G1 F300.0 Z-2.2
G2 F800.0 X255.45 Y377.2769 I-0.0912 J0.0411
G2 Y377.4501 I0.05 J0.0866
G2 X255.6 Y377.3635 I0.05 J-0.0866
G2 X255.5912 Y377.3223 I-0.1 J0.0
G0 Z3.0
G0 X263.9356 Y400.9549
G0 Z1.0
G1 F300.0 Z-1.0
G2 F800.0 X263.9189 Y400.9626 I0.0333 J0.0943
G2 Y401.1358 I0.05 J0.0866
G2 X264.0689 Y401.0492 I0.05 J-0.0866
G2 X263.9356 Y400.9549 I-0.1 J0.0
G1 F300.0 Z-2.0
G2 F800.0 X263.9189 Y400.9626 I0.0333 J0.0943
G2 Y401.1358 I0.05 J0.0866
G2 X264.0689 Y401.0492 I0.05 J-0.0866
G2 X263.9356 Y400.9549 I-0.1 J0.0
G1 F300.0 Z-2.2
G2 F800.0 X263.9189 Y400.9626 I0.0333 J0.0943
G2 Y401.1358 I0.05 J0.0866
G2 X264.0689 Y401.0492 I0.05 J-0.0866
G2 X263.9356 Y400.9549 I-0.1 J0.0
G0 Z3.0
G0 X276.4344 Y404.2735
G0 Z1.0
G1 F300.0 Z-1.0
G2 F800.0 X276.4811 Y404.3858 I0.0967 J0.0257
G2 X276.6311 Y404.2992 I0.05 J-0.0866
G2 X276.4811 Y404.2126 I-0.1 J0.0
G2 X276.4344 Y404.2735 I0.05 J0.0866
G1 F300.0 Z-2.0
G2 F800.0 X276.4811 Y404.3858 I0.0967 J0.0257
G2 X276.6311 Y404.2992 I0.05 J-0.0866
G2 X276.4811 Y404.2126 I-0.1 J0.0
G2 X276.4344 Y404.2735 I0.05 J0.0866
G1 F300.0 Z-2.2
G2 F800.0 X276.4811 Y404.3858 I0.0967 J0.0257
G2 X276.6311 Y404.2992 I0.05 J-0.0866
G2 X276.4811 Y404.2126 I-0.1 J0.0
G2 X276.4344 Y404.2735 I0.05 J0.0866
G0 Z3.0
G0 X293.3689 Y404.2991
G0 Z1.0
G1 F300.0 Z-1.0
G2 F800.0 X293.4189 Y404.3858 I0.1 J0.0002
G2 X293.5689 Y404.2992 I0.05 J-0.0866
G2 X293.4189 Y404.2126 I-0.1 J0.0
G2 X293.3689 Y404.2991 I0.05 J0.0866
G1 F300.0 Z-2.0
G2 F800.0 X293.4189 Y404.3858 I0.1 J0.0002
G2 X293.5689 Y404.2992 I0.05 J-0.0866
G2 X293.4189 Y404.2126 I-0.1 J0.0
G2 X293.3689 Y404.2991 I0.05 J0.0866
G1 F300.0 Z-2.2
G2 F800.0 X293.4189 Y404.3858 I0.1 J0.0002
G2 X293.5689 Y404.2992 I0.05 J-0.0866
G2 X293.4189 Y404.2126 I-0.1 J0.0
G2 X293.3689 Y404.2991 I0.05 J0.0866
G0 Z3.0
G0 X285.0333 Y427.8907
G0 Z1.0
G1 F300.0 Z-1.0
G2 F800.0 X284.95 Y427.8983 I-0.0333 J0.0943
G2 Y428.0716 I0.05 J0.0866
G2 X285.1 Y427.9849 I0.05 J-0.0866
G2 X285.0333 Y427.8907 I-0.1 J0.0
G1 F300.0 Z-2.0
G2 F800.0 X284.95 Y427.8983 I-0.0333 J0.0943
G2 Y428.0716 I0.05 J0.0866
G2 X285.1 Y427.9849 I0.05 J-0.0866
G2 X285.0333 Y427.8907 I-0.1 J0.0
G1 F300.0 Z-2.2
G2 F800.0 X284.95 Y427.8983 I-0.0333 J0.0943
G2 Y428.0716 I0.05 J0.0866
G2 X285.1 Y427.9849 I0.05 J-0.0866
G2 X285.0333 Y427.8907 I-0.1 J0.0
G0 Z3.0
G0 X247.1128 Y401.1069
G0 Z1.0
G1 F300.0 Z-1.0
G2 F800.0 X247.1311 Y401.0492 I-0.0817 J-0.0577
G2 X246.9811 Y400.9626 I-0.1 J0.0
G2 Y401.1358 I0.05 J0.0866
G2 X247.1128 Y401.1069 I0.05 J-0.0866
G1 F300.0 Z-2.0
G2 F800.0 X247.1311 Y401.0492 I-0.0817 J-0.0577
G2 X246.9811 Y400.9626 I-0.1 J0.0
G2 Y401.1358 I0.05 J0.0866
G2 X247.1128 Y401.1069 I0.05 J-0.0866
G1 F300.0 Z-2.2
G2 F800.0 X247.1311 Y401.0492 I-0.0817 J-0.0577
G2 X246.9811 Y400.9626 I-0.1 J0.0
G2 Y401.1358 I0.05 J0.0866
G2 X247.1128 Y401.1069 I0.05 J-0.0866
G0 Z3.0
G0 X234.5659 Y404.2747
G0 Z1.0
G1 F300.0 Z-1.0
G2 F800.0 X234.4189 Y404.2126 I-0.097 J0.0245
G2 Y404.3858 I0.05 J0.0866
G2 X234.5689 Y404.2992 I0.05 J-0.0866
G2 X234.5659 Y404.2747 I-0.1 J0.0
G1 F300.0 Z-2.0
G2 F800.0 X234.4189 Y404.2126 I-0.097 J0.0245
G2 Y404.3858 I0.05 J0.0866
G2 X234.5689 Y404.2992 I0.05 J-0.0866
G2 X234.5659 Y404.2747 I-0.1 J0.0
G1 F300.0 Z-2.2
G2 F800.0 X234.4189 Y404.2126 I-0.097 J0.0245
G2 Y404.3858 I0.05 J0.0866
G2 X234.5689 Y404.2992 I0.05 J-0.0866
G2 X234.5659 Y404.2747 I-0.1 J0.0
G0 Z3.0
G0 X217.6311 Y404.2991
G0 Z1.0
G1 F300.0 Z-1.0
G2 F800.0 X217.4811 Y404.2126 I-0.1 J0.0001
G2 Y404.3858 I0.05 J0.0866
G2 X217.6311 Y404.2992 I0.05 J-0.0866
G2 Y404.2991 I-0.1 J0.0
G1 F300.0 Z-2.0
G2 F800.0 X217.4811 Y404.2126 I-0.1 J0.0001
G2 Y404.3858 I0.05 J0.0866
G2 X217.6311 Y404.2992 I0.05 J-0.0866
G2 Y404.2991 I-0.1 J0.0
G1 F300.0 Z-2.2
G2 F800.0 X217.4811 Y404.2126 I-0.1 J0.0001
G2 Y404.3858 I0.05 J0.0866
G2 X217.6311 Y404.2992 I0.05 J-0.0866
G2 Y404.2991 I-0.1 J0.0
G0 Z3.0
G0 X205.0658 Y401.0741
G0 Z1.0
G1 F300.0 Z-1.0
G2 F800.0 X205.0689 Y401.0492 I-0.0969 J-0.0249
G2 X204.9189 Y400.9626 I-0.1 J0.0
G2 Y401.1358 I0.05 J0.0866
G2 X205.0658 Y401.0741 I0.05 J-0.0866
G1 F300.0 Z-2.0
G2 F800.0 X205.0689 Y401.0492 I-0.0969 J-0.0249
G2 X204.9189 Y400.9626 I-0.1 J0.0
G2 Y401.1358 I0.05 J0.0866
G2 X205.0658 Y401.0741 I0.05 J-0.0866
G1 F300.0 Z-2.2
G2 F800.0 X205.0689 Y401.0492 I-0.0969 J-0.0249
G2 X204.9189 Y400.9626 I-0.1 J0.0
G2 Y401.1358 I0.05 J0.0866
G2 X205.0658 Y401.0741 I0.05 J-0.0866
G0 Z3.0
G0 X188.1311 Y401.0494
G0 Z1.0
G1 F300.0 Z-1.0
G2 F800.0 Y401.0492 I-0.1 J-0.0001
G2 X187.9811 Y400.9626 I-0.1 J0.0
G2 Y401.1358 I0.05 J0.0866
G2 X188.1311 Y401.0494 I0.05 J-0.0866
G1 F300.0 Z-2.0
G2 F800.0 Y401.0492 I-0.1 J-0.0001
G2 X187.9811 Y400.9626 I-0.1 J0.0
G2 Y401.1358 I0.05 J0.0866
G2 X188.1311 Y401.0494 I0.05 J-0.0866
G1 F300.0 Z-2.2
G2 F800.0 Y401.0492 I-0.1 J-0.0001
G2 X187.9811 Y400.9626 I-0.1 J0.0
G2 Y401.1358 I0.05 J0.0866
G2 X188.1311 Y401.0494 I0.05 J-0.0866
G0 Z3.0
G0 X176.5653 Y404.2724
G0 Z1.0
G1 F300.0 Z-1.0
G2 F800.0 X176.4189 Y404.2126 I-0.0963 J0.0268
G2 Y404.3858 I0.05 J0.0866
G2 X176.5689 Y404.2992 I0.05 J-0.0866
G2 X176.5653 Y404.2724 I-0.1 J0.0
G1 F300.0 Z-2.0
G2 F800.0 X176.4189 Y404.2126 I-0.0963 J0.0268
G2 Y404.3858 I0.05 J0.0866
G2 X176.5689 Y404.2992 I0.05 J-0.0866
G2 X176.5653 Y404.2724 I-0.1 J0.0
G1 F300.0 Z-2.2
G2 F800.0 X176.4189 Y404.2126 I-0.0963 J0.0268
G2 Y404.3858 I0.05 J0.0866
G2 X176.5689 Y404.2992 I0.05 J-0.0866
G2 X176.5653 Y404.2724 I-0.1 J0.0
G0 Z3.0
G0 X159.6311 Y404.299
G0 Z1.0
G1 F300.0 Z-1.0
G2 F800.0 X159.4811 Y404.2126 I-0.1 J0.0002
G2 Y404.3858 I0.05 J0.0866
G2 X159.6311 Y404.2992 I0.05 J-0.0866
G2 Y404.299 I-0.1 J0.0
G1 F300.0 Z-2.0
G2 F800.0 X159.4811 Y404.2126 I-0.1 J0.0002
G2 Y404.3858 I0.05 J0.0866
G2 X159.6311 Y404.2992 I0.05 J-0.0866
G2 Y404.299 I-0.1 J0.0
G1 F300.0 Z-2.2
G2 F800.0 X159.4811 Y404.2126 I-0.1 J0.0002
G2 Y404.3858 I0.05 J0.0866
G2 X159.6311 Y404.2992 I0.05 J-0.0866
G2 Y404.299 I-0.1 J0.0
G0 Z3.0
G0 X147.0658 Y401.0741
G0 Z1.0
G1 F300.0 Z-1.0
G2 F800.0 X147.0689 Y401.0492 I-0.0969 J-0.0249
G2 X146.9189 Y400.9626 I-0.1 J0.0
G2 Y401.1358 I0.05 J0.0866
G2 X147.0658 Y401.0741 I0.05 J-0.0866
G1 F300.0 Z-2.0
G2 F800.0 X147.0689 Y401.0492 I-0.0969 J-0.0249
G2 X146.9189 Y400.9626 I-0.1 J0.0
G2 Y401.1358 I0.05 J0.0866
G2 X147.0658 Y401.0741 I0.05 J-0.0866
G1 F300.0 Z-2.2
G2 F800.0 X147.0689 Y401.0492 I-0.0969 J-0.0249
G2 X146.9189 Y400.9626 I-0.1 J0.0
G2 Y401.1358 I0.05 J0.0866
G2 X147.0658 Y401.0741 I0.05 J-0.0866
G0 Z3.0
G0 X130.1311 Y401.0494
G0 Z1.0
G1 F300.0 Z-1.0
G2 F800.0 Y401.0492 I-0.1 J-0.0001
G2 X129.9811 Y400.9626 I-0.1 J0.0
G2 Y401.1358 I0.05 J0.0866
G2 X130.1311 Y401.0494 I0.05 J-0.0866
G1 F300.0 Z-2.0
G2 F800.0 Y401.0492 I-0.1 J-0.0001
G2 X129.9811 Y400.9626 I-0.1 J0.0
G2 Y401.1358 I0.05 J0.0866
G2 X130.1311 Y401.0494 I0.05 J-0.0866
G1 F300.0 Z-2.2
G2 F800.0 Y401.0492 I-0.1 J-0.0001
G2 X129.9811 Y400.9626 I-0.1 J0.0
G2 Y401.1358 I0.05 J0.0866
G2 X130.1311 Y401.0494 I0.05 J-0.0866
G0 Z3.0
G0 X118.5653 Y404.2724
G0 Z1.0
G1 F300.0 Z-1.0
G2 F800.0 X118.4189 Y404.2126 I-0.0963 J0.0268
G2 Y404.3858 I0.05 J0.0866
G2 X118.5689 Y404.2992 I0.05 J-0.0866
G2 X118.5653 Y404.2724 I-0.1 J0.0
G1 F300.0 Z-2.0
G2 F800.0 X118.4189 Y404.2126 I-0.0963 J0.0268
G2 Y404.3858 I0.05 J0.0866
G2 X118.5689 Y404.2992 I0.05 J-0.0866
G2 X118.5653 Y404.2724 I-0.1 J0.0
G1 F300.0 Z-2.2
G2 F800.0 X118.4189 Y404.2126 I-0.0963 J0.0268
G2 Y404.3858 I0.05 J0.0866
G2 X118.5689 Y404.2992 I0.05 J-0.0866
G2 X118.5653 Y404.2724 I-0.1 J0.0
G0 Z3.0
G0 X101.6311 Y404.299
G0 Z1.0
G1 F300.0 Z-1.0
G2 F800.0 X101.4811 Y404.2126 I-0.1 J0.0002
G2 Y404.3858 I0.05 J0.0866
G2 X101.6311 Y404.2992 I0.05 J-0.0866
G2 Y404.299 I-0.1 J0.0
G1 F300.0 Z-2.0
G2 F800.0 X101.4811 Y404.2126 I-0.1 J0.0002
G2 Y404.3858 I0.05 J0.0866
G2 X101.6311 Y404.2992 I0.05 J-0.0866
G2 Y404.299 I-0.1 J0.0
G1 F300.0 Z-2.2
G2 F800.0 X101.4811 Y404.2126 I-0.1 J0.0002
G2 Y404.3858 I0.05 J0.0866
G2 X101.6311 Y404.2992 I0.05 J-0.0866
G2 Y404.299 I-0.1 J0.0
G0 Z3.0
G0 X89.0658 Y401.0741
G0 Z1.0
G1 F300.0 Z-1.0
G2 F800.0 X89.0689 Y401.0492 I-0.0969 J-0.0249
G2 X88.9189 Y400.9626 I-0.1 J0.0
G2 Y401.1358 I0.05 J0.0866
G2 X89.0658 Y401.0741 I0.05 J-0.0866
G1 F300.0 Z-2.0
G2 F800.0 X89.0689 Y401.0492 I-0.0969 J-0.0249
G2 X88.9189 Y400.9626 I-0.1 J0.0
G2 Y401.1358 I0.05 J0.0866
G2 X89.0658 Y401.0741 I0.05 J-0.0866
G1 F300.0 Z-2.2
G2 F800.0 X89.0689 Y401.0492 I-0.0969 J-0.0249
G2 X88.9189 Y400.9626 I-0.1 J0.0
G2 Y401.1358 I0.05 J0.0866
G2 X89.0658 Y401.0741 I0.05 J-0.0866
G0 Z3.0
G0 X72.1311 Y401.0494
G0 Z1.0
G1 F300.0 Z-1.0
G2 F800.0 Y401.0492 I-0.1 J-0.0001
G2 X71.9811 Y400.9626 I-0.1 J0.0
G2 Y401.1358 I0.05 J0.0866
G2 X72.1311 Y401.0494 I0.05 J-0.0866
G1 F300.0 Z-2.0
G2 F800.0 Y401.0492 I-0.1 J-0.0001
G2 X71.9811 Y400.9626 I-0.1 J0.0
G2 Y401.1358 I0.05 J0.0866
G2 X72.1311 Y401.0494 I0.05 J-0.0866
G1 F300.0 Z-2.2
G2 F800.0 Y401.0492 I-0.1 J-0.0001
G2 X71.9811 Y400.9626 I-0.1 J0.0
G2 Y401.1358 I0.05 J0.0866
G2 X72.1311 Y401.0494 I0.05 J-0.0866
G0 Z3.0
G0 X60.5653 Y404.2724
G0 Z1.0
G1 F300.0 Z-1.0
G2 F800.0 X60.4189 Y404.2126 I-0.0963 J0.0268
G2 Y404.3858 I0.05 J0.0866
G2 X60.5689 Y404.2992 I0.05 J-0.0866
G2 X60.5653 Y404.2724 I-0.1 J0.0
G1 F300.0 Z-2.0
G2 F800.0 X60.4189 Y404.2126 I-0.0963 J0.0268
G2 Y404.3858 I0.05 J0.0866
G2 X60.5689 Y404.2992 I0.05 J-0.0866
G2 X60.5653 Y404.2724 I-0.1 J0.0
G1 F300.0 Z-2.2
G2 F800.0 X60.4189 Y404.2126 I-0.0963 J0.0268
G2 Y404.3858 I0.05 J0.0866
G2 X60.5689 Y404.2992 I0.05 J-0.0866
G2 X60.5653 Y404.2724 I-0.1 J0.0
G0 Z3.0
G0 X43.6311 Y404.299
G0 Z1.0
G1 F300.0 Z-1.0
G2 F800.0 X43.4811 Y404.2126 I-0.1 J0.0002
G2 Y404.3858 I0.05 J0.0866
G2 X43.6311 Y404.2992 I0.05 J-0.0866
G2 Y404.299 I-0.1 J0.0
G1 F300.0 Z-2.0
G2 F800.0 X43.4811 Y404.2126 I-0.1 J0.0002
G2 Y404.3858 I0.05 J0.0866
G2 X43.6311 Y404.2992 I0.05 J-0.0866
G2 Y404.299 I-0.1 J0.0
G1 F300.0 Z-2.2
G2 F800.0 X43.4811 Y404.2126 I-0.1 J0.0002
G2 Y404.3858 I0.05 J0.0866
G2 X43.6311 Y404.2992 I0.05 J-0.0866
G2 Y404.299 I-0.1 J0.0
G0 Z3.0
G0 X31.0658 Y401.0741
G0 Z1.0
G1 F300.0 Z-1.0
G2 F800.0 X31.0689 Y401.0492 I-0.0969 J-0.0249
G2 X30.9189 Y400.9626 I-0.1 J0.0
G2 Y401.1358 I0.05 J0.0866
G2 X31.0658 Y401.0741 I0.05 J-0.0866
G1 F300.0 Z-2.0
G2 F800.0 X31.0689 Y401.0492 I-0.0969 J-0.0249
G2 X30.9189 Y400.9626 I-0.1 J0.0
G2 Y401.1358 I0.05 J0.0866
G2 X31.0658 Y401.0741 I0.05 J-0.0866
G1 F300.0 Z-2.2
G2 F800.0 X31.0689 Y401.0492 I-0.0969 J-0.0249
G2 X30.9189 Y400.9626 I-0.1 J0.0
G2 Y401.1358 I0.05 J0.0866
G2 X31.0658 Y401.0741 I0.05 J-0.0866
G0 Z3.0
G0 X14.1311 Y401.0494
G0 Z1.0
G1 F300.0 Z-1.0
G2 F800.0 Y401.0492 I-0.1 J-0.0001
G2 X13.9811 Y400.9626 I-0.1 J0.0
G2 Y401.1358 I0.05 J0.0866
G2 X14.1311 Y401.0494 I0.05 J-0.0866
G1 F300.0 Z-2.0
G2 F800.0 Y401.0492 I-0.1 J-0.0001
G2 X13.9811 Y400.9626 I-0.1 J0.0
G2 Y401.1358 I0.05 J0.0866
G2 X14.1311 Y401.0494 I0.05 J-0.0866
G1 F300.0 Z-2.2
G2 F800.0 Y401.0492 I-0.1 J-0.0001
G2 X13.9811 Y400.9626 I-0.1 J0.0
G2 Y401.1358 I0.05 J0.0866
G2 X14.1311 Y401.0494 I0.05 J-0.0866
G0 Z3.0
G0 X22.4667 Y377.4577
G0 Z1.0
G1 F300.0 Z-1.0
G2 F800.0 X22.6 Y377.3635 I0.0333 J-0.0943
G2 X22.45 Y377.2769 I-0.1 J0.0
G2 Y377.4501 I0.05 J0.0866
G2 X22.4667 Y377.4577 I0.05 J-0.0866
G1 F300.0 Z-2.0
G2 F800.0 X22.6 Y377.3635 I0.0333 J-0.0943
G2 X22.45 Y377.2769 I-0.1 J0.0
G2 Y377.4501 I0.05 J0.0866
G2 X22.4667 Y377.4577 I0.05 J-0.0866
G1 F300.0 Z-2.2
G2 F800.0 X22.6 Y377.3635 I0.0333 J-0.0943
G2 X22.45 Y377.2769 I-0.1 J0.0
G2 Y377.4501 I0.05 J0.0866
G2 X22.4667 Y377.4577 I0.05 J-0.0866
G0 Z3.0
G0 X51.9088 Y364.1782
G0 Z1.0
G1 F300.0 Z-1.0
G2 F800.0 X51.95 Y364.2237 I0.0912 J-0.0411
G2 X52.1 Y364.1371 I0.05 J-0.0866
G2 X51.95 Y364.0505 I-0.1 J0.0
G2 X51.9088 Y364.1782 I0.05 J0.0866
G1 F300.0 Z-2.0
G2 F800.0 X51.95 Y364.2237 I0.0912 J-0.0411
G2 X52.1 Y364.1371 I0.05 J-0.0866
G2 X51.95 Y364.0505 I-0.1 J0.0
G2 X51.9088 Y364.1782 I0.05 J0.0866
G1 F300.0 Z-2.2
G2 F800.0 X51.95 Y364.2237 I0.0912 J-0.0411
G2 X52.1 Y364.1371 I0.05 J-0.0866
G2 X51.95 Y364.0505 I-0.1 J0.0
G2 X51.9088 Y364.1782 I0.05 J0.0866
G0 Z3.0
G0 X43.5644 Y340.5456
G0 Z1.0
G1 F300.0 Z-1.0
G2 F800.0 X43.6311 Y340.4513 I-0.0333 J-0.0943
G2 X43.4811 Y340.3647 I-0.1 J0.0
G2 Y340.5379 I0.05 J0.0866
G2 X43.5644 Y340.5456 I0.05 J-0.0866
G1 F300.0 Z-2.0
G2 F800.0 X43.6311 Y340.4513 I-0.0333 J-0.0943
G2 X43.4811 Y340.3647 I-0.1 J0.0
G2 Y340.5379 I0.05 J0.0866
G2 X43.5644 Y340.5456 I0.05 J-0.0866
G1 F300.0 Z-2.2
G2 F800.0 X43.6311 Y340.4513 I-0.0333 J-0.0943
G2 X43.4811 Y340.3647 I-0.1 J0.0
G2 Y340.5379 I0.05 J0.0866
G2 X43.5644 Y340.5456 I0.05 J-0.0866
G0 Z3.0
G0 X31.0656 Y337.227
G0 Z1.0
G1 F300.0 Z-1.0
G2 F800.0 X31.0689 Y337.2013 I-0.0967 J-0.0257
G2 X30.9189 Y337.1147 I-0.1 J0.0
G2 Y337.2879 I0.05 J0.0866
G2 X31.0656 Y337.227 I0.05 J-0.0866
G1 F300.0 Z-2.0
G2 F800.0 X31.0689 Y337.2013 I-0.0967 J-0.0257
G2 X30.9189 Y337.1147 I-0.1 J0.0
G2 Y337.2879 I0.05 J0.0866
G2 X31.0656 Y337.227 I0.05 J-0.0866
G1 F300.0 Z-2.2
G2 F800.0 X31.0689 Y337.2013 I-0.0967 J-0.0257
G2 X30.9189 Y337.1147 I-0.1 J0.0
G2 Y337.2879 I0.05 J0.0866
G2 X31.0656 Y337.227 I0.05 J-0.0866
G0 Z3.0
G0 X14.1311 Y337.2015
G0 Z1.0
G1 F300.0 Z-1.0
G2 F800.0 Y337.2013 I-0.1 J-0.0002
G2 X13.9811 Y337.1147 I-0.1 J0.0
G2 Y337.2879 I0.05 J0.0866
G2 X14.1311 Y337.2015 I0.05 J-0.0866
G1 F300.0 Z-2.0
G2 F800.0 Y337.2013 I-0.1 J-0.0002
G2 X13.9811 Y337.1147 I-0.1 J0.0
G2 Y337.2879 I0.05 J0.0866
G2 X14.1311 Y337.2015 I0.05 J-0.0866
G1 F300.0 Z-2.2
G2 F800.0 Y337.2013 I-0.1 J-0.0002
G2 X13.9811 Y337.1147 I-0.1 J0.0
G2 Y337.2879 I0.05 J0.0866
G2 X14.1311 Y337.2015 I0.05 J-0.0866
G0 Z3.0
G0 X22.4667 Y313.6099
G0 Z1.0
G1 F300.0 Z-1.0
G2 F800.0 X22.6 Y313.5156 I0.0333 J-0.0943
G2 X22.45 Y313.429 I-0.1 J0.0
G2 Y313.6022 I0.05 J0.0866
G2 X22.4667 Y313.6099 I0.05 J-0.0866
G1 F300.0 Z-2.0
G2 F800.0 X22.6 Y313.5156 I0.0333 J-0.0943
G2 X22.45 Y313.429 I-0.1 J0.0
G2 Y313.6022 I0.05 J0.0866
G2 X22.4667 Y313.6099 I0.05 J-0.0866
G1 F300.0 Z-2.2
G2 F800.0 X22.6 Y313.5156 I0.0333 J-0.0943
G2 X22.45 Y313.429 I-0.1 J0.0
G2 Y313.6022 I0.05 J0.0866
G2 X22.4667 Y313.6099 I0.05 J-0.0866
G0 Z3.0
G0 X51.9068 Y302.1733
G0 Z1.0
G1 F300.0 Z-1.0
G2 F800.0 X51.95 Y302.2237 I0.0932 J-0.0362
G2 X52.1 Y302.1371 I0.05 J-0.0866
G2 X51.95 Y302.0505 I-0.1 J0.0
G2 X51.9068 Y302.1733 I0.05 J0.0866
G1 F300.0 Z-2.0
G2 F800.0 X51.95 Y302.2237 I0.0932 J-0.0362
G2 X52.1 Y302.1371 I0.05 J-0.0866
G2 X51.95 Y302.0505 I-0.1 J0.0
G2 X51.9068 Y302.1733 I0.05 J0.0866
G1 F300.0 Z-2.2
G2 F800.0 X51.95 Y302.2237 I0.0932 J-0.0362
G2 X52.1 Y302.1371 I0.05 J-0.0866
G2 X51.95 Y302.0505 I-0.1 J0.0
G2 X51.9068 Y302.1733 I0.05 J0.0866
G0 Z3.0
G0 X43.5644 Y278.5456
G0 Z1.0
G1 F300.0 Z-1.0
G2 F800.0 X43.6311 Y278.4513 I-0.0333 J-0.0943
G2 X43.4811 Y278.3647 I-0.1 J0.0
G2 Y278.5379 I0.05 J0.0866
G2 X43.5644 Y278.5456 I0.05 J-0.0866
G1 F300.0 Z-2.0
G2 F800.0 X43.6311 Y278.4513 I-0.0333 J-0.0943
G2 X43.4811 Y278.3647 I-0.1 J0.0
G2 Y278.5379 I0.05 J0.0866
G2 X43.5644 Y278.5456 I0.05 J-0.0866
G1 F300.0 Z-2.2
G2 F800.0 X43.6311 Y278.4513 I-0.0333 J-0.0943
G2 X43.4811 Y278.3647 I-0.1 J0.0
G2 Y278.5379 I0.05 J0.0866
G2 X43.5644 Y278.5456 I0.05 J-0.0866
G0 Z3.0
G0 X31.0656 Y275.227
G0 Z1.0
G1 F300.0 Z-1.0
G2 F800.0 X31.0689 Y275.2013 I-0.0967 J-0.0257
G2 X30.9189 Y275.1147 I-0.1 J0.0
G2 Y275.2879 I0.05 J0.0866
G2 X31.0656 Y275.227 I0.05 J-0.0866
G1 F300.0 Z-2.0
G2 F800.0 X31.0689 Y275.2013 I-0.0967 J-0.0257
G2 X30.9189 Y275.1147 I-0.1 J0.0
G2 Y275.2879 I0.05 J0.0866
G2 X31.0656 Y275.227 I0.05 J-0.0866
G1 F300.0 Z-2.2
G2 F800.0 X31.0689 Y275.2013 I-0.0967 J-0.0257
G2 X30.9189 Y275.1147 I-0.1 J0.0
G2 Y275.2879 I0.05 J0.0866
G2 X31.0656 Y275.227 I0.05 J-0.0866
G0 Z3.0
G0 X14.1311 Y275.2015
G0 Z1.0
G1 F300.0 Z-1.0
G2 F800.0 Y275.2013 I-0.1 J-0.0002
G2 X13.9811 Y275.1147 I-0.1 J0.0
G2 Y275.2879 I0.05 J0.0866
G2 X14.1311 Y275.2015 I0.05 J-0.0866
G1 F300.0 Z-2.0
G2 F800.0 Y275.2013 I-0.1 J-0.0002
G2 X13.9811 Y275.1147 I-0.1 J0.0
G2 Y275.2879 I0.05 J0.0866
G2 X14.1311 Y275.2015 I0.05 J-0.0866
G1 F300.0 Z-2.2
G2 F800.0 Y275.2013 I-0.1 J-0.0002
G2 X13.9811 Y275.1147 I-0.1 J0.0
G2 Y275.2879 I0.05 J0.0866
G2 X14.1311 Y275.2015 I0.05 J-0.0866
G0 Z3.0
G0 X22.4667 Y251.6099
G0 Z1.0
G1 F300.0 Z-1.0
G2 F800.0 X22.6 Y251.5156 I0.0333 J-0.0943
G2 X22.45 Y251.429 I-0.1 J0.0
G2 Y251.6022 I0.05 J0.0866
G2 X22.4667 Y251.6099 I0.05 J-0.0866
G1 F300.0 Z-2.0
G2 F800.0 X22.6 Y251.5156 I0.0333 J-0.0943
G2 X22.45 Y251.429 I-0.1 J0.0
G2 Y251.6022 I0.05 J0.0866
G2 X22.4667 Y251.6099 I0.05 J-0.0866
G1 F300.0 Z-2.2
G2 F800.0 X22.6 Y251.5156 I0.0333 J-0.0943
G2 X22.45 Y251.429 I-0.1 J0.0
G2 Y251.6022 I0.05 J0.0866
G2 X22.4667 Y251.6099 I0.05 J-0.0866
G0 Z3.0
G0 X51.9073 Y239.7234
G0 Z1.0
G1 F300.0 Z-1.0
G2 F800.0 X51.95 Y239.7726 I0.0927 J-0.0374
G2 X52.1 Y239.686 I0.05 J-0.0866
G2 X51.95 Y239.5994 I-0.1 J0.0
G2 X51.9073 Y239.7234 I0.05 J0.0866
G1 F300.0 Z-2.0
G2 F800.0 X51.95 Y239.7726 I0.0927 J-0.0374
G2 X52.1 Y239.686 I0.05 J-0.0866
G2 X51.95 Y239.5994 I-0.1 J0.0
G2 X51.9073 Y239.7234 I0.05 J0.0866
G1 F300.0 Z-2.2
G2 F800.0 X51.95 Y239.7726 I0.0927 J-0.0374
G2 X52.1 Y239.686 I0.05 J-0.0866
G2 X51.95 Y239.5994 I-0.1 J0.0
G2 X51.9073 Y239.7234 I0.05 J0.0866
G0 Z3.0
G0 X43.5644 Y216.0945
G0 Z1.0
G1 F300.0 Z-1.0
G2 F800.0 X43.6311 Y216.0002 I-0.0333 J-0.0943
G2 X43.4811 Y215.9136 I-0.1 J0.0
G2 Y216.0868 I0.05 J0.0866
G2 X43.5644 Y216.0945 I0.05 J-0.0866
G1 F300.0 Z-2.0
G2 F800.0 X43.6311 Y216.0002 I-0.0333 J-0.0943
G2 X43.4811 Y215.9136 I-0.1 J0.0
G2 Y216.0868 I0.05 J0.0866
G2 X43.5644 Y216.0945 I0.05 J-0.0866
G1 F300.0 Z-2.2
G2 F800.0 X43.6311 Y216.0002 I-0.0333 J-0.0943
G2 X43.4811 Y215.9136 I-0.1 J0.0
G2 Y216.0868 I0.05 J0.0866
G2 X43.5644 Y216.0945 I0.05 J-0.0866
G0 Z3.0
G0 X31.0656 Y212.7759
G0 Z1.0
G1 F300.0 Z-1.0
G2 F800.0 X31.0689 Y212.7502 I-0.0967 J-0.0257
G2 X30.9189 Y212.6636 I-0.1 J0.0
G2 Y212.8368 I0.05 J0.0866
G2 X31.0656 Y212.7759 I0.05 J-0.0866
G1 F300.0 Z-2.0
G2 F800.0 X31.0689 Y212.7502 I-0.0967 J-0.0257
G2 X30.9189 Y212.6636 I-0.1 J0.0
G2 Y212.8368 I0.05 J0.0866
G2 X31.0656 Y212.7759 I0.05 J-0.0866
G1 F300.0 Z-2.2
G2 F800.0 X31.0689 Y212.7502 I-0.0967 J-0.0257
G2 X30.9189 Y212.6636 I-0.1 J0.0
G2 Y212.8368 I0.05 J0.0866
G2 X31.0656 Y212.7759 I0.05 J-0.0866
G0 Z3.0
G0 X14.1311 Y212.7504
G0 Z1.0
G1 F300.0 Z-1.0
G2 F800.0 Y212.7502 I-0.1 J-0.0002
G2 X13.9811 Y212.6636 I-0.1 J0.0
G2 Y212.8368 I0.05 J0.0866
G2 X14.1311 Y212.7504 I0.05 J-0.0866
G1 F300.0 Z-2.0
G2 F800.0 Y212.7502 I-0.1 J-0.0002
G2 X13.9811 Y212.6636 I-0.1 J0.0
G2 Y212.8368 I0.05 J0.0866
G2 X14.1311 Y212.7504 I0.05 J-0.0866
G1 F300.0 Z-2.2
G2 F800.0 Y212.7502 I-0.1 J-0.0002
G2 X13.9811 Y212.6636 I-0.1 J0.0
G2 Y212.8368 I0.05 J0.0866
G2 X14.1311 Y212.7504 I0.05 J-0.0866
G0 Z3.0
G0 X22.4667 Y189.1588
G0 Z1.0
G1 F300.0 Z-1.0
G2 F800.0 X22.6 Y189.0645 I0.0333 J-0.0943
G2 X22.45 Y188.9779 I-0.1 J0.0
G2 Y189.1511 I0.05 J0.0866
G2 X22.4667 Y189.1588 I0.05 J-0.0866
G1 F300.0 Z-2.0
G2 F800.0 X22.6 Y189.0645 I0.0333 J-0.0943
G2 X22.45 Y188.9779 I-0.1 J0.0
G2 Y189.1511 I0.05 J0.0866
G2 X22.4667 Y189.1588 I0.05 J-0.0866
G1 F300.0 Z-2.2
G2 F800.0 X22.6 Y189.0645 I0.0333 J-0.0943
G2 X22.45 Y188.9779 I-0.1 J0.0
G2 Y189.1511 I0.05 J0.0866
G2 X22.4667 Y189.1588 I0.05 J-0.0866
G0 Z3.0
G0 X51.9068 Y177.7222
G0 Z1.0
G1 F300.0 Z-1.0
G2 F800.0 X51.95 Y177.7726 I0.0932 J-0.0362
G2 X52.1 Y177.686 I0.05 J-0.0866
G2 X51.95 Y177.5994 I-0.1 J0.0
G2 X51.9068 Y177.7222 I0.05 J0.0866
G1 F300.0 Z-2.0
G2 F800.0 X51.95 Y177.7726 I0.0932 J-0.0362
G2 X52.1 Y177.686 I0.05 J-0.0866
G2 X51.95 Y177.5994 I-0.1 J0.0
G2 X51.9068 Y177.7222 I0.05 J0.0866
G1 F300.0 Z-2.2
G2 F800.0 X51.95 Y177.7726 I0.0932 J-0.0362
G2 X52.1 Y177.686 I0.05 J-0.0866
G2 X51.95 Y177.5994 I-0.1 J0.0
G2 X51.9068 Y177.7222 I0.05 J0.0866
G0 Z3.0
G0 X43.5644 Y154.0945
G0 Z1.0
G1 F300.0 Z-1.0
G2 F800.0 X43.6311 Y154.0002 I-0.0333 J-0.0943
G2 X43.4811 Y153.9136 I-0.1 J0.0
G2 Y154.0868 I0.05 J0.0866
G2 X43.5644 Y154.0945 I0.05 J-0.0866
G1 F300.0 Z-2.0
G2 F800.0 X43.6311 Y154.0002 I-0.0333 J-0.0943
G2 X43.4811 Y153.9136 I-0.1 J0.0
G2 Y154.0868 I0.05 J0.0866
G2 X43.5644 Y154.0945 I0.05 J-0.0866
G1 F300.0 Z-2.2
G2 F800.0 X43.6311 Y154.0002 I-0.0333 J-0.0943
G2 X43.4811 Y153.9136 I-0.1 J0.0
G2 Y154.0868 I0.05 J0.0866
G2 X43.5644 Y154.0945 I0.05 J-0.0866
G0 Z3.0
G0 X31.0656 Y150.7759
G0 Z1.0
G1 F300.0 Z-1.0
G2 F800.0 X31.0689 Y150.7502 I-0.0967 J-0.0257
G2 X30.9189 Y150.6636 I-0.1 J0.0
G2 Y150.8368 I0.05 J0.0866
G2 X31.0656 Y150.7759 I0.05 J-0.0866
G1 F300.0 Z-2.0
G2 F800.0 X31.0689 Y150.7502 I-0.0967 J-0.0257
G2 X30.9189 Y150.6636 I-0.1 J0.0
G2 Y150.8368 I0.05 J0.0866
G2 X31.0656 Y150.7759 I0.05 J-0.0866
G1 F300.0 Z-2.2
G2 F800.0 X31.0689 Y150.7502 I-0.0967 J-0.0257
G2 X30.9189 Y150.6636 I-0.1 J0.0
G2 Y150.8368 I0.05 J0.0866
G2 X31.0656 Y150.7759 I0.05 J-0.0866
G0 Z3.0
G0 X14.1311 Y150.7504
G0 Z1.0
G1 F300.0 Z-1.0
G2 F800.0 Y150.7502 I-0.1 J-0.0002
G2 X13.9811 Y150.6636 I-0.1 J0.0
G2 Y150.8368 I0.05 J0.0866
G2 X14.1311 Y150.7504 I0.05 J-0.0866
G1 F300.0 Z-2.0
G2 F800.0 Y150.7502 I-0.1 J-0.0002
G2 X13.9811 Y150.6636 I-0.1 J0.0
G2 Y150.8368 I0.05 J0.0866
G2 X14.1311 Y150.7504 I0.05 J-0.0866
G1 F300.0 Z-2.2
G2 F800.0 Y150.7502 I-0.1 J-0.0002
G2 X13.9811 Y150.6636 I-0.1 J0.0
G2 Y150.8368 I0.05 J0.0866
G2 X14.1311 Y150.7504 I0.05 J-0.0866
G0 Z3.0
G0 X22.4667 Y127.1588
G0 Z1.0
G1 F300.0 Z-1.0
G2 F800.0 X22.6 Y127.0645 I0.0333 J-0.0943
G2 X22.45 Y126.9779 I-0.1 J0.0
G2 Y127.1511 I0.05 J0.0866
G2 X22.4667 Y127.1588 I0.05 J-0.0866
G1 F300.0 Z-2.0
G2 F800.0 X22.6 Y127.0645 I0.0333 J-0.0943
G2 X22.45 Y126.9779 I-0.1 J0.0
G2 Y127.1511 I0.05 J0.0866
G2 X22.4667 Y127.1588 I0.05 J-0.0866
G1 F300.0 Z-2.2
G2 F800.0 X22.6 Y127.0645 I0.0333 J-0.0943
G2 X22.45 Y126.9779 I-0.1 J0.0
G2 Y127.1511 I0.05 J0.0866
G2 X22.4667 Y127.1588 I0.05 J-0.0866
G0 Z3.0
G0 X51.9069 Y115.6579
G0 Z1.0
G1 F300.0 Z-1.0
G2 F800.0 X51.95 Y115.7081 I0.0931 J-0.0364
G2 X52.1 Y115.6215 I0.05 J-0.0866
G2 X51.95 Y115.5349 I-0.1 J0.0
G2 X51.9069 Y115.6579 I0.05 J0.0866
G1 F300.0 Z-2.0
G2 F800.0 X51.95 Y115.7081 I0.0931 J-0.0364
G2 X52.1 Y115.6215 I0.05 J-0.0866
G2 X51.95 Y115.5349 I-0.1 J0.0
G2 X51.9069 Y115.6579 I0.05 J0.0866
G1 F300.0 Z-2.2
G2 F800.0 X51.95 Y115.7081 I0.0931 J-0.0364
G2 X52.1 Y115.6215 I0.05 J-0.0866
G2 X51.95 Y115.5349 I-0.1 J0.0
G2 X51.9069 Y115.6579 I0.05 J0.0866
G0 Z3.0
G0 X43.5644 Y92.03
G0 Z1.0
G1 F300.0 Z-1.0
G2 F800.0 X43.6311 Y91.9357 I-0.0333 J-0.0943
G2 X43.4811 Y91.8491 I-0.1 J0.0
G2 Y92.0223 I0.05 J0.0866
G2 X43.5644 Y92.03 I0.05 J-0.0866
G1 F300.0 Z-2.0
G2 F800.0 X43.6311 Y91.9357 I-0.0333 J-0.0943
G2 X43.4811 Y91.8491 I-0.1 J0.0
G2 Y92.0223 I0.05 J0.0866
G2 X43.5644 Y92.03 I0.05 J-0.0866
G1 F300.0 Z-2.2
G2 F800.0 X43.6311 Y91.9357 I-0.0333 J-0.0943
G2 X43.4811 Y91.8491 I-0.1 J0.0
G2 Y92.0223 I0.05 J0.0866
G2 X43.5644 Y92.03 I0.05 J-0.0866
G0 Z3.0
G0 X31.0656 Y88.7114
G0 Z1.0
G1 F300.0 Z-1.0
G2 F800.0 X31.0689 Y88.6857 I-0.0967 J-0.0257
G2 X30.9189 Y88.5991 I-0.1 J0.0
G2 Y88.7723 I0.05 J0.0866
G2 X31.0656 Y88.7114 I0.05 J-0.0866
G1 F300.0 Z-2.0
G2 F800.0 X31.0689 Y88.6857 I-0.0967 J-0.0257
G2 X30.9189 Y88.5991 I-0.1 J0.0
G2 Y88.7723 I0.05 J0.0866
G2 X31.0656 Y88.7114 I0.05 J-0.0866
G1 F300.0 Z-2.2
G2 F800.0 X31.0689 Y88.6857 I-0.0967 J-0.0257
G2 X30.9189 Y88.5991 I-0.1 J0.0
G2 Y88.7723 I0.05 J0.0866
G2 X31.0656 Y88.7114 I0.05 J-0.0866
G0 Z3.0
G0 X14.1311 Y88.6859
G0 Z1.0
G1 F300.0 Z-1.0
G2 F800.0 Y88.6857 I-0.1 J-0.0002
G2 X13.9811 Y88.5991 I-0.1 J0.0
G2 Y88.7723 I0.05 J0.0866
G2 X14.1311 Y88.6859 I0.05 J-0.0866
G1 F300.0 Z-2.0
G2 F800.0 Y88.6857 I-0.1 J-0.0002
G2 X13.9811 Y88.5991 I-0.1 J0.0
G2 Y88.7723 I0.05 J0.0866
G2 X14.1311 Y88.6859 I0.05 J-0.0866
G1 F300.0 Z-2.2
G2 F800.0 Y88.6857 I-0.1 J-0.0002
G2 X13.9811 Y88.5991 I-0.1 J0.0
G2 Y88.7723 I0.05 J0.0866
G2 X14.1311 Y88.6859 I0.05 J-0.0866
G0 Z3.0
G0 X22.4667 Y65.0943
G0 Z1.0
G1 F300.0 Z-1.0
G2 F800.0 X22.6 Y65.0 I0.0333 J-0.0943
G2 X22.45 Y64.9134 I-0.1 J0.0
G2 Y65.0866 I0.05 J0.0866
G2 X22.4667 Y65.0943 I0.05 J-0.0866
G1 F300.0 Z-2.0
G2 F800.0 X22.6 Y65.0 I0.0333 J-0.0943
G2 X22.45 Y64.9134 I-0.1 J0.0
G2 Y65.0866 I0.05 J0.0866
G2 X22.4667 Y65.0943 I0.05 J-0.0866
G1 F300.0 Z-2.2
G2 F800.0 X22.6 Y65.0 I0.0333 J-0.0943
G2 X22.45 Y64.9134 I-0.1 J0.0
G2 Y65.0866 I0.05 J0.0866
G2 X22.4667 Y65.0943 I0.05 J-0.0866
G0 Z3.0
G0 X51.9068 Y53.6577
G0 Z1.0
G1 F300.0 Z-1.0
G2 F800.0 X51.95 Y53.7081 I0.0932 J-0.0362
G2 X52.1 Y53.6215 I0.05 J-0.0866
G2 X51.95 Y53.5349 I-0.1 J0.0
G2 X51.9068 Y53.6577 I0.05 J0.0866
G1 F300.0 Z-2.0
G2 F800.0 X51.95 Y53.7081 I0.0932 J-0.0362
G2 X52.1 Y53.6215 I0.05 J-0.0866
G2 X51.95 Y53.5349 I-0.1 J0.0
G2 X51.9068 Y53.6577 I0.05 J0.0866
G1 F300.0 Z-2.2
G2 F800.0 X51.95 Y53.7081 I0.0932 J-0.0362
G2 X52.1 Y53.6215 I0.05 J-0.0866
G2 X51.95 Y53.5349 I-0.1 J0.0
G2 X51.9068 Y53.6577 I0.05 J0.0866
G0 Z3.0
G0 X80.407 Y64.9631
G0 Z1.0
G1 F300.0 Z-1.0
G2 F800.0 X80.45 Y65.0866 I0.093 J0.0369
G2 X80.6 Y65.0 I0.05 J-0.0866
G2 X80.45 Y64.9134 I-0.1 J0.0
G2 X80.407 Y64.9631 I0.05 J0.0866
G1 F300.0 Z-2.0
G2 F800.0 X80.45 Y65.0866 I0.093 J0.0369
G2 X80.6 Y65.0 I0.05 J-0.0866
G2 X80.45 Y64.9134 I-0.1 J0.0
G2 X80.407 Y64.9631 I0.05 J0.0866
G1 F300.0 Z-2.2
G2 F800.0 X80.45 Y65.0866 I0.093 J0.0369
G2 X80.6 Y65.0 I0.05 J-0.0866
G2 X80.45 Y64.9134 I-0.1 J0.0
G2 X80.407 Y64.9631 I0.05 J0.0866
G0 Z3.0
G0 X72.0644 Y88.5914
G0 Z1.0
G1 F300.0 Z-1.0
G2 F800.0 X71.9811 Y88.5991 I-0.0333 J0.0943
G2 Y88.7723 I0.05 J0.0866
G2 X72.1311 Y88.6857 I0.05 J-0.0866
G2 X72.0644 Y88.5914 I-0.1 J0.0
G1 F300.0 Z-2.0
G2 F800.0 X71.9811 Y88.5991 I-0.0333 J0.0943
G2 Y88.7723 I0.05 J0.0866
G2 X72.1311 Y88.6857 I0.05 J-0.0866
G2 X72.0644 Y88.5914 I-0.1 J0.0
G1 F300.0 Z-2.2
G2 F800.0 X71.9811 Y88.5991 I-0.0333 J0.0943
G2 Y88.7723 I0.05 J0.0866
G2 X72.1311 Y88.6857 I0.05 J-0.0866
G2 X72.0644 Y88.5914 I-0.1 J0.0
G0 Z3.0
G0 X60.565 Y91.908
G0 Z1.0
G1 F300.0 Z-1.0
G2 F800.0 X60.4189 Y91.8491 I-0.0961 J0.0277
G2 Y92.0223 I0.05 J0.0866
G2 X60.5689 Y91.9357 I0.05 J-0.0866
G2 X60.565 Y91.908 I-0.1 J0.0
G1 F300.0 Z-2.0
G2 F800.0 X60.4189 Y91.8491 I-0.0961 J0.0277
G2 Y92.0223 I0.05 J0.0866
G2 X60.5689 Y91.9357 I0.05 J-0.0866
G2 X60.565 Y91.908 I-0.1 J0.0
G1 F300.0 Z-2.2
G2 F800.0 X60.4189 Y91.8491 I-0.0961 J0.0277
G2 Y92.0223 I0.05 J0.0866
G2 X60.5689 Y91.9357 I0.05 J-0.0866
G2 X60.565 Y91.908 I-0.1 J0.0
G0 Z3.0
G0 X88.8696 Y88.697
G0 Z1.0
G1 F300.0 Z-1.0
G2 F800.0 X88.9189 Y88.7723 I0.0994 J-0.0113
G2 X89.0689 Y88.6857 I0.05 J-0.0866
G2 X88.9189 Y88.5991 I-0.1 J0.0
G2 X88.8696 Y88.697 I0.05 J0.0866
G1 F300.0 Z-2.0
G2 F800.0 X88.9189 Y88.7723 I0.0994 J-0.0113
G2 X89.0689 Y88.6857 I0.05 J-0.0866
G2 X88.9189 Y88.5991 I-0.1 J0.0
G2 X88.8696 Y88.697 I0.05 J0.0866
G1 F300.0 Z-2.2
G2 F800.0 X88.9189 Y88.7723 I0.0994 J-0.0113
G2 X89.0689 Y88.6857 I0.05 J-0.0866
G2 X88.9189 Y88.5991 I-0.1 J0.0
G2 X88.8696 Y88.697 I0.05 J0.0866
G0 Z3.0
G0 X101.4342 Y91.911
G0 Z1.0
G1 F300.0 Z-1.0
G2 F800.0 X101.4811 Y92.0223 I0.0969 J0.0248
G2 X101.6311 Y91.9357 I0.05 J-0.0866
G2 X101.4811 Y91.8491 I-0.1 J0.0
G2 X101.4342 Y91.911 I0.05 J0.0866
G1 F300.0 Z-2.0
G2 F800.0 X101.4811 Y92.0223 I0.0969 J0.0248
G2 X101.6311 Y91.9357 I0.05 J-0.0866
G2 X101.4811 Y91.8491 I-0.1 J0.0
G2 X101.4342 Y91.911 I0.05 J0.0866
G1 F300.0 Z-2.2
G2 F800.0 X101.4811 Y92.0223 I0.0969 J0.0248
G2 X101.6311 Y91.9357 I0.05 J-0.0866
G2 X101.4811 Y91.8491 I-0.1 J0.0
G2 X101.4342 Y91.911 I0.05 J0.0866
G0 Z3.0
G0 X118.3689 Y91.9356
G0 Z1.0
G1 F300.0 Z-1.0
G2 F800.0 X118.4189 Y92.0223 I0.1 J0.0001
G2 X118.5689 Y91.9357 I0.05 J-0.0866
G2 X118.4189 Y91.8491 I-0.1 J0.0
G2 X118.3689 Y91.9356 I0.05 J0.0866
G1 F300.0 Z-2.0
G2 F800.0 X118.4189 Y92.0223 I0.1 J0.0001
G2 X118.5689 Y91.9357 I0.05 J-0.0866
G2 X118.4189 Y91.8491 I-0.1 J0.0
G2 X118.3689 Y91.9356 I0.05 J0.0866
G1 F300.0 Z-2.2
G2 F800.0 X118.4189 Y92.0223 I0.1 J0.0001
G2 X118.5689 Y91.9357 I0.05 J-0.0866
G2 X118.4189 Y91.8491 I-0.1 J0.0
G2 X118.3689 Y91.9356 I0.05 J0.0866
G0 Z3.0
G0 X129.9347 Y88.7126
G0 Z1.0
G1 F300.0 Z-1.0
G2 F800.0 X129.9811 Y88.7723 I0.0963 J-0.0268
G2 X130.1311 Y88.6857 I0.05 J-0.0866
G2 X129.9811 Y88.5991 I-0.1 J0.0
G2 X129.9347 Y88.7126 I0.05 J0.0866
G1 F300.0 Z-2.0
G2 F800.0 X129.9811 Y88.7723 I0.0963 J-0.0268
G2 X130.1311 Y88.6857 I0.05 J-0.0866
G2 X129.9811 Y88.5991 I-0.1 J0.0
G2 X129.9347 Y88.7126 I0.05 J0.0866
G1 F300.0 Z-2.2
G2 F800.0 X129.9811 Y88.7723 I0.0963 J-0.0268
G2 X130.1311 Y88.6857 I0.05 J-0.0866
G2 X129.9811 Y88.5991 I-0.1 J0.0
G2 X129.9347 Y88.7126 I0.05 J0.0866
G0 Z3.0
G0 X146.8689 Y88.6859
G0 Z1.0
G1 F300.0 Z-1.0
G2 F800.0 X146.9189 Y88.7723 I0.1 J-0.0002
G2 X147.0689 Y88.6857 I0.05 J-0.0866
G2 X146.9189 Y88.5991 I-0.1 J0.0
G2 X146.8689 Y88.6859 I0.05 J0.0866
G1 F300.0 Z-2.0
G2 F800.0 X146.9189 Y88.7723 I0.1 J-0.0002
G2 X147.0689 Y88.6857 I0.05 J-0.0866
G2 X146.9189 Y88.5991 I-0.1 J0.0
G2 X146.8689 Y88.6859 I0.05 J0.0866
G1 F300.0 Z-2.2
G2 F800.0 X146.9189 Y88.7723 I0.1 J-0.0002
G2 X147.0689 Y88.6857 I0.05 J-0.0866
G2 X146.9189 Y88.5991 I-0.1 J0.0
G2 X146.8689 Y88.6859 I0.05 J0.0866
G0 Z3.0
G0 X159.4342 Y91.9109
G0 Z1.0
G1 F300.0 Z-1.0
G2 F800.0 X159.4811 Y92.0223 I0.0969 J0.0249
G2 X159.6311 Y91.9357 I0.05 J-0.0866
G2 X159.4811 Y91.8491 I-0.1 J0.0
G2 X159.4342 Y91.9109 I0.05 J0.0866
G1 F300.0 Z-2.0
G2 F800.0 X159.4811 Y92.0223 I0.0969 J0.0249
G2 X159.6311 Y91.9357 I0.05 J-0.0866
G2 X159.4811 Y91.8491 I-0.1 J0.0
G2 X159.4342 Y91.9109 I0.05 J0.0866
G1 F300.0 Z-2.2
G2 F800.0 X159.4811 Y92.0223 I0.0969 J0.0249
G2 X159.6311 Y91.9357 I0.05 J-0.0866
G2 X159.4811 Y91.8491 I-0.1 J0.0
G2 X159.4342 Y91.9109 I0.05 J0.0866
G0 Z3.0
G0 X176.3689 Y91.9356
G0 Z1.0
G1 F300.0 Z-1.0
G2 F800.0 X176.4189 Y92.0223 I0.1 J0.0001
G2 X176.5689 Y91.9357 I0.05 J-0.0866
G2 X176.4189 Y91.8491 I-0.1 J0.0
G2 X176.3689 Y91.9356 I0.05 J0.0866
G1 F300.0 Z-2.0
G2 F800.0 X176.4189 Y92.0223 I0.1 J0.0001
G2 X176.5689 Y91.9357 I0.05 J-0.0866
G2 X176.4189 Y91.8491 I-0.1 J0.0
G2 X176.3689 Y91.9356 I0.05 J0.0866
G1 F300.0 Z-2.2
G2 F800.0 X176.4189 Y92.0223 I0.1 J0.0001
G2 X176.5689 Y91.9357 I0.05 J-0.0866
G2 X176.4189 Y91.8491 I-0.1 J0.0
G2 X176.3689 Y91.9356 I0.05 J0.0866
G0 Z3.0
G0 X187.9347 Y88.7126
G0 Z1.0
G1 F300.0 Z-1.0
G2 F800.0 X187.9811 Y88.7723 I0.0963 J-0.0268
G2 X188.1311 Y88.6857 I0.05 J-0.0866
G2 X187.9811 Y88.5991 I-0.1 J0.0
G2 X187.9347 Y88.7126 I0.05 J0.0866
G1 F300.0 Z-2.0
G2 F800.0 X187.9811 Y88.7723 I0.0963 J-0.0268
G2 X188.1311 Y88.6857 I0.05 J-0.0866
G2 X187.9811 Y88.5991 I-0.1 J0.0
G2 X187.9347 Y88.7126 I0.05 J0.0866
G1 F300.0 Z-2.2
G2 F800.0 X187.9811 Y88.7723 I0.0963 J-0.0268
G2 X188.1311 Y88.6857 I0.05 J-0.0866
G2 X187.9811 Y88.5991 I-0.1 J0.0
G2 X187.9347 Y88.7126 I0.05 J0.0866
G0 Z3.0
G0 X204.8689 Y88.6859
G0 Z1.0
G1 F300.0 Z-1.0
G2 F800.0 X204.9189 Y88.7723 I0.1 J-0.0002
G2 X205.0689 Y88.6857 I0.05 J-0.0866
G2 X204.9189 Y88.5991 I-0.1 J0.0
G2 X204.8689 Y88.6859 I0.05 J0.0866
G1 F300.0 Z-2.0
G2 F800.0 X204.9189 Y88.7723 I0.1 J-0.0002
G2 X205.0689 Y88.6857 I0.05 J-0.0866
G2 X204.9189 Y88.5991 I-0.1 J0.0
G2 X204.8689 Y88.6859 I0.05 J0.0866
G1 F300.0 Z-2.2
G2 F800.0 X204.9189 Y88.7723 I0.1 J-0.0002
G2 X205.0689 Y88.6857 I0.05 J-0.0866
G2 X204.9189 Y88.5991 I-0.1 J0.0
G2 X204.8689 Y88.6859 I0.05 J0.0866
G0 Z3.0
G0 X217.4342 Y91.9109
G0 Z1.0
G1 F300.0 Z-1.0
G2 F800.0 X217.4811 Y92.0223 I0.0969 J0.0249
G2 X217.6311 Y91.9357 I0.05 J-0.0866
G2 X217.4811 Y91.8491 I-0.1 J0.0
G2 X217.4342 Y91.9109 I0.05 J0.0866
G1 F300.0 Z-2.0
G2 F800.0 X217.4811 Y92.0223 I0.0969 J0.0249
G2 X217.6311 Y91.9357 I0.05 J-0.0866
G2 X217.4811 Y91.8491 I-0.1 J0.0
G2 X217.4342 Y91.9109 I0.05 J0.0866
G1 F300.0 Z-2.2
G2 F800.0 X217.4811 Y92.0223 I0.0969 J0.0249
G2 X217.6311 Y91.9357 I0.05 J-0.0866
G2 X217.4811 Y91.8491 I-0.1 J0.0
G2 X217.4342 Y91.9109 I0.05 J0.0866
G0 Z3.0
G0 X234.3689 Y91.9356
G0 Z1.0
G1 F300.0 Z-1.0
G2 F800.0 X234.4189 Y92.0223 I0.1 J0.0001
G2 X234.5689 Y91.9357 I0.05 J-0.0866
G2 X234.4189 Y91.8491 I-0.1 J0.0
G2 X234.3689 Y91.9356 I0.05 J0.0866
G1 F300.0 Z-2.0
G2 F800.0 X234.4189 Y92.0223 I0.1 J0.0001
G2 X234.5689 Y91.9357 I0.05 J-0.0866
G2 X234.4189 Y91.8491 I-0.1 J0.0
G2 X234.3689 Y91.9356 I0.05 J0.0866
G1 F300.0 Z-2.2
G2 F800.0 X234.4189 Y92.0223 I0.1 J0.0001
G2 X234.5689 Y91.9357 I0.05 J-0.0866
G2 X234.4189 Y91.8491 I-0.1 J0.0
G2 X234.3689 Y91.9356 I0.05 J0.0866
G0 Z3.0
G0 X246.9342 Y88.7106
G0 Z1.0
G1 F300.0 Z-1.0
G2 F800.0 X246.9811 Y88.7723 I0.0969 J-0.0249
G2 X247.1311 Y88.6857 I0.05 J-0.0866
G2 X246.9811 Y88.5991 I-0.1 J0.0
G2 X246.9342 Y88.7106 I0.05 J0.0866
G1 F300.0 Z-2.0
G2 F800.0 X246.9811 Y88.7723 I0.0969 J-0.0249
G2 X247.1311 Y88.6857 I0.05 J-0.0866
G2 X246.9811 Y88.5991 I-0.1 J0.0
G2 X246.9342 Y88.7106 I0.05 J0.0866
G1 F300.0 Z-2.2
G2 F800.0 X246.9811 Y88.7723 I0.0969 J-0.0249
G2 X247.1311 Y88.6857 I0.05 J-0.0866
G2 X246.9811 Y88.5991 I-0.1 J0.0
G2 X246.9342 Y88.7106 I0.05 J0.0866
G0 Z3.0
G0 X226.0614 Y115.5426
G0 Z1.0
G1 F300.0 Z-1.0
G2 F800.0 X225.95 Y115.5349 I-0.0614 J0.0789
G2 Y115.7081 I0.05 J0.0866
G2 X226.1 Y115.6215 I0.05 J-0.0866
G2 X226.0614 Y115.5426 I-0.1 J0.0
G1 F300.0 Z-2.0
G2 F800.0 X225.95 Y115.5349 I-0.0614 J0.0789
G2 Y115.7081 I0.05 J0.0866
G2 X226.1 Y115.6215 I0.05 J-0.0866
G2 X226.0614 Y115.5426 I-0.1 J0.0
G1 F300.0 Z-2.2
G2 F800.0 X225.95 Y115.5349 I-0.0614 J0.0789
G2 Y115.7081 I0.05 J0.0866
G2 X226.1 Y115.6215 I0.05 J-0.0866
G2 X226.0614 Y115.5426 I-0.1 J0.0
G0 Z3.0
G0 X196.5932 Y127.0282
G0 Z1.0
G1 F300.0 Z-1.0
G2 F800.0 X196.45 Y126.9779 I-0.0932 J0.0363
G2 Y127.1511 I0.05 J0.0866
G2 X196.6 Y127.0645 I0.05 J-0.0866
G2 X196.5932 Y127.0282 I-0.1 J0.0
G1 F300.0 Z-2.0
G2 F800.0 X196.45 Y126.9779 I-0.0932 J0.0363
G2 Y127.1511 I0.05 J0.0866
G2 X196.6 Y127.0645 I0.05 J-0.0866
G2 X196.5932 Y127.0282 I-0.1 J0.0
G1 F300.0 Z-2.2
G2 F800.0 X196.45 Y126.9779 I-0.0932 J0.0363
G2 Y127.1511 I0.05 J0.0866
G2 X196.6 Y127.0645 I0.05 J-0.0866
G2 X196.5932 Y127.0282 I-0.1 J0.0
G0 Z3.0
G0 X204.9356 Y150.6559
G0 Z1.0
G1 F300.0 Z-1.0
G2 F800.0 X204.9189 Y150.6636 I0.0333 J0.0943
G2 Y150.8368 I0.05 J0.0866
G2 X205.0689 Y150.7502 I0.05 J-0.0866
G2 X204.9356 Y150.6559 I-0.1 J0.0
G1 F300.0 Z-2.0
G2 F800.0 X204.9189 Y150.6636 I0.0333 J0.0943
G2 Y150.8368 I0.05 J0.0866
G2 X205.0689 Y150.7502 I0.05 J-0.0866
G2 X204.9356 Y150.6559 I-0.1 J0.0
G1 F300.0 Z-2.2
G2 F800.0 X204.9189 Y150.6636 I0.0333 J0.0943
G2 Y150.8368 I0.05 J0.0866
G2 X205.0689 Y150.7502 I0.05 J-0.0866
G2 X204.9356 Y150.6559 I-0.1 J0.0
G0 Z3.0
G0 X217.4344 Y153.9746
G0 Z1.0
G1 F300.0 Z-1.0
G2 F800.0 X217.4811 Y154.0868 I0.0967 J0.0257
G2 X217.6311 Y154.0002 I0.05 J-0.0866
G2 X217.4811 Y153.9136 I-0.1 J0.0
G2 X217.4344 Y153.9746 I0.05 J0.0866
G1 F300.0 Z-2.0
G2 F800.0 X217.4811 Y154.0868 I0.0967 J0.0257
G2 X217.6311 Y154.0002 I0.05 J-0.0866
G2 X217.4811 Y153.9136 I-0.1 J0.0
G2 X217.4344 Y153.9746 I0.05 J0.0866
G1 F300.0 Z-2.2
G2 F800.0 X217.4811 Y154.0868 I0.0967 J0.0257
G2 X217.6311 Y154.0002 I0.05 J-0.0866
G2 X217.4811 Y153.9136 I-0.1 J0.0
G2 X217.4344 Y153.9746 I0.05 J0.0866
G0 Z3.0
G0 X234.3689 Y154.0001
G0 Z1.0
G1 F300.0 Z-1.0
G2 F800.0 X234.4189 Y154.0868 I0.1 J0.0002
G2 X234.5689 Y154.0002 I0.05 J-0.0866
G2 X234.4189 Y153.9136 I-0.1 J0.0
G2 X234.3689 Y154.0001 I0.05 J0.0866
G1 F300.0 Z-2.0
G2 F800.0 X234.4189 Y154.0868 I0.1 J0.0002
G2 X234.5689 Y154.0002 I0.05 J-0.0866
G2 X234.4189 Y153.9136 I-0.1 J0.0
G2 X234.3689 Y154.0001 I0.05 J0.0866
G1 F300.0 Z-2.2
G2 F800.0 X234.4189 Y154.0868 I0.1 J0.0002
G2 X234.5689 Y154.0002 I0.05 J-0.0866
G2 X234.4189 Y153.9136 I-0.1 J0.0
G2 X234.3689 Y154.0001 I0.05 J0.0866
G0 Z3.0
G0 X246.9342 Y150.7751
G0 Z1.0
G1 F300.0 Z-1.0
G2 F800.0 X246.9811 Y150.8368 I0.0969 J-0.0249
G2 X247.1311 Y150.7502 I0.05 J-0.0866
G2 X246.9811 Y150.6636 I-0.1 J0.0
G2 X246.9342 Y150.7751 I0.05 J0.0866
G1 F300.0 Z-2.0
G2 F800.0 X246.9811 Y150.8368 I0.0969 J-0.0249
G2 X247.1311 Y150.7502 I0.05 J-0.0866
G2 X246.9811 Y150.6636 I-0.1 J0.0
G2 X246.9342 Y150.7751 I0.05 J0.0866
G1 F300.0 Z-2.2
G2 F800.0 X246.9811 Y150.8368 I0.0969 J-0.0249
G2 X247.1311 Y150.7502 I0.05 J-0.0866
G2 X246.9811 Y150.6636 I-0.1 J0.0
G2 X246.9342 Y150.7751 I0.05 J0.0866
G0 Z3.0
G0 X226.0614 Y177.6071
G0 Z1.0
G1 F300.0 Z-1.0
G2 F800.0 X225.95 Y177.5994 I-0.0614 J0.0789
G2 Y177.7726 I0.05 J0.0866
G2 X226.1 Y177.686 I0.05 J-0.0866
G2 X226.0614 Y177.6071 I-0.1 J0.0
G1 F300.0 Z-2.0
G2 F800.0 X225.95 Y177.5994 I-0.0614 J0.0789
G2 Y177.7726 I0.05 J0.0866
G2 X226.1 Y177.686 I0.05 J-0.0866
G2 X226.0614 Y177.6071 I-0.1 J0.0
G1 F300.0 Z-2.2
G2 F800.0 X225.95 Y177.5994 I-0.0614 J0.0789
G2 Y177.7726 I0.05 J0.0866
G2 X226.1 Y177.686 I0.05 J-0.0866
G2 X226.0614 Y177.6071 I-0.1 J0.0
G0 Z3.0
G0 X196.5932 Y189.0284
G0 Z1.0
G1 F300.0 Z-1.0
G2 F800.0 X196.45 Y188.9779 I-0.0932 J0.0361
G2 Y189.1511 I0.05 J0.0866
G2 X196.6 Y189.0645 I0.05 J-0.0866
G2 X196.5932 Y189.0284 I-0.1 J0.0
G1 F300.0 Z-2.0
G2 F800.0 X196.45 Y188.9779 I-0.0932 J0.0361
G2 Y189.1511 I0.05 J0.0866
G2 X196.6 Y189.0645 I0.05 J-0.0866
G2 X196.5932 Y189.0284 I-0.1 J0.0
G1 F300.0 Z-2.2
G2 F800.0 X196.45 Y188.9779 I-0.0932 J0.0361
G2 Y189.1511 I0.05 J0.0866
G2 X196.6 Y189.0645 I0.05 J-0.0866
G2 X196.5932 Y189.0284 I-0.1 J0.0
G0 Z3.0
G0 X204.9356 Y212.6559
G0 Z1.0
G1 F300.0 Z-1.0
G2 F800.0 X204.9189 Y212.6636 I0.0333 J0.0943
G2 Y212.8368 I0.05 J0.0866
G2 X205.0689 Y212.7502 I0.05 J-0.0866
G2 X204.9356 Y212.6559 I-0.1 J0.0
G1 F300.0 Z-2.0
G2 F800.0 X204.9189 Y212.6636 I0.0333 J0.0943
G2 Y212.8368 I0.05 J0.0866
G2 X205.0689 Y212.7502 I0.05 J-0.0866
G2 X204.9356 Y212.6559 I-0.1 J0.0
G1 F300.0 Z-2.2
G2 F800.0 X204.9189 Y212.6636 I0.0333 J0.0943
G2 Y212.8368 I0.05 J0.0866
G2 X205.0689 Y212.7502 I0.05 J-0.0866
G2 X204.9356 Y212.6559 I-0.1 J0.0
G0 Z3.0
G0 X217.4344 Y215.9746
G0 Z1.0
G1 F300.0 Z-1.0
G2 F800.0 X217.4811 Y216.0868 I0.0967 J0.0257
G2 X217.6311 Y216.0002 I0.05 J-0.0866
G2 X217.4811 Y215.9136 I-0.1 J0.0
G2 X217.4344 Y215.9746 I0.05 J0.0866
G1 F300.0 Z-2.0
G2 F800.0 X217.4811 Y216.0868 I0.0967 J0.0257
G2 X217.6311 Y216.0002 I0.05 J-0.0866
G2 X217.4811 Y215.9136 I-0.1 J0.0
G2 X217.4344 Y215.9746 I0.05 J0.0866
G1 F300.0 Z-2.2
G2 F800.0 X217.4811 Y216.0868 I0.0967 J0.0257
G2 X217.6311 Y216.0002 I0.05 J-0.0866
G2 X217.4811 Y215.9136 I-0.1 J0.0
G2 X217.4344 Y215.9746 I0.05 J0.0866
G0 Z3.0
G0 X234.3689 Y216.0001
G0 Z1.0
G1 F300.0 Z-1.0
G2 F800.0 X234.4189 Y216.0868 I0.1 J0.0002
G2 X234.5689 Y216.0002 I0.05 J-0.0866
G2 X234.4189 Y215.9136 I-0.1 J0.0
G2 X234.3689 Y216.0001 I0.05 J0.0866
G1 F300.0 Z-2.0
G2 F800.0 X234.4189 Y216.0868 I0.1 J0.0002
G2 X234.5689 Y216.0002 I0.05 J-0.0866
G2 X234.4189 Y215.9136 I-0.1 J0.0
G2 X234.3689 Y216.0001 I0.05 J0.0866
G1 F300.0 Z-2.2
G2 F800.0 X234.4189 Y216.0868 I0.1 J0.0002
G2 X234.5689 Y216.0002 I0.05 J-0.0866
G2 X234.4189 Y215.9136 I-0.1 J0.0
G2 X234.3689 Y216.0001 I0.05 J0.0866
G0 Z3.0
G0 X246.9342 Y212.7751
G0 Z1.0
G1 F300.0 Z-1.0
G2 F800.0 X246.9811 Y212.8368 I0.0969 J-0.0249
G2 X247.1311 Y212.7502 I0.05 J-0.0866
G2 X246.9811 Y212.6636 I-0.1 J0.0
G2 X246.9342 Y212.7751 I0.05 J0.0866
G1 F300.0 Z-2.0
G2 F800.0 X246.9811 Y212.8368 I0.0969 J-0.0249
G2 X247.1311 Y212.7502 I0.05 J-0.0866
G2 X246.9811 Y212.6636 I-0.1 J0.0
G2 X246.9342 Y212.7751 I0.05 J0.0866
G1 F300.0 Z-2.2
G2 F800.0 X246.9811 Y212.8368 I0.0969 J-0.0249
G2 X247.1311 Y212.7502 I0.05 J-0.0866
G2 X246.9811 Y212.6636 I-0.1 J0.0
G2 X246.9342 Y212.7751 I0.05 J0.0866
G0 Z3.0
G0 X226.0614 Y239.6071
G0 Z1.0
G1 F300.0 Z-1.0
G2 F800.0 X225.95 Y239.5994 I-0.0614 J0.0789
G2 Y239.7726 I0.05 J0.0866
G2 X226.1 Y239.686 I0.05 J-0.0866
G2 X226.0614 Y239.6071 I-0.1 J0.0
G1 F300.0 Z-2.0
G2 F800.0 X225.95 Y239.5994 I-0.0614 J0.0789
G2 Y239.7726 I0.05 J0.0866
G2 X226.1 Y239.686 I0.05 J-0.0866
G2 X226.0614 Y239.6071 I-0.1 J0.0
G1 F300.0 Z-2.2
G2 F800.0 X225.95 Y239.5994 I-0.0614 J0.0789
G2 Y239.7726 I0.05 J0.0866
G2 X226.1 Y239.686 I0.05 J-0.0866
G2 X226.0614 Y239.6071 I-0.1 J0.0
G0 Z3.0
G0 X196.5928 Y251.4782
G0 Z1.0
G1 F300.0 Z-1.0
G2 F800.0 X196.45 Y251.429 I-0.0928 J0.0374
G2 Y251.6022 I0.05 J0.0866
G2 X196.6 Y251.5156 I0.05 J-0.0866
G2 X196.5928 Y251.4782 I-0.1 J0.0
G1 F300.0 Z-2.0
G2 F800.0 X196.45 Y251.429 I-0.0928 J0.0374
G2 Y251.6022 I0.05 J0.0866
G2 X196.6 Y251.5156 I0.05 J-0.0866
G2 X196.5928 Y251.4782 I-0.1 J0.0
G1 F300.0 Z-2.2
G2 F800.0 X196.45 Y251.429 I-0.0928 J0.0374
G2 Y251.6022 I0.05 J0.0866
G2 X196.6 Y251.5156 I0.05 J-0.0866
G2 X196.5928 Y251.4782 I-0.1 J0.0
G0 Z3.0
G0 X204.9356 Y275.107
G0 Z1.0
G1 F300.0 Z-1.0
G2 F800.0 X204.9189 Y275.1147 I0.0333 J0.0943
G2 Y275.2879 I0.05 J0.0866
G2 X205.0689 Y275.2013 I0.05 J-0.0866
G2 X204.9356 Y275.107 I-0.1 J0.0
G1 F300.0 Z-2.0
G2 F800.0 X204.9189 Y275.1147 I0.0333 J0.0943
G2 Y275.2879 I0.05 J0.0866
G2 X205.0689 Y275.2013 I0.05 J-0.0866
G2 X204.9356 Y275.107 I-0.1 J0.0
G1 F300.0 Z-2.2
G2 F800.0 X204.9189 Y275.1147 I0.0333 J0.0943
G2 Y275.2879 I0.05 J0.0866
G2 X205.0689 Y275.2013 I0.05 J-0.0866
G2 X204.9356 Y275.107 I-0.1 J0.0
G0 Z3.0
G0 X217.4344 Y278.4257
G0 Z1.0
G1 F300.0 Z-1.0
G2 F800.0 X217.4811 Y278.5379 I0.0967 J0.0257
G2 X217.6311 Y278.4513 I0.05 J-0.0866
G2 X217.4811 Y278.3647 I-0.1 J0.0
G2 X217.4344 Y278.4257 I0.05 J0.0866
G1 F300.0 Z-2.0
G2 F800.0 X217.4811 Y278.5379 I0.0967 J0.0257
G2 X217.6311 Y278.4513 I0.05 J-0.0866
G2 X217.4811 Y278.3647 I-0.1 J0.0
G2 X217.4344 Y278.4257 I0.05 J0.0866
G1 F300.0 Z-2.2
G2 F800.0 X217.4811 Y278.5379 I0.0967 J0.0257
G2 X217.6311 Y278.4513 I0.05 J-0.0866
G2 X217.4811 Y278.3647 I-0.1 J0.0
G2 X217.4344 Y278.4257 I0.05 J0.0866
G0 Z3.0
G0 X234.3689 Y278.4512
G0 Z1.0
G1 F300.0 Z-1.0
G2 F800.0 X234.4189 Y278.5379 I0.1 J0.0002
G2 X234.5689 Y278.4513 I0.05 J-0.0866
G2 X234.4189 Y278.3647 I-0.1 J0.0
G2 X234.3689 Y278.4512 I0.05 J0.0866
G1 F300.0 Z-2.0
G2 F800.0 X234.4189 Y278.5379 I0.1 J0.0002
G2 X234.5689 Y278.4513 I0.05 J-0.0866
G2 X234.4189 Y278.3647 I-0.1 J0.0
G2 X234.3689 Y278.4512 I0.05 J0.0866
G1 F300.0 Z-2.2
G2 F800.0 X234.4189 Y278.5379 I0.1 J0.0002
G2 X234.5689 Y278.4513 I0.05 J-0.0866
G2 X234.4189 Y278.3647 I-0.1 J0.0
G2 X234.3689 Y278.4512 I0.05 J0.0866
G0 Z3.0
G0 X246.9342 Y275.2262
G0 Z1.0
G1 F300.0 Z-1.0
G2 F800.0 X246.9811 Y275.2879 I0.0969 J-0.0249
G2 X247.1311 Y275.2013 I0.05 J-0.0866
G2 X246.9811 Y275.1147 I-0.1 J0.0
G2 X246.9342 Y275.2262 I0.05 J0.0866
G1 F300.0 Z-2.0
G2 F800.0 X246.9811 Y275.2879 I0.0969 J-0.0249
G2 X247.1311 Y275.2013 I0.05 J-0.0866
G2 X246.9811 Y275.1147 I-0.1 J0.0
G2 X246.9342 Y275.2262 I0.05 J0.0866
G1 F300.0 Z-2.2
G2 F800.0 X246.9811 Y275.2879 I0.0969 J-0.0249
G2 X247.1311 Y275.2013 I0.05 J-0.0866
G2 X246.9811 Y275.1147 I-0.1 J0.0
G2 X246.9342 Y275.2262 I0.05 J0.0866
G0 Z3.0
G0 X226.0614 Y302.0582
G0 Z1.0
G1 F300.0 Z-1.0
G2 F800.0 X225.95 Y302.0505 I-0.0614 J0.0789
G2 Y302.2237 I0.05 J0.0866
G2 X226.1 Y302.1371 I0.05 J-0.0866
G2 X226.0614 Y302.0582 I-0.1 J0.0
G1 F300.0 Z-2.0
G2 F800.0 X225.95 Y302.0505 I-0.0614 J0.0789
G2 Y302.2237 I0.05 J0.0866
G2 X226.1 Y302.1371 I0.05 J-0.0866
G2 X226.0614 Y302.0582 I-0.1 J0.0
G1 F300.0 Z-2.2
G2 F800.0 X225.95 Y302.0505 I-0.0614 J0.0789
G2 Y302.2237 I0.05 J0.0866
G2 X226.1 Y302.1371 I0.05 J-0.0866
G2 X226.0614 Y302.0582 I-0.1 J0.0
G0 Z3.0
G0 X196.5932 Y313.4795
G0 Z1.0
G1 F300.0 Z-1.0
G2 F800.0 X196.45 Y313.429 I-0.0932 J0.0361
G2 Y313.6022 I0.05 J0.0866
G2 X196.6 Y313.5156 I0.05 J-0.0866
G2 X196.5932 Y313.4795 I-0.1 J0.0
G1 F300.0 Z-2.0
G2 F800.0 X196.45 Y313.429 I-0.0932 J0.0361
G2 Y313.6022 I0.05 J0.0866
G2 X196.6 Y313.5156 I0.05 J-0.0866
G2 X196.5932 Y313.4795 I-0.1 J0.0
G1 F300.0 Z-2.2
G2 F800.0 X196.45 Y313.429 I-0.0932 J0.0361
G2 Y313.6022 I0.05 J0.0866
G2 X196.6 Y313.5156 I0.05 J-0.0866
G2 X196.5932 Y313.4795 I-0.1 J0.0
G0 Z3.0
G0 X204.9356 Y337.107
G0 Z1.0
G1 F300.0 Z-1.0
G2 F800.0 X204.9189 Y337.1147 I0.0333 J0.0943
G2 Y337.2879 I0.05 J0.0866
G2 X205.0689 Y337.2013 I0.05 J-0.0866
G2 X204.9356 Y337.107 I-0.1 J0.0
G1 F300.0 Z-2.0
G2 F800.0 X204.9189 Y337.1147 I0.0333 J0.0943
G2 Y337.2879 I0.05 J0.0866
G2 X205.0689 Y337.2013 I0.05 J-0.0866
G2 X204.9356 Y337.107 I-0.1 J0.0
G1 F300.0 Z-2.2
G2 F800.0 X204.9189 Y337.1147 I0.0333 J0.0943
G2 Y337.2879 I0.05 J0.0866
G2 X205.0689 Y337.2013 I0.05 J-0.0866
G2 X204.9356 Y337.107 I-0.1 J0.0
G0 Z3.0
G0 X217.4344 Y340.4257
G0 Z1.0
G1 F300.0 Z-1.0
G2 F800.0 X217.4811 Y340.5379 I0.0967 J0.0257
G2 X217.6311 Y340.4513 I0.05 J-0.0866
G2 X217.4811 Y340.3647 I-0.1 J0.0
G2 X217.4344 Y340.4257 I0.05 J0.0866
G1 F300.0 Z-2.0
G2 F800.0 X217.4811 Y340.5379 I0.0967 J0.0257
G2 X217.6311 Y340.4513 I0.05 J-0.0866
G2 X217.4811 Y340.3647 I-0.1 J0.0
G2 X217.4344 Y340.4257 I0.05 J0.0866
G1 F300.0 Z-2.2
G2 F800.0 X217.4811 Y340.5379 I0.0967 J0.0257
G2 X217.6311 Y340.4513 I0.05 J-0.0866
G2 X217.4811 Y340.3647 I-0.1 J0.0
G2 X217.4344 Y340.4257 I0.05 J0.0866
G0 Z3.0
G0 X234.3689 Y340.4512
G0 Z1.0
G1 F300.0 Z-1.0
G2 F800.0 X234.4189 Y340.5379 I0.1 J0.0002
G2 X234.5689 Y340.4513 I0.05 J-0.0866
G2 X234.4189 Y340.3647 I-0.1 J0.0
G2 X234.3689 Y340.4512 I0.05 J0.0866
G1 F300.0 Z-2.0
G2 F800.0 X234.4189 Y340.5379 I0.1 J0.0002
G2 X234.5689 Y340.4513 I0.05 J-0.0866
G2 X234.4189 Y340.3647 I-0.1 J0.0
G2 X234.3689 Y340.4512 I0.05 J0.0866
G1 F300.0 Z-2.2
G2 F800.0 X234.4189 Y340.5379 I0.1 J0.0002
G2 X234.5689 Y340.4513 I0.05 J-0.0866
G2 X234.4189 Y340.3647 I-0.1 J0.0
G2 X234.3689 Y340.4512 I0.05 J0.0866
G0 Z3.0
G0 X246.9342 Y337.2262
G0 Z1.0
G1 F300.0 Z-1.0
G2 F800.0 X246.9811 Y337.2879 I0.0969 J-0.0249
G2 X247.1311 Y337.2013 I0.05 J-0.0866
G2 X246.9811 Y337.1147 I-0.1 J0.0
G2 X246.9342 Y337.2262 I0.05 J0.0866
G1 F300.0 Z-2.0
G2 F800.0 X246.9811 Y337.2879 I0.0969 J-0.0249
G2 X247.1311 Y337.2013 I0.05 J-0.0866
G2 X246.9811 Y337.1147 I-0.1 J0.0
G2 X246.9342 Y337.2262 I0.05 J0.0866
G1 F300.0 Z-2.2
G2 F800.0 X246.9811 Y337.2879 I0.0969 J-0.0249
G2 X247.1311 Y337.2013 I0.05 J-0.0866
G2 X246.9811 Y337.1147 I-0.1 J0.0
G2 X246.9342 Y337.2262 I0.05 J0.0866
G0 Z3.0
G0 X226.0614 Y364.0582
G0 Z1.0
G1 F300.0 Z-1.0
G2 F800.0 X225.95 Y364.0505 I-0.0614 J0.0789
G2 Y364.2237 I0.05 J0.0866
G2 X226.1 Y364.1371 I0.05 J-0.0866
G2 X226.0614 Y364.0582 I-0.1 J0.0
G1 F300.0 Z-2.0
G2 F800.0 X225.95 Y364.0505 I-0.0614 J0.0789
G2 Y364.2237 I0.05 J0.0866
G2 X226.1 Y364.1371 I0.05 J-0.0866
G2 X226.0614 Y364.0582 I-0.1 J0.0
G1 F300.0 Z-2.2
G2 F800.0 X225.95 Y364.0505 I-0.0614 J0.0789
G2 Y364.2237 I0.05 J0.0866
G2 X226.1 Y364.1371 I0.05 J-0.0866
G2 X226.0614 Y364.0582 I-0.1 J0.0
G0 Z3.0
G0 X196.5912 Y377.3224
G0 Z1.0
G1 F300.0 Z-1.0
G2 F800.0 X196.45 Y377.2769 I-0.0912 J0.041
G2 Y377.4501 I0.05 J0.0866
G2 X196.6 Y377.3635 I0.05 J-0.0866
G2 X196.5912 Y377.3224 I-0.1 J0.0
G1 F300.0 Z-2.0
G2 F800.0 X196.45 Y377.2769 I-0.0912 J0.041
G2 Y377.4501 I0.05 J0.0866
G2 X196.6 Y377.3635 I0.05 J-0.0866
G2 X196.5912 Y377.3224 I-0.1 J0.0
G1 F300.0 Z-2.2
G2 F800.0 X196.45 Y377.2769 I-0.0912 J0.041
G2 Y377.4501 I0.05 J0.0866
G2 X196.6 Y377.3635 I0.05 J-0.0866
G2 X196.5912 Y377.3224 I-0.1 J0.0
G0 Z3.0
G0 X168.0908 Y364.179
G0 Z1.0
G1 F300.0 Z-1.0
G2 F800.0 X168.1 Y364.1371 I-0.0908 J-0.0419
G2 X167.95 Y364.0505 I-0.1 J0.0
G2 Y364.2237 I0.05 J0.0866
G2 X168.0908 Y364.179 I0.05 J-0.0866
G1 F300.0 Z-2.0
G2 F800.0 X168.1 Y364.1371 I-0.0908 J-0.0419
G2 X167.95 Y364.0505 I-0.1 J0.0
G2 Y364.2237 I0.05 J0.0866
G2 X168.0908 Y364.179 I0.05 J-0.0866
G1 F300.0 Z-2.2
G2 F800.0 X168.1 Y364.1371 I-0.0908 J-0.0419
G2 X167.95 Y364.0505 I-0.1 J0.0
G2 Y364.2237 I0.05 J0.0866
G2 X168.0908 Y364.179 I0.05 J-0.0866
G0 Z3.0
G0 X176.4356 Y340.5456
G0 Z1.0
G1 F300.0 Z-1.0
G2 F800.0 X176.5689 Y340.4513 I0.0333 J-0.0943
G2 X176.4189 Y340.3647 I-0.1 J0.0
G2 Y340.5379 I0.05 J0.0866
G2 X176.4356 Y340.5456 I0.05 J-0.0866
G1 F300.0 Z-2.0
G2 F800.0 X176.5689 Y340.4513 I0.0333 J-0.0943
G2 X176.4189 Y340.3647 I-0.1 J0.0
G2 Y340.5379 I0.05 J0.0866
G2 X176.4356 Y340.5456 I0.05 J-0.0866
G1 F300.0 Z-2.2
G2 F800.0 X176.5689 Y340.4513 I0.0333 J-0.0943
G2 X176.4189 Y340.3647 I-0.1 J0.0
G2 Y340.5379 I0.05 J0.0866
G2 X176.4356 Y340.5456 I0.05 J-0.0866
G0 Z3.0
G0 X187.935 Y337.229
G0 Z1.0
G1 F300.0 Z-1.0
G2 F800.0 X187.9811 Y337.2879 I0.0961 J-0.0277
G2 X188.1311 Y337.2013 I0.05 J-0.0866
G2 X187.9811 Y337.1147 I-0.1 J0.0
G2 X187.935 Y337.229 I0.05 J0.0866
G1 F300.0 Z-2.0
G2 F800.0 X187.9811 Y337.2879 I0.0961 J-0.0277
G2 X188.1311 Y337.2013 I0.05 J-0.0866
G2 X187.9811 Y337.1147 I-0.1 J0.0
G2 X187.935 Y337.229 I0.05 J0.0866
G1 F300.0 Z-2.2
G2 F800.0 X187.9811 Y337.2879 I0.0961 J-0.0277
G2 X188.1311 Y337.2013 I0.05 J-0.0866
G2 X187.9811 Y337.1147 I-0.1 J0.0
G2 X187.935 Y337.229 I0.05 J0.0866
G0 Z3.0
G0 X159.6304 Y340.4401
G0 Z1.0
G1 F300.0 Z-1.0
G2 F800.0 X159.4811 Y340.3647 I-0.0994 J0.0113
G2 Y340.5379 I0.05 J0.0866
G2 X159.6311 Y340.4513 I0.05 J-0.0866
G2 X159.6304 Y340.4401 I-0.1 J0.0
G1 F300.0 Z-2.0
G2 F800.0 X159.4811 Y340.3647 I-0.0994 J0.0113
G2 Y340.5379 I0.05 J0.0866
G2 X159.6311 Y340.4513 I0.05 J-0.0866
G2 X159.6304 Y340.4401 I-0.1 J0.0
G1 F300.0 Z-2.2
G2 F800.0 X159.4811 Y340.3647 I-0.0994 J0.0113
G2 Y340.5379 I0.05 J0.0866
G2 X159.6311 Y340.4513 I0.05 J-0.0866
G2 X159.6304 Y340.4401 I-0.1 J0.0
G0 Z3.0
G0 X147.0658 Y337.2261
G0 Z1.0
G1 F300.0 Z-1.0
G2 F800.0 X147.0689 Y337.2013 I-0.0969 J-0.0248
G2 X146.9189 Y337.1147 I-0.1 J0.0
G2 Y337.2879 I0.05 J0.0866
G2 X147.0658 Y337.2261 I0.05 J-0.0866
G1 F300.0 Z-2.0
G2 F800.0 X147.0689 Y337.2013 I-0.0969 J-0.0248
G2 X146.9189 Y337.1147 I-0.1 J0.0
G2 Y337.2879 I0.05 J0.0866
G2 X147.0658 Y337.2261 I0.05 J-0.0866
G1 F300.0 Z-2.2
G2 F800.0 X147.0689 Y337.2013 I-0.0969 J-0.0248
G2 X146.9189 Y337.1147 I-0.1 J0.0
G2 Y337.2879 I0.05 J0.0866
G2 X147.0658 Y337.2261 I0.05 J-0.0866
G0 Z3.0
G0 X130.1311 Y337.2015
G0 Z1.0
G1 F300.0 Z-1.0
G2 F800.0 Y337.2013 I-0.1 J-0.0001
G2 X129.9811 Y337.1147 I-0.1 J0.0
G2 Y337.2879 I0.05 J0.0866
G2 X130.1311 Y337.2015 I0.05 J-0.0866
G1 F300.0 Z-2.0
G2 F800.0 Y337.2013 I-0.1 J-0.0001
G2 X129.9811 Y337.1147 I-0.1 J0.0
G2 Y337.2879 I0.05 J0.0866
G2 X130.1311 Y337.2015 I0.05 J-0.0866
G1 F300.0 Z-2.2
G2 F800.0 Y337.2013 I-0.1 J-0.0001
G2 X129.9811 Y337.1147 I-0.1 J0.0
G2 Y337.2879 I0.05 J0.0866
G2 X130.1311 Y337.2015 I0.05 J-0.0866
G0 Z3.0
G0 X118.5653 Y340.4245
G0 Z1.0
G1 F300.0 Z-1.0
G2 F800.0 X118.4189 Y340.3647 I-0.0963 J0.0268
G2 Y340.5379 I0.05 J0.0866
G2 X118.5689 Y340.4513 I0.05 J-0.0866
G2 X118.5653 Y340.4245 I-0.1 J0.0
G1 F300.0 Z-2.0
G2 F800.0 X118.4189 Y340.3647 I-0.0963 J0.0268
G2 Y340.5379 I0.05 J0.0866
G2 X118.5689 Y340.4513 I0.05 J-0.0866
G2 X118.5653 Y340.4245 I-0.1 J0.0
G1 F300.0 Z-2.2
G2 F800.0 X118.4189 Y340.3647 I-0.0963 J0.0268
G2 Y340.5379 I0.05 J0.0866
G2 X118.5689 Y340.4513 I0.05 J-0.0866
G2 X118.5653 Y340.4245 I-0.1 J0.0
G0 Z3.0
G0 X101.6311 Y340.4512
G0 Z1.0
G1 F300.0 Z-1.0
G2 F800.0 X101.4811 Y340.3647 I-0.1 J0.0002
G2 Y340.5379 I0.05 J0.0866
G2 X101.6311 Y340.4513 I0.05 J-0.0866
G2 Y340.4512 I-0.1 J0.0
G1 F300.0 Z-2.0
G2 F800.0 X101.4811 Y340.3647 I-0.1 J0.0002
G2 Y340.5379 I0.05 J0.0866
G2 X101.6311 Y340.4513 I0.05 J-0.0866
G2 Y340.4512 I-0.1 J0.0
G1 F300.0 Z-2.2
G2 F800.0 X101.4811 Y340.3647 I-0.1 J0.0002
G2 Y340.5379 I0.05 J0.0866
G2 X101.6311 Y340.4513 I0.05 J-0.0866
G2 Y340.4512 I-0.1 J0.0
G0 Z3.0
G0 X89.0658 Y337.2262
G0 Z1.0
G1 F300.0 Z-1.0
G2 F800.0 X89.0689 Y337.2013 I-0.0969 J-0.0249
G2 X88.9189 Y337.1147 I-0.1 J0.0
G2 Y337.2879 I0.05 J0.0866
G2 X89.0658 Y337.2262 I0.05 J-0.0866
G1 F300.0 Z-2.0
G2 F800.0 X89.0689 Y337.2013 I-0.0969 J-0.0249
G2 X88.9189 Y337.1147 I-0.1 J0.0
G2 Y337.2879 I0.05 J0.0866
G2 X89.0658 Y337.2262 I0.05 J-0.0866
G1 F300.0 Z-2.2
G2 F800.0 X89.0689 Y337.2013 I-0.0969 J-0.0249
G2 X88.9189 Y337.1147 I-0.1 J0.0
G2 Y337.2879 I0.05 J0.0866
G2 X89.0658 Y337.2262 I0.05 J-0.0866
G0 Z3.0
G0 X72.1311 Y337.2015
G0 Z1.0
G1 F300.0 Z-1.0
G2 F800.0 Y337.2013 I-0.1 J-0.0001
G2 X71.9811 Y337.1147 I-0.1 J0.0
G2 Y337.2879 I0.05 J0.0866
G2 X72.1311 Y337.2015 I0.05 J-0.0866
G1 F300.0 Z-2.0
G2 F800.0 Y337.2013 I-0.1 J-0.0001
G2 X71.9811 Y337.1147 I-0.1 J0.0
G2 Y337.2879 I0.05 J0.0866
G2 X72.1311 Y337.2015 I0.05 J-0.0866
G1 F300.0 Z-2.2
G2 F800.0 Y337.2013 I-0.1 J-0.0001
G2 X71.9811 Y337.1147 I-0.1 J0.0
G2 Y337.2879 I0.05 J0.0866
G2 X72.1311 Y337.2015 I0.05 J-0.0866
G0 Z3.0
G0 X60.5653 Y340.4245
G0 Z1.0
G1 F300.0 Z-1.0
G2 F800.0 X60.4189 Y340.3647 I-0.0963 J0.0268
G2 Y340.5379 I0.05 J0.0866
G2 X60.5689 Y340.4513 I0.05 J-0.0866
G2 X60.5653 Y340.4245 I-0.1 J0.0
G1 F300.0 Z-2.0
G2 F800.0 X60.4189 Y340.3647 I-0.0963 J0.0268
G2 Y340.5379 I0.05 J0.0866
G2 X60.5689 Y340.4513 I0.05 J-0.0866
G2 X60.5653 Y340.4245 I-0.1 J0.0
G1 F300.0 Z-2.2
G2 F800.0 X60.4189 Y340.3647 I-0.0963 J0.0268
G2 Y340.5379 I0.05 J0.0866
G2 X60.5689 Y340.4513 I0.05 J-0.0866
G2 X60.5653 Y340.4245 I-0.1 J0.0
G0 Z3.0
G0 X80.4405 Y313.5959
G0 Z1.0
G1 F300.0 Z-1.0
G2 F800.0 X80.45 Y313.6022 I0.0595 J-0.0804
G2 X80.6 Y313.5156 I0.05 J-0.0866
G2 X80.45 Y313.429 I-0.1 J0.0
G2 X80.4405 Y313.5959 I0.05 J0.0866
G1 F300.0 Z-2.0
G2 F800.0 X80.45 Y313.6022 I0.0595 J-0.0804
G2 X80.6 Y313.5156 I0.05 J-0.0866
G2 X80.45 Y313.429 I-0.1 J0.0
G2 X80.4405 Y313.5959 I0.05 J0.0866
G1 F300.0 Z-2.2
G2 F800.0 X80.45 Y313.6022 I0.0595 J-0.0804
G2 X80.6 Y313.5156 I0.05 J-0.0866
G2 X80.45 Y313.429 I-0.1 J0.0
G2 X80.4405 Y313.5959 I0.05 J0.0866
G0 Z3.0
G0 X109.9068 Y302.1732
G0 Z1.0
G1 F300.0 Z-1.0
G2 F800.0 X109.95 Y302.2237 I0.0932 J-0.0361
G2 X110.1 Y302.1371 I0.05 J-0.0866
G2 X109.95 Y302.0505 I-0.1 J0.0
G2 X109.9068 Y302.1732 I0.05 J0.0866
G1 F300.0 Z-2.0
G2 F800.0 X109.95 Y302.2237 I0.0932 J-0.0361
G2 X110.1 Y302.1371 I0.05 J-0.0866
G2 X109.95 Y302.0505 I-0.1 J0.0
G2 X109.9068 Y302.1732 I0.05 J0.0866
G1 F300.0 Z-2.2
G2 F800.0 X109.95 Y302.2237 I0.0932 J-0.0361
G2 X110.1 Y302.1371 I0.05 J-0.0866
G2 X109.95 Y302.0505 I-0.1 J0.0
G2 X109.9068 Y302.1732 I0.05 J0.0866
G0 Z3.0
G0 X101.5644 Y278.5456
G0 Z1.0
G1 F300.0 Z-1.0
G2 F800.0 X101.6311 Y278.4513 I-0.0333 J-0.0943
G2 X101.4811 Y278.3647 I-0.1 J0.0
G2 Y278.5379 I0.05 J0.0866
G2 X101.5644 Y278.5456 I0.05 J-0.0866
G1 F300.0 Z-2.0
G2 F800.0 X101.6311 Y278.4513 I-0.0333 J-0.0943
G2 X101.4811 Y278.3647 I-0.1 J0.0
G2 Y278.5379 I0.05 J0.0866
G2 X101.5644 Y278.5456 I0.05 J-0.0866
G1 F300.0 Z-2.2
G2 F800.0 X101.6311 Y278.4513 I-0.0333 J-0.0943
G2 X101.4811 Y278.3647 I-0.1 J0.0
G2 Y278.5379 I0.05 J0.0866
G2 X101.5644 Y278.5456 I0.05 J-0.0866
G0 Z3.0
G0 X89.0656 Y275.227
G0 Z1.0
G1 F300.0 Z-1.0
G2 F800.0 X89.0689 Y275.2013 I-0.0967 J-0.0257
G2 X88.9189 Y275.1147 I-0.1 J0.0
G2 Y275.2879 I0.05 J0.0866
G2 X89.0656 Y275.227 I0.05 J-0.0866
G1 F300.0 Z-2.0
G2 F800.0 X89.0689 Y275.2013 I-0.0967 J-0.0257
G2 X88.9189 Y275.1147 I-0.1 J0.0
G2 Y275.2879 I0.05 J0.0866
G2 X89.0656 Y275.227 I0.05 J-0.0866
G1 F300.0 Z-2.2
G2 F800.0 X89.0689 Y275.2013 I-0.0967 J-0.0257
G2 X88.9189 Y275.1147 I-0.1 J0.0
G2 Y275.2879 I0.05 J0.0866
G2 X89.0656 Y275.227 I0.05 J-0.0866
G0 Z3.0
G0 X72.1311 Y275.2015
G0 Z1.0
G1 F300.0 Z-1.0
G2 F800.0 Y275.2013 I-0.1 J-0.0002
G2 X71.9811 Y275.1147 I-0.1 J0.0
G2 Y275.2879 I0.05 J0.0866
G2 X72.1311 Y275.2015 I0.05 J-0.0866
G1 F300.0 Z-2.0
G2 F800.0 Y275.2013 I-0.1 J-0.0002
G2 X71.9811 Y275.1147 I-0.1 J0.0
G2 Y275.2879 I0.05 J0.0866
G2 X72.1311 Y275.2015 I0.05 J-0.0866
G1 F300.0 Z-2.2
G2 F800.0 Y275.2013 I-0.1 J-0.0002
G2 X71.9811 Y275.1147 I-0.1 J0.0
G2 Y275.2879 I0.05 J0.0866
G2 X72.1311 Y275.2015 I0.05 J-0.0866
G0 Z3.0
G0 X60.5653 Y278.4245
G0 Z1.0
G1 F300.0 Z-1.0
G2 F800.0 X60.4189 Y278.3647 I-0.0963 J0.0268
G2 Y278.5379 I0.05 J0.0866
G2 X60.5689 Y278.4513 I0.05 J-0.0866
G2 X60.5653 Y278.4245 I-0.1 J0.0
G1 F300.0 Z-2.0
G2 F800.0 X60.4189 Y278.3647 I-0.0963 J0.0268
G2 Y278.5379 I0.05 J0.0866
G2 X60.5689 Y278.4513 I0.05 J-0.0866
G2 X60.5653 Y278.4245 I-0.1 J0.0
G1 F300.0 Z-2.2
G2 F800.0 X60.4189 Y278.3647 I-0.0963 J0.0268
G2 Y278.5379 I0.05 J0.0866
G2 X60.5689 Y278.4513 I0.05 J-0.0866
G2 X60.5653 Y278.4245 I-0.1 J0.0
G0 Z3.0
G0 X80.4405 Y251.5959
G0 Z1.0
G1 F300.0 Z-1.0
G2 F800.0 X80.45 Y251.6022 I0.0595 J-0.0804
G2 X80.6 Y251.5156 I0.05 J-0.0866
G2 X80.45 Y251.429 I-0.1 J0.0
G2 X80.4405 Y251.5959 I0.05 J0.0866
G1 F300.0 Z-2.0
G2 F800.0 X80.45 Y251.6022 I0.0595 J-0.0804
G2 X80.6 Y251.5156 I0.05 J-0.0866
G2 X80.45 Y251.429 I-0.1 J0.0
G2 X80.4405 Y251.5959 I0.05 J0.0866
G1 F300.0 Z-2.2
G2 F800.0 X80.45 Y251.6022 I0.0595 J-0.0804
G2 X80.6 Y251.5156 I0.05 J-0.0866
G2 X80.45 Y251.429 I-0.1 J0.0
G2 X80.4405 Y251.5959 I0.05 J0.0866
G0 Z3.0
G0 X109.9072 Y239.7234
G0 Z1.0
G1 F300.0 Z-1.0
G2 F800.0 X109.95 Y239.7726 I0.0928 J-0.0374
G2 X110.1 Y239.686 I0.05 J-0.0866
G2 X109.95 Y239.5994 I-0.1 J0.0
G2 X109.9072 Y239.7234 I0.05 J0.0866
G1 F300.0 Z-2.0
G2 F800.0 X109.95 Y239.7726 I0.0928 J-0.0374
G2 X110.1 Y239.686 I0.05 J-0.0866
G2 X109.95 Y239.5994 I-0.1 J0.0
G2 X109.9072 Y239.7234 I0.05 J0.0866
G1 F300.0 Z-2.2
G2 F800.0 X109.95 Y239.7726 I0.0928 J-0.0374
G2 X110.1 Y239.686 I0.05 J-0.0866
G2 X109.95 Y239.5994 I-0.1 J0.0
G2 X109.9072 Y239.7234 I0.05 J0.0866
G0 Z3.0
G0 X101.5644 Y216.0945
G0 Z1.0
G1 F300.0 Z-1.0
G2 F800.0 X101.6311 Y216.0002 I-0.0333 J-0.0943
G2 X101.4811 Y215.9136 I-0.1 J0.0
G2 Y216.0868 I0.05 J0.0866
G2 X101.5644 Y216.0945 I0.05 J-0.0866
G1 F300.0 Z-2.0
G2 F800.0 X101.6311 Y216.0002 I-0.0333 J-0.0943
G2 X101.4811 Y215.9136 I-0.1 J0.0
G2 Y216.0868 I0.05 J0.0866
G2 X101.5644 Y216.0945 I0.05 J-0.0866
G1 F300.0 Z-2.2
G2 F800.0 X101.6311 Y216.0002 I-0.0333 J-0.0943
G2 X101.4811 Y215.9136 I-0.1 J0.0
G2 Y216.0868 I0.05 J0.0866
G2 X101.5644 Y216.0945 I0.05 J-0.0866
G0 Z3.0
G0 X89.0656 Y212.7759
G0 Z1.0
G1 F300.0 Z-1.0
G2 F800.0 X89.0689 Y212.7502 I-0.0967 J-0.0257
G2 X88.9189 Y212.6636 I-0.1 J0.0
G2 Y212.8368 I0.05 J0.0866
G2 X89.0656 Y212.7759 I0.05 J-0.0866
G1 F300.0 Z-2.0
G2 F800.0 X89.0689 Y212.7502 I-0.0967 J-0.0257
G2 X88.9189 Y212.6636 I-0.1 J0.0
G2 Y212.8368 I0.05 J0.0866
G2 X89.0656 Y212.7759 I0.05 J-0.0866
G1 F300.0 Z-2.2
G2 F800.0 X89.0689 Y212.7502 I-0.0967 J-0.0257
G2 X88.9189 Y212.6636 I-0.1 J0.0
G2 Y212.8368 I0.05 J0.0866
G2 X89.0656 Y212.7759 I0.05 J-0.0866
G0 Z3.0
G0 X72.1311 Y212.7504
G0 Z1.0
G1 F300.0 Z-1.0
G2 F800.0 Y212.7502 I-0.1 J-0.0002
G2 X71.9811 Y212.6636 I-0.1 J0.0
G2 Y212.8368 I0.05 J0.0866
G2 X72.1311 Y212.7504 I0.05 J-0.0866
G1 F300.0 Z-2.0
G2 F800.0 Y212.7502 I-0.1 J-0.0002
G2 X71.9811 Y212.6636 I-0.1 J0.0
G2 Y212.8368 I0.05 J0.0866
G2 X72.1311 Y212.7504 I0.05 J-0.0866
G1 F300.0 Z-2.2
G2 F800.0 Y212.7502 I-0.1 J-0.0002
G2 X71.9811 Y212.6636 I-0.1 J0.0
G2 Y212.8368 I0.05 J0.0866
G2 X72.1311 Y212.7504 I0.05 J-0.0866
G0 Z3.0
G0 X60.5653 Y215.9734
G0 Z1.0
G1 F300.0 Z-1.0
G2 F800.0 X60.4189 Y215.9136 I-0.0963 J0.0268
G2 Y216.0868 I0.05 J0.0866
G2 X60.5689 Y216.0002 I0.05 J-0.0866
G2 X60.5653 Y215.9734 I-0.1 J0.0
G1 F300.0 Z-2.0
G2 F800.0 X60.4189 Y215.9136 I-0.0963 J0.0268
G2 Y216.0868 I0.05 J0.0866
G2 X60.5689 Y216.0002 I0.05 J-0.0866
G2 X60.5653 Y215.9734 I-0.1 J0.0
G1 F300.0 Z-2.2
G2 F800.0 X60.4189 Y215.9136 I-0.0963 J0.0268
G2 Y216.0868 I0.05 J0.0866
G2 X60.5689 Y216.0002 I0.05 J-0.0866
G2 X60.5653 Y215.9734 I-0.1 J0.0
G0 Z3.0
G0 X80.4405 Y189.1449
G0 Z1.0
G1 F300.0 Z-1.0
G2 F800.0 X80.45 Y189.1511 I0.0595 J-0.0804
G2 X80.6 Y189.0645 I0.05 J-0.0866
G2 X80.45 Y188.9779 I-0.1 J0.0
G2 X80.4405 Y189.1449 I0.05 J0.0866
G1 F300.0 Z-2.0
G2 F800.0 X80.45 Y189.1511 I0.0595 J-0.0804
G2 X80.6 Y189.0645 I0.05 J-0.0866
G2 X80.45 Y188.9779 I-0.1 J0.0
G2 X80.4405 Y189.1449 I0.05 J0.0866
G1 F300.0 Z-2.2
G2 F800.0 X80.45 Y189.1511 I0.0595 J-0.0804
G2 X80.6 Y189.0645 I0.05 J-0.0866
G2 X80.45 Y188.9779 I-0.1 J0.0
G2 X80.4405 Y189.1449 I0.05 J0.0866
G0 Z3.0
G0 X109.9068 Y177.7221
G0 Z1.0
G1 F300.0 Z-1.0
G2 F800.0 X109.95 Y177.7726 I0.0932 J-0.0361
G2 X110.1 Y177.686 I0.05 J-0.0866
G2 X109.95 Y177.5994 I-0.1 J0.0
G2 X109.9068 Y177.7221 I0.05 J0.0866
G1 F300.0 Z-2.0
G2 F800.0 X109.95 Y177.7726 I0.0932 J-0.0361
G2 X110.1 Y177.686 I0.05 J-0.0866
G2 X109.95 Y177.5994 I-0.1 J0.0
G2 X109.9068 Y177.7221 I0.05 J0.0866
G1 F300.0 Z-2.2
G2 F800.0 X109.95 Y177.7726 I0.0932 J-0.0361
G2 X110.1 Y177.686 I0.05 J-0.0866
G2 X109.95 Y177.5994 I-0.1 J0.0
G2 X109.9068 Y177.7221 I0.05 J0.0866
G0 Z3.0
G0 X101.5644 Y154.0945
G0 Z1.0
G1 F300.0 Z-1.0
G2 F800.0 X101.6311 Y154.0002 I-0.0333 J-0.0943
G2 X101.4811 Y153.9136 I-0.1 J0.0
G2 Y154.0868 I0.05 J0.0866
G2 X101.5644 Y154.0945 I0.05 J-0.0866
G1 F300.0 Z-2.0
G2 F800.0 X101.6311 Y154.0002 I-0.0333 J-0.0943
G2 X101.4811 Y153.9136 I-0.1 J0.0
G2 Y154.0868 I0.05 J0.0866
G2 X101.5644 Y154.0945 I0.05 J-0.0866
G1 F300.0 Z-2.2
G2 F800.0 X101.6311 Y154.0002 I-0.0333 J-0.0943
G2 X101.4811 Y153.9136 I-0.1 J0.0
G2 Y154.0868 I0.05 J0.0866
G2 X101.5644 Y154.0945 I0.05 J-0.0866
G0 Z3.0
G0 X89.0656 Y150.7759
G0 Z1.0
G1 F300.0 Z-1.0
G2 F800.0 X89.0689 Y150.7502 I-0.0967 J-0.0257
G2 X88.9189 Y150.6636 I-0.1 J0.0
G2 Y150.8368 I0.05 J0.0866
G2 X89.0656 Y150.7759 I0.05 J-0.0866
G1 F300.0 Z-2.0
G2 F800.0 X89.0689 Y150.7502 I-0.0967 J-0.0257
G2 X88.9189 Y150.6636 I-0.1 J0.0
G2 Y150.8368 I0.05 J0.0866
G2 X89.0656 Y150.7759 I0.05 J-0.0866
G1 F300.0 Z-2.2
G2 F800.0 X89.0689 Y150.7502 I-0.0967 J-0.0257
G2 X88.9189 Y150.6636 I-0.1 J0.0
G2 Y150.8368 I0.05 J0.0866
G2 X89.0656 Y150.7759 I0.05 J-0.0866
G0 Z3.0
G0 X72.1311 Y150.7504
G0 Z1.0
G1 F300.0 Z-1.0
G2 F800.0 Y150.7502 I-0.1 J-0.0002
G2 X71.9811 Y150.6636 I-0.1 J0.0
G2 Y150.8368 I0.05 J0.0866
G2 X72.1311 Y150.7504 I0.05 J-0.0866
G1 F300.0 Z-2.0
G2 F800.0 Y150.7502 I-0.1 J-0.0002
G2 X71.9811 Y150.6636 I-0.1 J0.0
G2 Y150.8368 I0.05 J0.0866
G2 X72.1311 Y150.7504 I0.05 J-0.0866
G1 F300.0 Z-2.2
G2 F800.0 Y150.7502 I-0.1 J-0.0002
G2 X71.9811 Y150.6636 I-0.1 J0.0
G2 Y150.8368 I0.05 J0.0866
G2 X72.1311 Y150.7504 I0.05 J-0.0866
G0 Z3.0
G0 X60.5653 Y153.9734
G0 Z1.0
G1 F300.0 Z-1.0
G2 F800.0 X60.4189 Y153.9136 I-0.0963 J0.0268
G2 Y154.0868 I0.05 J0.0866
G2 X60.5689 Y154.0002 I0.05 J-0.0866
G2 X60.5653 Y153.9734 I-0.1 J0.0
G1 F300.0 Z-2.0
G2 F800.0 X60.4189 Y153.9136 I-0.0963 J0.0268
G2 Y154.0868 I0.05 J0.0866
G2 X60.5689 Y154.0002 I0.05 J-0.0866
G2 X60.5653 Y153.9734 I-0.1 J0.0
G1 F300.0 Z-2.2
G2 F800.0 X60.4189 Y153.9136 I-0.0963 J0.0268
G2 Y154.0868 I0.05 J0.0866
G2 X60.5689 Y154.0002 I0.05 J-0.0866
G2 X60.5653 Y153.9734 I-0.1 J0.0
G0 Z3.0
G0 X80.4405 Y127.1449
G0 Z1.0
G1 F300.0 Z-1.0
G2 F800.0 X80.45 Y127.1511 I0.0595 J-0.0804
G2 X80.6 Y127.0645 I0.05 J-0.0866
G2 X80.45 Y126.9779 I-0.1 J0.0
G2 X80.4405 Y127.1449 I0.05 J0.0866
G1 F300.0 Z-2.0
G2 F800.0 X80.45 Y127.1511 I0.0595 J-0.0804
G2 X80.6 Y127.0645 I0.05 J-0.0866
G2 X80.45 Y126.9779 I-0.1 J0.0
G2 X80.4405 Y127.1449 I0.05 J0.0866
G1 F300.0 Z-2.2
G2 F800.0 X80.45 Y127.1511 I0.0595 J-0.0804
G2 X80.6 Y127.0645 I0.05 J-0.0866
G2 X80.45 Y126.9779 I-0.1 J0.0
G2 X80.4405 Y127.1449 I0.05 J0.0866
G0 Z3.0
G0 X109.9068 Y115.6578
G0 Z1.0
G1 F300.0 Z-1.0
G2 F800.0 X109.95 Y115.7081 I0.0932 J-0.0363
G2 X110.1 Y115.6215 I0.05 J-0.0866
G2 X109.95 Y115.5349 I-0.1 J0.0
G2 X109.9068 Y115.6578 I0.05 J0.0866
G1 F300.0 Z-2.0
G2 F800.0 X109.95 Y115.7081 I0.0932 J-0.0363
G2 X110.1 Y115.6215 I0.05 J-0.0866
G2 X109.95 Y115.5349 I-0.1 J0.0
G2 X109.9068 Y115.6578 I0.05 J0.0866
G1 F300.0 Z-2.2
G2 F800.0 X109.95 Y115.7081 I0.0932 J-0.0363
G2 X110.1 Y115.6215 I0.05 J-0.0866
G2 X109.95 Y115.5349 I-0.1 J0.0
G2 X109.9068 Y115.6578 I0.05 J0.0866
G0 Z3.0
G0 X138.4071 Y127.0274
G0 Z1.0
G1 F300.0 Z-1.0
G2 F800.0 X138.45 Y127.1511 I0.0929 J0.0371
G2 X138.6 Y127.0645 I0.05 J-0.0866
G2 X138.45 Y126.9779 I-0.1 J0.0
G2 X138.4071 Y127.0274 I0.05 J0.0866
G1 F300.0 Z-2.0
G2 F800.0 X138.45 Y127.1511 I0.0929 J0.0371
G2 X138.6 Y127.0645 I0.05 J-0.0866
G2 X138.45 Y126.9779 I-0.1 J0.0
G2 X138.4071 Y127.0274 I0.05 J0.0866
G1 F300.0 Z-2.2
G2 F800.0 X138.45 Y127.1511 I0.0929 J0.0371
G2 X138.6 Y127.0645 I0.05 J-0.0866
G2 X138.45 Y126.9779 I-0.1 J0.0
G2 X138.4071 Y127.0274 I0.05 J0.0866
G0 Z3.0
G0 X130.0644 Y150.6559
G0 Z1.0
G1 F300.0 Z-1.0
G2 F800.0 X129.9811 Y150.6636 I-0.0333 J0.0943
G2 Y150.8368 I0.05 J0.0866
G2 X130.1311 Y150.7502 I0.05 J-0.0866
G2 X130.0644 Y150.6559 I-0.1 J0.0
G1 F300.0 Z-2.0
G2 F800.0 X129.9811 Y150.6636 I-0.0333 J0.0943
G2 Y150.8368 I0.05 J0.0866
G2 X130.1311 Y150.7502 I0.05 J-0.0866
G2 X130.0644 Y150.6559 I-0.1 J0.0
G1 F300.0 Z-2.2
G2 F800.0 X129.9811 Y150.6636 I-0.0333 J0.0943
G2 Y150.8368 I0.05 J0.0866
G2 X130.1311 Y150.7502 I0.05 J-0.0866
G2 X130.0644 Y150.6559 I-0.1 J0.0
G0 Z3.0
G0 X118.565 Y153.9725
G0 Z1.0
G1 F300.0 Z-1.0
G2 F800.0 X118.4189 Y153.9136 I-0.0961 J0.0277
G2 Y154.0868 I0.05 J0.0866
G2 X118.5689 Y154.0002 I0.05 J-0.0866
G2 X118.565 Y153.9725 I-0.1 J0.0
G1 F300.0 Z-2.0
G2 F800.0 X118.4189 Y153.9136 I-0.0961 J0.0277
G2 Y154.0868 I0.05 J0.0866
G2 X118.5689 Y154.0002 I0.05 J-0.0866
G2 X118.565 Y153.9725 I-0.1 J0.0
G1 F300.0 Z-2.2
G2 F800.0 X118.4189 Y153.9136 I-0.0961 J0.0277
G2 Y154.0868 I0.05 J0.0866
G2 X118.5689 Y154.0002 I0.05 J-0.0866
G2 X118.565 Y153.9725 I-0.1 J0.0
G0 Z3.0
G0 X146.8696 Y150.7615
G0 Z1.0
G1 F300.0 Z-1.0
G2 F800.0 X146.9189 Y150.8368 I0.0994 J-0.0113
G2 X147.0689 Y150.7502 I0.05 J-0.0866
G2 X146.9189 Y150.6636 I-0.1 J0.0
G2 X146.8696 Y150.7615 I0.05 J0.0866
G1 F300.0 Z-2.0
G2 F800.0 X146.9189 Y150.8368 I0.0994 J-0.0113
G2 X147.0689 Y150.7502 I0.05 J-0.0866
G2 X146.9189 Y150.6636 I-0.1 J0.0
G2 X146.8696 Y150.7615 I0.05 J0.0866
G1 F300.0 Z-2.2
G2 F800.0 X146.9189 Y150.8368 I0.0994 J-0.0113
G2 X147.0689 Y150.7502 I0.05 J-0.0866
G2 X146.9189 Y150.6636 I-0.1 J0.0
G2 X146.8696 Y150.7615 I0.05 J0.0866
G0 Z3.0
G0 X159.4342 Y153.9755
G0 Z1.0
G1 F300.0 Z-1.0
G2 F800.0 X159.4811 Y154.0868 I0.0969 J0.0248
G2 X159.6311 Y154.0002 I0.05 J-0.0866
G2 X159.4811 Y153.9136 I-0.1 J0.0
G2 X159.4342 Y153.9755 I0.05 J0.0866
G1 F300.0 Z-2.0
G2 F800.0 X159.4811 Y154.0868 I0.0969 J0.0248
G2 X159.6311 Y154.0002 I0.05 J-0.0866
G2 X159.4811 Y153.9136 I-0.1 J0.0
G2 X159.4342 Y153.9755 I0.05 J0.0866
G1 F300.0 Z-2.2
G2 F800.0 X159.4811 Y154.0868 I0.0969 J0.0248
G2 X159.6311 Y154.0002 I0.05 J-0.0866
G2 X159.4811 Y153.9136 I-0.1 J0.0
G2 X159.4342 Y153.9755 I0.05 J0.0866
G0 Z3.0
G0 X176.3689 Y154.0001
G0 Z1.0
G1 F300.0 Z-1.0
G2 F800.0 X176.4189 Y154.0868 I0.1 J0.0001
G2 X176.5689 Y154.0002 I0.05 J-0.0866
G2 X176.4189 Y153.9136 I-0.1 J0.0
G2 X176.3689 Y154.0001 I0.05 J0.0866
G1 F300.0 Z-2.0
G2 F800.0 X176.4189 Y154.0868 I0.1 J0.0001
G2 X176.5689 Y154.0002 I0.05 J-0.0866
G2 X176.4189 Y153.9136 I-0.1 J0.0
G2 X176.3689 Y154.0001 I0.05 J0.0866
G1 F300.0 Z-2.2
G2 F800.0 X176.4189 Y154.0868 I0.1 J0.0001
G2 X176.5689 Y154.0002 I0.05 J-0.0866
G2 X176.4189 Y153.9136 I-0.1 J0.0
G2 X176.3689 Y154.0001 I0.05 J0.0866
G0 Z3.0
G0 X187.9347 Y150.7771
G0 Z1.0
G1 F300.0 Z-1.0
G2 F800.0 X187.9811 Y150.8368 I0.0963 J-0.0268
G2 X188.1311 Y150.7502 I0.05 J-0.0866
G2 X187.9811 Y150.6636 I-0.1 J0.0
G2 X187.9347 Y150.7771 I0.05 J0.0866
G1 F300.0 Z-2.0
G2 F800.0 X187.9811 Y150.8368 I0.0963 J-0.0268
G2 X188.1311 Y150.7502 I0.05 J-0.0866
G2 X187.9811 Y150.6636 I-0.1 J0.0
G2 X187.9347 Y150.7771 I0.05 J0.0866
G1 F300.0 Z-2.2
G2 F800.0 X187.9811 Y150.8368 I0.0963 J-0.0268
G2 X188.1311 Y150.7502 I0.05 J-0.0866
G2 X187.9811 Y150.6636 I-0.1 J0.0
G2 X187.9347 Y150.7771 I0.05 J0.0866
G0 Z3.0
G0 X168.0595 Y177.6056
G0 Z1.0
G1 F300.0 Z-1.0
G2 F800.0 X167.95 Y177.5994 I-0.0595 J0.0804
G2 Y177.7726 I0.05 J0.0866
G2 X168.1 Y177.686 I0.05 J-0.0866
G2 X168.0595 Y177.6056 I-0.1 J0.0
G1 F300.0 Z-2.0
G2 F800.0 X167.95 Y177.5994 I-0.0595 J0.0804
G2 Y177.7726 I0.05 J0.0866
G2 X168.1 Y177.686 I0.05 J-0.0866
G2 X168.0595 Y177.6056 I-0.1 J0.0
G1 F300.0 Z-2.2
G2 F800.0 X167.95 Y177.5994 I-0.0595 J0.0804
G2 Y177.7726 I0.05 J0.0866
G2 X168.1 Y177.686 I0.05 J-0.0866
G2 X168.0595 Y177.6056 I-0.1 J0.0
G0 Z3.0
G0 X138.5932 Y189.0284
G0 Z1.0
G1 F300.0 Z-1.0
G2 F800.0 X138.45 Y188.9779 I-0.0932 J0.0361
G2 Y189.1511 I0.05 J0.0866
G2 X138.6 Y189.0645 I0.05 J-0.0866
G2 X138.5932 Y189.0284 I-0.1 J0.0
G1 F300.0 Z-2.0
G2 F800.0 X138.45 Y188.9779 I-0.0932 J0.0361
G2 Y189.1511 I0.05 J0.0866
G2 X138.6 Y189.0645 I0.05 J-0.0866
G2 X138.5932 Y189.0284 I-0.1 J0.0
G1 F300.0 Z-2.2
G2 F800.0 X138.45 Y188.9779 I-0.0932 J0.0361
G2 Y189.1511 I0.05 J0.0866
G2 X138.6 Y189.0645 I0.05 J-0.0866
G2 X138.5932 Y189.0284 I-0.1 J0.0
G0 Z3.0
G0 X146.9356 Y212.6559
G0 Z1.0
G1 F300.0 Z-1.0
G2 F800.0 X146.9189 Y212.6636 I0.0333 J0.0943
G2 Y212.8368 I0.05 J0.0866
G2 X147.0689 Y212.7502 I0.05 J-0.0866
G2 X146.9356 Y212.6559 I-0.1 J0.0
G1 F300.0 Z-2.0
G2 F800.0 X146.9189 Y212.6636 I0.0333 J0.0943
G2 Y212.8368 I0.05 J0.0866
G2 X147.0689 Y212.7502 I0.05 J-0.0866
G2 X146.9356 Y212.6559 I-0.1 J0.0
G1 F300.0 Z-2.2
G2 F800.0 X146.9189 Y212.6636 I0.0333 J0.0943
G2 Y212.8368 I0.05 J0.0866
G2 X147.0689 Y212.7502 I0.05 J-0.0866
G2 X146.9356 Y212.6559 I-0.1 J0.0
G0 Z3.0
G0 X159.4344 Y215.9746
G0 Z1.0
G1 F300.0 Z-1.0
G2 F800.0 X159.4811 Y216.0868 I0.0967 J0.0257
G2 X159.6311 Y216.0002 I0.05 J-0.0866
G2 X159.4811 Y215.9136 I-0.1 J0.0
G2 X159.4344 Y215.9746 I0.05 J0.0866
G1 F300.0 Z-2.0
G2 F800.0 X159.4811 Y216.0868 I0.0967 J0.0257
G2 X159.6311 Y216.0002 I0.05 J-0.0866
G2 X159.4811 Y215.9136 I-0.1 J0.0
G2 X159.4344 Y215.9746 I0.05 J0.0866
G1 F300.0 Z-2.2
G2 F800.0 X159.4811 Y216.0868 I0.0967 J0.0257
G2 X159.6311 Y216.0002 I0.05 J-0.0866
G2 X159.4811 Y215.9136 I-0.1 J0.0
G2 X159.4344 Y215.9746 I0.05 J0.0866
G0 Z3.0
G0 X176.3689 Y216.0001
G0 Z1.0
G1 F300.0 Z-1.0
G2 F800.0 X176.4189 Y216.0868 I0.1 J0.0002
G2 X176.5689 Y216.0002 I0.05 J-0.0866
G2 X176.4189 Y215.9136 I-0.1 J0.0
G2 X176.3689 Y216.0001 I0.05 J0.0866
G1 F300.0 Z-2.0
G2 F800.0 X176.4189 Y216.0868 I0.1 J0.0002
G2 X176.5689 Y216.0002 I0.05 J-0.0866
G2 X176.4189 Y215.9136 I-0.1 J0.0
G2 X176.3689 Y216.0001 I0.05 J0.0866
G1 F300.0 Z-2.2
G2 F800.0 X176.4189 Y216.0868 I0.1 J0.0002
G2 X176.5689 Y216.0002 I0.05 J-0.0866
G2 X176.4189 Y215.9136 I-0.1 J0.0
G2 X176.3689 Y216.0001 I0.05 J0.0866
G0 Z3.0
G0 X187.9347 Y212.7771
G0 Z1.0
G1 F300.0 Z-1.0
G2 F800.0 X187.9811 Y212.8368 I0.0963 J-0.0268
G2 X188.1311 Y212.7502 I0.05 J-0.0866
G2 X187.9811 Y212.6636 I-0.1 J0.0
G2 X187.9347 Y212.7771 I0.05 J0.0866
G1 F300.0 Z-2.0
G2 F800.0 X187.9811 Y212.8368 I0.0963 J-0.0268
G2 X188.1311 Y212.7502 I0.05 J-0.0866
G2 X187.9811 Y212.6636 I-0.1 J0.0
G2 X187.9347 Y212.7771 I0.05 J0.0866
G1 F300.0 Z-2.2
G2 F800.0 X187.9811 Y212.8368 I0.0963 J-0.0268
G2 X188.1311 Y212.7502 I0.05 J-0.0866
G2 X187.9811 Y212.6636 I-0.1 J0.0
G2 X187.9347 Y212.7771 I0.05 J0.0866
G0 Z3.0
G0 X168.0595 Y239.6056
G0 Z1.0
G1 F300.0 Z-1.0
G2 F800.0 X167.95 Y239.5994 I-0.0595 J0.0804
G2 Y239.7726 I0.05 J0.0866
G2 X168.1 Y239.686 I0.05 J-0.0866
G2 X168.0595 Y239.6056 I-0.1 J0.0
G1 F300.0 Z-2.0
G2 F800.0 X167.95 Y239.5994 I-0.0595 J0.0804
G2 Y239.7726 I0.05 J0.0866
G2 X168.1 Y239.686 I0.05 J-0.0866
G2 X168.0595 Y239.6056 I-0.1 J0.0
G1 F300.0 Z-2.2
G2 F800.0 X167.95 Y239.5994 I-0.0595 J0.0804
G2 Y239.7726 I0.05 J0.0866
G2 X168.1 Y239.686 I0.05 J-0.0866
G2 X168.0595 Y239.6056 I-0.1 J0.0
G0 Z3.0
G0 X138.5928 Y251.4782
G0 Z1.0
G1 F300.0 Z-1.0
G2 F800.0 X138.45 Y251.429 I-0.0928 J0.0374
G2 Y251.6022 I0.05 J0.0866
G2 X138.6 Y251.5156 I0.05 J-0.0866
G2 X138.5928 Y251.4782 I-0.1 J0.0
G1 F300.0 Z-2.0
G2 F800.0 X138.45 Y251.429 I-0.0928 J0.0374
G2 Y251.6022 I0.05 J0.0866
G2 X138.6 Y251.5156 I0.05 J-0.0866
G2 X138.5928 Y251.4782 I-0.1 J0.0
G1 F300.0 Z-2.2
G2 F800.0 X138.45 Y251.429 I-0.0928 J0.0374
G2 Y251.6022 I0.05 J0.0866
G2 X138.6 Y251.5156 I0.05 J-0.0866
G2 X138.5928 Y251.4782 I-0.1 J0.0
G0 Z3.0
G0 X146.9356 Y275.107
G0 Z1.0
G1 F300.0 Z-1.0
G2 F800.0 X146.9189 Y275.1147 I0.0333 J0.0943
G2 Y275.2879 I0.05 J0.0866
G2 X147.0689 Y275.2013 I0.05 J-0.0866
G2 X146.9356 Y275.107 I-0.1 J0.0
G1 F300.0 Z-2.0
G2 F800.0 X146.9189 Y275.1147 I0.0333 J0.0943
G2 Y275.2879 I0.05 J0.0866
G2 X147.0689 Y275.2013 I0.05 J-0.0866
G2 X146.9356 Y275.107 I-0.1 J0.0
G1 F300.0 Z-2.2
G2 F800.0 X146.9189 Y275.1147 I0.0333 J0.0943
G2 Y275.2879 I0.05 J0.0866
G2 X147.0689 Y275.2013 I0.05 J-0.0866
G2 X146.9356 Y275.107 I-0.1 J0.0
G0 Z3.0
G0 X159.4344 Y278.4257
G0 Z1.0
G1 F300.0 Z-1.0
G2 F800.0 X159.4811 Y278.5379 I0.0967 J0.0257
G2 X159.6311 Y278.4513 I0.05 J-0.0866
G2 X159.4811 Y278.3647 I-0.1 J0.0
G2 X159.4344 Y278.4257 I0.05 J0.0866
G1 F300.0 Z-2.0
G2 F800.0 X159.4811 Y278.5379 I0.0967 J0.0257
G2 X159.6311 Y278.4513 I0.05 J-0.0866
G2 X159.4811 Y278.3647 I-0.1 J0.0
G2 X159.4344 Y278.4257 I0.05 J0.0866
G1 F300.0 Z-2.2
G2 F800.0 X159.4811 Y278.5379 I0.0967 J0.0257
G2 X159.6311 Y278.4513 I0.05 J-0.0866
G2 X159.4811 Y278.3647 I-0.1 J0.0
G2 X159.4344 Y278.4257 I0.05 J0.0866
G0 Z3.0
G0 X176.3689 Y278.4512
G0 Z1.0
G1 F300.0 Z-1.0
G2 F800.0 X176.4189 Y278.5379 I0.1 J0.0002
G2 X176.5689 Y278.4513 I0.05 J-0.0866
G2 X176.4189 Y278.3647 I-0.1 J0.0
G2 X176.3689 Y278.4512 I0.05 J0.0866
G1 F300.0 Z-2.0
G2 F800.0 X176.4189 Y278.5379 I0.1 J0.0002
G2 X176.5689 Y278.4513 I0.05 J-0.0866
G2 X176.4189 Y278.3647 I-0.1 J0.0
G2 X176.3689 Y278.4512 I0.05 J0.0866
G1 F300.0 Z-2.2
G2 F800.0 X176.4189 Y278.5379 I0.1 J0.0002
G2 X176.5689 Y278.4513 I0.05 J-0.0866
G2 X176.4189 Y278.3647 I-0.1 J0.0
G2 X176.3689 Y278.4512 I0.05 J0.0866
G0 Z3.0
G0 X187.9347 Y275.2282
G0 Z1.0
G1 F300.0 Z-1.0
G2 F800.0 X187.9811 Y275.2879 I0.0963 J-0.0268
G2 X188.1311 Y275.2013 I0.05 J-0.0866
G2 X187.9811 Y275.1147 I-0.1 J0.0
G2 X187.9347 Y275.2282 I0.05 J0.0866
G1 F300.0 Z-2.0
G2 F800.0 X187.9811 Y275.2879 I0.0963 J-0.0268
G2 X188.1311 Y275.2013 I0.05 J-0.0866
G2 X187.9811 Y275.1147 I-0.1 J0.0
G2 X187.9347 Y275.2282 I0.05 J0.0866
G1 F300.0 Z-2.2
G2 F800.0 X187.9811 Y275.2879 I0.0963 J-0.0268
G2 X188.1311 Y275.2013 I0.05 J-0.0866
G2 X187.9811 Y275.1147 I-0.1 J0.0
G2 X187.9347 Y275.2282 I0.05 J0.0866
G0 Z3.0
G0 X168.0595 Y302.0567
G0 Z1.0
G1 F300.0 Z-1.0
G2 F800.0 X167.95 Y302.0505 I-0.0595 J0.0804
G2 Y302.2237 I0.05 J0.0866
G2 X168.1 Y302.1371 I0.05 J-0.0866
G2 X168.0595 Y302.0567 I-0.1 J0.0
G1 F300.0 Z-2.0
G2 F800.0 X167.95 Y302.0505 I-0.0595 J0.0804
G2 Y302.2237 I0.05 J0.0866
G2 X168.1 Y302.1371 I0.05 J-0.0866
G2 X168.0595 Y302.0567 I-0.1 J0.0
G1 F300.0 Z-2.2
G2 F800.0 X167.95 Y302.0505 I-0.0595 J0.0804
G2 Y302.2237 I0.05 J0.0866
G2 X168.1 Y302.1371 I0.05 J-0.0866
G2 X168.0595 Y302.0567 I-0.1 J0.0
G0 Z3.0
G0 X138.5932 Y313.4794
G0 Z1.0
G1 F300.0 Z-1.0
G2 F800.0 X138.45 Y313.429 I-0.0932 J0.0361
G2 Y313.6022 I0.05 J0.0866
G2 X138.6 Y313.5156 I0.05 J-0.0866
G2 X138.5932 Y313.4794 I-0.1 J0.0
G1 F300.0 Z-2.0
G2 F800.0 X138.45 Y313.429 I-0.0932 J0.0361
G2 Y313.6022 I0.05 J0.0866
G2 X138.6 Y313.5156 I0.05 J-0.0866
G2 X138.5932 Y313.4794 I-0.1 J0.0
G1 F300.0 Z-2.2
G2 F800.0 X138.45 Y313.429 I-0.0932 J0.0361
G2 Y313.6022 I0.05 J0.0866
G2 X138.6 Y313.5156 I0.05 J-0.0866
G2 X138.5932 Y313.4794 I-0.1 J0.0
G0 Z3.0
G0 X130.0529 Y275.2989
G0 Z1.0
G1 F300.0 Z-1.0
G2 F800.0 X130.1311 Y275.2013 I-0.0218 J-0.0976
G2 X129.9811 Y275.1147 I-0.1 J0.0
G2 Y275.2879 I0.05 J0.0866
G2 X130.0529 Y275.2989 I0.05 J-0.0866
G1 F300.0 Z-2.0
G2 F800.0 X130.1311 Y275.2013 I-0.0218 J-0.0976
G2 X129.9811 Y275.1147 I-0.1 J0.0
G2 Y275.2879 I0.05 J0.0866
G2 X130.0529 Y275.2989 I0.05 J-0.0866
G1 F300.0 Z-2.2
G2 F800.0 X130.1311 Y275.2013 I-0.0218 J-0.0976
G2 X129.9811 Y275.1147 I-0.1 J0.0
G2 Y275.2879 I0.05 J0.0866
G2 X130.0529 Y275.2989 I0.05 J-0.0866
G0 Z3.0
G0 X118.5654 Y278.4251
G0 Z1.0
G1 F300.0 Z-1.0
G2 F800.0 X118.4189 Y278.3647 I-0.0965 J0.0263
G2 Y278.5379 I0.05 J0.0866
G2 X118.5689 Y278.4513 I0.05 J-0.0866
G2 X118.5654 Y278.4251 I-0.1 J0.0
G1 F300.0 Z-2.0
G2 F800.0 X118.4189 Y278.3647 I-0.0965 J0.0263
G2 Y278.5379 I0.05 J0.0866
G2 X118.5689 Y278.4513 I0.05 J-0.0866
G2 X118.5654 Y278.4251 I-0.1 J0.0
G1 F300.0 Z-2.2
G2 F800.0 X118.4189 Y278.3647 I-0.0965 J0.0263
G2 Y278.5379 I0.05 J0.0866
G2 X118.5689 Y278.4513 I0.05 J-0.0866
G2 X118.5654 Y278.4251 I-0.1 J0.0
G0 Z3.0
G0 X118.4691 Y216.1002
G0 Z1.0
G1 F300.0 Z-1.0
G2 F800.0 X118.5689 Y216.0002 I-0.0002 J-0.1
G2 X118.4189 Y215.9136 I-0.1 J0.0
G2 Y216.0868 I0.05 J0.0866
G2 X118.4691 Y216.1002 I0.05 J-0.0866
G1 F300.0 Z-2.0
G2 F800.0 X118.5689 Y216.0002 I-0.0002 J-0.1
G2 X118.4189 Y215.9136 I-0.1 J0.0
G2 Y216.0868 I0.05 J0.0866
G2 X118.4691 Y216.1002 I0.05 J-0.0866
G1 F300.0 Z-2.2
G2 F800.0 X118.5689 Y216.0002 I-0.0002 J-0.1
G2 X118.4189 Y215.9136 I-0.1 J0.0
G2 Y216.0868 I0.05 J0.0866
G2 X118.4691 Y216.1002 I0.05 J-0.0866
G0 Z3.0
G0 X129.935 Y212.7781
G0 Z1.0
G1 F300.0 Z-1.0
G2 F800.0 X129.9811 Y212.8368 I0.096 J-0.0278
G2 X130.1311 Y212.7502 I0.05 J-0.0866
G2 X129.9811 Y212.6636 I-0.1 J0.0
G2 X129.935 Y212.7781 I0.05 J0.0866
G1 F300.0 Z-2.0
G2 F800.0 X129.9811 Y212.8368 I0.096 J-0.0278
G2 X130.1311 Y212.7502 I0.05 J-0.0866
G2 X129.9811 Y212.6636 I-0.1 J0.0
G2 X129.935 Y212.7781 I0.05 J0.0866
G1 F300.0 Z-2.2
G2 F800.0 X129.9811 Y212.8368 I0.096 J-0.0278
G2 X130.1311 Y212.7502 I0.05 J-0.0866
G2 X129.9811 Y212.6636 I-0.1 J0.0
