( Made using CamBam - http://www.cambam.co.uk )
( triangle de base 4/15/2015 9:06:26 AM )
( T0 : 2.0 )
G21 G90 G64 P0.05 G40
G0 Z3.0
( T0 : 2.0 )
M0
( Contour1 )
G17
M3 S1000
G0 X11.47851 Y25.5
G0 Z1.0
G1 F300.0 Z-0.5
G2 F800.0 X11.32851 Y25.4134 I-0.1 J0.0
G2 Y25.5866 I0.05 J0.0866
G2 X11.47851 Y25.5 I0.05 J-0.0866
G1 F300.0 Z-1.0
G2 F800.0 X11.32851 Y25.4134 I-0.1 J0.0
G2 Y25.5866 I0.05 J0.0866
G2 X11.47851 Y25.5 I0.05 J-0.0866
G1 F300.0 Z-1.5
G2 F800.0 X11.32851 Y25.4134 I-0.1 J0.0
G2 Y25.5866 I0.05 J0.0866
G2 X11.47851 Y25.5 I0.05 J-0.0866
G1 F300.0 Z-2.0
G2 F800.0 X11.32851 Y25.4134 I-0.1 J0.0
G2 Y25.5866 I0.05 J0.0866
G2 X11.47851 Y25.5 I0.05 J-0.0866
G1 F300.0 Z-2.5
G2 F800.0 X11.32851 Y25.4134 I-0.1 J0.0
G2 Y25.5866 I0.05 J0.0866
G2 X11.47851 Y25.5 I0.05 J-0.0866
G1 F300.0 Z-3.0
G2 F800.0 X11.32851 Y25.4134 I-0.1 J0.0
G2 Y25.5866 I0.05 J0.0866
G2 X11.47851 Y25.5 I0.05 J-0.0866
G1 F300.0 Z-3.3
G2 F800.0 X11.32851 Y25.4134 I-0.1 J0.0
G2 Y25.5866 I0.05 J0.0866
G2 X11.47851 Y25.5 I0.05 J-0.0866
G0 Z3.0
G0 X6.04823 Y35.36212
G0 Z1.0
G1 F300.0 Z-0.5
G2 F800.0 X5.95 Y35.36312 I-0.04823 J0.0876
G2 Y35.53632 I0.05 J0.0866
G2 X6.1 Y35.44972 I0.05 J-0.0866
G2 X6.04823 Y35.36212 I-0.1 J0.0
G1 F300.0 Z-1.0
G2 F800.0 X5.95 Y35.36312 I-0.04823 J0.0876
G2 Y35.53632 I0.05 J0.0866
G2 X6.1 Y35.44972 I0.05 J-0.0866
G2 X6.04823 Y35.36212 I-0.1 J0.0
G1 F300.0 Z-1.5
G2 F800.0 X5.95 Y35.36312 I-0.04823 J0.0876
G2 Y35.53632 I0.05 J0.0866
G2 X6.1 Y35.44972 I0.05 J-0.0866
G2 X6.04823 Y35.36212 I-0.1 J0.0
G1 F300.0 Z-2.0
G2 F800.0 X5.95 Y35.36312 I-0.04823 J0.0876
G2 Y35.53632 I0.05 J0.0866
G2 X6.1 Y35.44972 I0.05 J-0.0866
G2 X6.04823 Y35.36212 I-0.1 J0.0
G1 F300.0 Z-2.5
G2 F800.0 X5.95 Y35.36312 I-0.04823 J0.0876
G2 Y35.53632 I0.05 J0.0866
G2 X6.1 Y35.44972 I0.05 J-0.0866
G2 X6.04823 Y35.36212 I-0.1 J0.0
G1 F300.0 Z-3.0
G2 F800.0 X5.95 Y35.36312 I-0.04823 J0.0876
G2 Y35.53632 I0.05 J0.0866
G2 X6.1 Y35.44972 I0.05 J-0.0866
G2 X6.04823 Y35.36212 I-0.1 J0.0
G1 F300.0 Z-3.3
G2 F800.0 X5.95 Y35.36312 I-0.04823 J0.0876
G2 Y35.53632 I0.05 J0.0866
G2 X6.1 Y35.44972 I0.05 J-0.0866
G2 X6.04823 Y35.36212 I-0.1 J0.0
G0 Z3.0
G0 X6.00027 Y53.4
G0 Z1.0
G1 F300.0 Z-0.5
G2 F800.0 X5.95 Y53.4134 I-0.00027 J0.1
G2 Y53.5866 I0.05 J0.0866
G2 X6.1 Y53.5 I0.05 J-0.0866
G2 X6.00027 Y53.4 I-0.1 J0.0
G1 F300.0 Z-1.0
G2 F800.0 X5.95 Y53.4134 I-0.00027 J0.1
G2 Y53.5866 I0.05 J0.0866
G2 X6.1 Y53.5 I0.05 J-0.0866
G2 X6.00027 Y53.4 I-0.1 J0.0
G1 F300.0 Z-1.5
G2 F800.0 X5.95 Y53.4134 I-0.00027 J0.1
G2 Y53.5866 I0.05 J0.0866
G2 X6.1 Y53.5 I0.05 J-0.0866
G2 X6.00027 Y53.4 I-0.1 J0.0
G1 F300.0 Z-2.0
G2 F800.0 X5.95 Y53.4134 I-0.00027 J0.1
G2 Y53.5866 I0.05 J0.0866
G2 X6.1 Y53.5 I0.05 J-0.0866
G2 X6.00027 Y53.4 I-0.1 J0.0
G1 F300.0 Z-2.5
G2 F800.0 X5.95 Y53.4134 I-0.00027 J0.1
G2 Y53.5866 I0.05 J0.0866
G2 X6.1 Y53.5 I0.05 J-0.0866
G2 X6.00027 Y53.4 I-0.1 J0.0
G1 F300.0 Z-3.0
G2 F800.0 X5.95 Y53.4134 I-0.00027 J0.1
G2 Y53.5866 I0.05 J0.0866
G2 X6.1 Y53.5 I0.05 J-0.0866
G2 X6.00027 Y53.4 I-0.1 J0.0
G1 F300.0 Z-3.3
G2 F800.0 X5.95 Y53.4134 I-0.00027 J0.1
G2 Y53.5866 I0.05 J0.0866
G2 X6.1 Y53.5 I0.05 J-0.0866
G2 X6.00027 Y53.4 I-0.1 J0.0
G0 Z3.0
G0 X6.0 Y71.45028
G0 Z1.0
G1 F300.0 Z-0.5
G2 F800.0 X5.95 Y71.46368 I0.0 J0.1
G2 Y71.63688 I0.05 J0.0866
G2 X6.1 Y71.55028 I0.05 J-0.0866
G2 X6.0 Y71.45028 I-0.1 J0.0
G1 F300.0 Z-1.0
G2 F800.0 X5.95 Y71.46368 I0.0 J0.1
G2 Y71.63688 I0.05 J0.0866
G2 X6.1 Y71.55028 I0.05 J-0.0866
G2 X6.0 Y71.45028 I-0.1 J0.0
G1 F300.0 Z-1.5
G2 F800.0 X5.95 Y71.46368 I0.0 J0.1
G2 Y71.63688 I0.05 J0.0866
G2 X6.1 Y71.55028 I0.05 J-0.0866
G2 X6.0 Y71.45028 I-0.1 J0.0
G1 F300.0 Z-2.0
G2 F800.0 X5.95 Y71.46368 I0.0 J0.1
G2 Y71.63688 I0.05 J0.0866
G2 X6.1 Y71.55028 I0.05 J-0.0866
G2 X6.0 Y71.45028 I-0.1 J0.0
G1 F300.0 Z-2.5
G2 F800.0 X5.95 Y71.46368 I0.0 J0.1
G2 Y71.63688 I0.05 J0.0866
G2 X6.1 Y71.55028 I0.05 J-0.0866
G2 X6.0 Y71.45028 I-0.1 J0.0
G1 F300.0 Z-3.0
G2 F800.0 X5.95 Y71.46368 I0.0 J0.1
G2 Y71.63688 I0.05 J0.0866
G2 X6.1 Y71.55028 I0.05 J-0.0866
G2 X6.0 Y71.45028 I-0.1 J0.0
G1 F300.0 Z-3.3
G2 F800.0 X5.95 Y71.46368 I0.0 J0.1
G2 Y71.63688 I0.05 J0.0866
G2 X6.1 Y71.55028 I0.05 J-0.0866
G2 X6.0 Y71.45028 I-0.1 J0.0
G0 Z3.0
G0 X11.33133 Y81.41183
G0 Z1.0
G1 F300.0 Z-0.5
G2 F800.0 X11.32851 Y81.4134 I0.04719 J0.08817
G2 Y81.5866 I0.05 J0.0866
G2 X11.47851 Y81.5 I0.05 J-0.0866
G2 X11.33133 Y81.41183 I-0.1 J0.0
G1 F300.0 Z-1.0
G2 F800.0 X11.32851 Y81.4134 I0.04719 J0.08817
G2 Y81.5866 I0.05 J0.0866
G2 X11.47851 Y81.5 I0.05 J-0.0866
G2 X11.33133 Y81.41183 I-0.1 J0.0
G1 F300.0 Z-1.5
G2 F800.0 X11.32851 Y81.4134 I0.04719 J0.08817
G2 Y81.5866 I0.05 J0.0866
G2 X11.47851 Y81.5 I0.05 J-0.0866
G2 X11.33133 Y81.41183 I-0.1 J0.0
G1 F300.0 Z-2.0
G2 F800.0 X11.32851 Y81.4134 I0.04719 J0.08817
G2 Y81.5866 I0.05 J0.0866
G2 X11.47851 Y81.5 I0.05 J-0.0866
G2 X11.33133 Y81.41183 I-0.1 J0.0
G1 F300.0 Z-2.5
G2 F800.0 X11.32851 Y81.4134 I0.04719 J0.08817
G2 Y81.5866 I0.05 J0.0866
G2 X11.47851 Y81.5 I0.05 J-0.0866
G2 X11.33133 Y81.41183 I-0.1 J0.0
G1 F300.0 Z-3.0
G2 F800.0 X11.32851 Y81.4134 I0.04719 J0.08817
G2 Y81.5866 I0.05 J0.0866
G2 X11.47851 Y81.5 I0.05 J-0.0866
G2 X11.33133 Y81.41183 I-0.1 J0.0
G1 F300.0 Z-3.3
G2 F800.0 X11.32851 Y81.4134 I0.04719 J0.08817
G2 Y81.5866 I0.05 J0.0866
G2 X11.47851 Y81.5 I0.05 J-0.0866
G2 X11.33133 Y81.41183 I-0.1 J0.0
G0 Z3.0
G0 X6.04691 Y91.3614
G0 Z1.0
G1 F300.0 Z-0.5
G2 F800.0 X5.95 Y91.36312 I-0.04691 J0.08832
G2 Y91.53632 I0.05 J0.0866
G2 X6.1 Y91.44972 I0.05 J-0.0866
G2 X6.04691 Y91.3614 I-0.1 J0.0
G1 F300.0 Z-1.0
G2 F800.0 X5.95 Y91.36312 I-0.04691 J0.08832
G2 Y91.53632 I0.05 J0.0866
G2 X6.1 Y91.44972 I0.05 J-0.0866
G2 X6.04691 Y91.3614 I-0.1 J0.0
G1 F300.0 Z-1.5
G2 F800.0 X5.95 Y91.36312 I-0.04691 J0.08832
G2 Y91.53632 I0.05 J0.0866
G2 X6.1 Y91.44972 I0.05 J-0.0866
G2 X6.04691 Y91.3614 I-0.1 J0.0
G1 F300.0 Z-2.0
G2 F800.0 X5.95 Y91.36312 I-0.04691 J0.08832
G2 Y91.53632 I0.05 J0.0866
G2 X6.1 Y91.44972 I0.05 J-0.0866
G2 X6.04691 Y91.3614 I-0.1 J0.0
G1 F300.0 Z-2.5
G2 F800.0 X5.95 Y91.36312 I-0.04691 J0.08832
G2 Y91.53632 I0.05 J0.0866
G2 X6.1 Y91.44972 I0.05 J-0.0866
G2 X6.04691 Y91.3614 I-0.1 J0.0
G1 F300.0 Z-3.0
G2 F800.0 X5.95 Y91.36312 I-0.04691 J0.08832
G2 Y91.53632 I0.05 J0.0866
G2 X6.1 Y91.44972 I0.05 J-0.0866
G2 X6.04691 Y91.3614 I-0.1 J0.0
G1 F300.0 Z-3.3
G2 F800.0 X5.95 Y91.36312 I-0.04691 J0.08832
G2 Y91.53632 I0.05 J0.0866
G2 X6.1 Y91.44972 I0.05 J-0.0866
G2 X6.04691 Y91.3614 I-0.1 J0.0
G0 Z3.0
G0 X6.00026 Y109.4
G0 Z1.0
G1 F300.0 Z-0.5
G2 F800.0 X5.95 Y109.4134 I-0.00026 J0.1
G2 Y109.5866 I0.05 J0.0866
G2 X6.1 Y109.5 I0.05 J-0.0866
G2 X6.00026 Y109.4 I-0.1 J0.0
G1 F300.0 Z-1.0
G2 F800.0 X5.95 Y109.4134 I-0.00026 J0.1
G2 Y109.5866 I0.05 J0.0866
G2 X6.1 Y109.5 I0.05 J-0.0866
G2 X6.00026 Y109.4 I-0.1 J0.0
G1 F300.0 Z-1.5
G2 F800.0 X5.95 Y109.4134 I-0.00026 J0.1
G2 Y109.5866 I0.05 J0.0866
G2 X6.1 Y109.5 I0.05 J-0.0866
G2 X6.00026 Y109.4 I-0.1 J0.0
G1 F300.0 Z-2.0
G2 F800.0 X5.95 Y109.4134 I-0.00026 J0.1
G2 Y109.5866 I0.05 J0.0866
G2 X6.1 Y109.5 I0.05 J-0.0866
G2 X6.00026 Y109.4 I-0.1 J0.0
G1 F300.0 Z-2.5
G2 F800.0 X5.95 Y109.4134 I-0.00026 J0.1
G2 Y109.5866 I0.05 J0.0866
G2 X6.1 Y109.5 I0.05 J-0.0866
G2 X6.00026 Y109.4 I-0.1 J0.0
G1 F300.0 Z-3.0
G2 F800.0 X5.95 Y109.4134 I-0.00026 J0.1
G2 Y109.5866 I0.05 J0.0866
G2 X6.1 Y109.5 I0.05 J-0.0866
G2 X6.00026 Y109.4 I-0.1 J0.0
G1 F300.0 Z-3.3
G2 F800.0 X5.95 Y109.4134 I-0.00026 J0.1
G2 Y109.5866 I0.05 J0.0866
G2 X6.1 Y109.5 I0.05 J-0.0866
G2 X6.00026 Y109.4 I-0.1 J0.0
G0 Z3.0
G0 X6.0 Y127.45028
G0 Z1.0
G1 F300.0 Z-0.5
G2 F800.0 X5.95 Y127.46368 I0.0 J0.1
G2 Y127.63688 I0.05 J0.0866
G2 X6.1 Y127.55028 I0.05 J-0.0866
G2 X6.0 Y127.45028 I-0.1 J0.0
G1 F300.0 Z-1.0
G2 F800.0 X5.95 Y127.46368 I0.0 J0.1
G2 Y127.63688 I0.05 J0.0866
G2 X6.1 Y127.55028 I0.05 J-0.0866
G2 X6.0 Y127.45028 I-0.1 J0.0
G1 F300.0 Z-1.5
G2 F800.0 X5.95 Y127.46368 I0.0 J0.1
G2 Y127.63688 I0.05 J0.0866
G2 X6.1 Y127.55028 I0.05 J-0.0866
G2 X6.0 Y127.45028 I-0.1 J0.0
G1 F300.0 Z-2.0
G2 F800.0 X5.95 Y127.46368 I0.0 J0.1
G2 Y127.63688 I0.05 J0.0866
G2 X6.1 Y127.55028 I0.05 J-0.0866
G2 X6.0 Y127.45028 I-0.1 J0.0
G1 F300.0 Z-2.5
G2 F800.0 X5.95 Y127.46368 I0.0 J0.1
G2 Y127.63688 I0.05 J0.0866
G2 X6.1 Y127.55028 I0.05 J-0.0866
G2 X6.0 Y127.45028 I-0.1 J0.0
G1 F300.0 Z-3.0
G2 F800.0 X5.95 Y127.46368 I0.0 J0.1
G2 Y127.63688 I0.05 J0.0866
G2 X6.1 Y127.55028 I0.05 J-0.0866
G2 X6.0 Y127.45028 I-0.1 J0.0
G1 F300.0 Z-3.3
G2 F800.0 X5.95 Y127.46368 I0.0 J0.1
G2 Y127.63688 I0.05 J0.0866
G2 X6.1 Y127.55028 I0.05 J-0.0866
G2 X6.0 Y127.45028 I-0.1 J0.0
G0 Z3.0
G0 X11.33497 Y138.48075
G0 Z1.0
G1 F300.0 Z-0.5
G2 F800.0 X11.32851 Y138.48417 I0.04354 J0.09002
G2 Y138.65738 I0.05 J0.0866
G2 X11.47851 Y138.57077 I0.05 J-0.0866
G2 X11.33497 Y138.48075 I-0.1 J0.0
G1 F300.0 Z-1.0
G2 F800.0 X11.32851 Y138.48417 I0.04354 J0.09002
G2 Y138.65738 I0.05 J0.0866
G2 X11.47851 Y138.57077 I0.05 J-0.0866
G2 X11.33497 Y138.48075 I-0.1 J0.0
G1 F300.0 Z-1.5
G2 F800.0 X11.32851 Y138.48417 I0.04354 J0.09002
G2 Y138.65738 I0.05 J0.0866
G2 X11.47851 Y138.57077 I0.05 J-0.0866
G2 X11.33497 Y138.48075 I-0.1 J0.0
G1 F300.0 Z-2.0
G2 F800.0 X11.32851 Y138.48417 I0.04354 J0.09002
G2 Y138.65738 I0.05 J0.0866
G2 X11.47851 Y138.57077 I0.05 J-0.0866
G2 X11.33497 Y138.48075 I-0.1 J0.0
G1 F300.0 Z-2.5
G2 F800.0 X11.32851 Y138.48417 I0.04354 J0.09002
G2 Y138.65738 I0.05 J0.0866
G2 X11.47851 Y138.57077 I0.05 J-0.0866
G2 X11.33497 Y138.48075 I-0.1 J0.0
G1 F300.0 Z-3.0
G2 F800.0 X11.32851 Y138.48417 I0.04354 J0.09002
G2 Y138.65738 I0.05 J0.0866
G2 X11.47851 Y138.57077 I0.05 J-0.0866
G2 X11.33497 Y138.48075 I-0.1 J0.0
G1 F300.0 Z-3.3
G2 F800.0 X11.32851 Y138.48417 I0.04354 J0.09002
G2 Y138.65738 I0.05 J0.0866
G2 X11.47851 Y138.57077 I0.05 J-0.0866
G2 X11.33497 Y138.48075 I-0.1 J0.0
G0 Z3.0
G0 X6.42489 Y147.86112
G0 Z1.0
G1 F300.0 Z-0.5
G2 F800.0 X6.32851 Y147.86312 I-0.04638 J0.0886
G2 Y148.03632 I0.05 J0.0866
G2 X6.47851 Y147.94972 I0.05 J-0.0866
G2 X6.42489 Y147.86112 I-0.1 J0.0
G1 F300.0 Z-1.0
G2 F800.0 X6.32851 Y147.86312 I-0.04638 J0.0886
G2 Y148.03632 I0.05 J0.0866
G2 X6.47851 Y147.94972 I0.05 J-0.0866
G2 X6.42489 Y147.86112 I-0.1 J0.0
G1 F300.0 Z-1.5
G2 F800.0 X6.32851 Y147.86312 I-0.04638 J0.0886
G2 Y148.03632 I0.05 J0.0866
G2 X6.47851 Y147.94972 I0.05 J-0.0866
G2 X6.42489 Y147.86112 I-0.1 J0.0
G1 F300.0 Z-2.0
G2 F800.0 X6.32851 Y147.86312 I-0.04638 J0.0886
G2 Y148.03632 I0.05 J0.0866
G2 X6.47851 Y147.94972 I0.05 J-0.0866
G2 X6.42489 Y147.86112 I-0.1 J0.0
G1 F300.0 Z-2.5
G2 F800.0 X6.32851 Y147.86312 I-0.04638 J0.0886
G2 Y148.03632 I0.05 J0.0866
G2 X6.47851 Y147.94972 I0.05 J-0.0866
G2 X6.42489 Y147.86112 I-0.1 J0.0
G1 F300.0 Z-3.0
G2 F800.0 X6.32851 Y147.86312 I-0.04638 J0.0886
G2 Y148.03632 I0.05 J0.0866
G2 X6.47851 Y147.94972 I0.05 J-0.0866
G2 X6.42489 Y147.86112 I-0.1 J0.0
G1 F300.0 Z-3.3
G2 F800.0 X6.32851 Y147.86312 I-0.04638 J0.0886
G2 Y148.03632 I0.05 J0.0866
G2 X6.47851 Y147.94972 I0.05 J-0.0866
G2 X6.42489 Y147.86112 I-0.1 J0.0
G0 Z3.0
G0 X6.37877 Y165.9
G0 Z1.0
G1 F300.0 Z-0.5
G2 F800.0 X6.32851 Y165.9134 I-0.00026 J0.1
G2 Y166.0866 I0.05 J0.0866
G2 X6.47851 Y166.0 I0.05 J-0.0866
G2 X6.37877 Y165.9 I-0.1 J0.0
G1 F300.0 Z-1.0
G2 F800.0 X6.32851 Y165.9134 I-0.00026 J0.1
G2 Y166.0866 I0.05 J0.0866
G2 X6.47851 Y166.0 I0.05 J-0.0866
G2 X6.37877 Y165.9 I-0.1 J0.0
G1 F300.0 Z-1.5
G2 F800.0 X6.32851 Y165.9134 I-0.00026 J0.1
G2 Y166.0866 I0.05 J0.0866
G2 X6.47851 Y166.0 I0.05 J-0.0866
G2 X6.37877 Y165.9 I-0.1 J0.0
G1 F300.0 Z-2.0
G2 F800.0 X6.32851 Y165.9134 I-0.00026 J0.1
G2 Y166.0866 I0.05 J0.0866
G2 X6.47851 Y166.0 I0.05 J-0.0866
G2 X6.37877 Y165.9 I-0.1 J0.0
G1 F300.0 Z-2.5
G2 F800.0 X6.32851 Y165.9134 I-0.00026 J0.1
G2 Y166.0866 I0.05 J0.0866
G2 X6.47851 Y166.0 I0.05 J-0.0866
G2 X6.37877 Y165.9 I-0.1 J0.0
G1 F300.0 Z-3.0
G2 F800.0 X6.32851 Y165.9134 I-0.00026 J0.1
G2 Y166.0866 I0.05 J0.0866
G2 X6.47851 Y166.0 I0.05 J-0.0866
G2 X6.37877 Y165.9 I-0.1 J0.0
G1 F300.0 Z-3.3
G2 F800.0 X6.32851 Y165.9134 I-0.00026 J0.1
G2 Y166.0866 I0.05 J0.0866
G2 X6.47851 Y166.0 I0.05 J-0.0866
G2 X6.37877 Y165.9 I-0.1 J0.0
G0 Z3.0
G0 X6.37851 Y183.95028
G0 Z1.0
G1 F300.0 Z-0.5
G2 F800.0 X6.32851 Y183.96368 I0.0 J0.1
G2 Y184.13688 I0.05 J0.0866
G2 X6.47851 Y184.05028 I0.05 J-0.0866
G2 X6.37851 Y183.95028 I-0.1 J0.0
G1 F300.0 Z-1.0
G2 F800.0 X6.32851 Y183.96368 I0.0 J0.1
G2 Y184.13688 I0.05 J0.0866
G2 X6.47851 Y184.05028 I0.05 J-0.0866
G2 X6.37851 Y183.95028 I-0.1 J0.0
G1 F300.0 Z-1.5
G2 F800.0 X6.32851 Y183.96368 I0.0 J0.1
G2 Y184.13688 I0.05 J0.0866
G2 X6.47851 Y184.05028 I0.05 J-0.0866
G2 X6.37851 Y183.95028 I-0.1 J0.0
G1 F300.0 Z-2.0
G2 F800.0 X6.32851 Y183.96368 I0.0 J0.1
G2 Y184.13688 I0.05 J0.0866
G2 X6.47851 Y184.05028 I0.05 J-0.0866
G2 X6.37851 Y183.95028 I-0.1 J0.0
G1 F300.0 Z-2.5
G2 F800.0 X6.32851 Y183.96368 I0.0 J0.1
G2 Y184.13688 I0.05 J0.0866
G2 X6.47851 Y184.05028 I0.05 J-0.0866
G2 X6.37851 Y183.95028 I-0.1 J0.0
G1 F300.0 Z-3.0
G2 F800.0 X6.32851 Y183.96368 I0.0 J0.1
G2 Y184.13688 I0.05 J0.0866
G2 X6.47851 Y184.05028 I0.05 J-0.0866
G2 X6.37851 Y183.95028 I-0.1 J0.0
G1 F300.0 Z-3.3
G2 F800.0 X6.32851 Y183.96368 I0.0 J0.1
G2 Y184.13688 I0.05 J0.0866
G2 X6.47851 Y184.05028 I0.05 J-0.0866
G2 X6.37851 Y183.95028 I-0.1 J0.0
G0 Z3.0
G0 X11.71348 Y194.98075
G0 Z1.0
G1 F300.0 Z-0.5
G2 F800.0 X11.70702 Y194.98417 I0.04354 J0.09002
G2 Y195.15738 I0.05 J0.0866
G2 X11.85702 Y195.07077 I0.05 J-0.0866
G2 X11.71348 Y194.98075 I-0.1 J0.0
G1 F300.0 Z-1.0
G2 F800.0 X11.70702 Y194.98417 I0.04354 J0.09002
G2 Y195.15738 I0.05 J0.0866
G2 X11.85702 Y195.07077 I0.05 J-0.0866
G2 X11.71348 Y194.98075 I-0.1 J0.0
G1 F300.0 Z-1.5
G2 F800.0 X11.70702 Y194.98417 I0.04354 J0.09002
G2 Y195.15738 I0.05 J0.0866
G2 X11.85702 Y195.07077 I0.05 J-0.0866
G2 X11.71348 Y194.98075 I-0.1 J0.0
G1 F300.0 Z-2.0
G2 F800.0 X11.70702 Y194.98417 I0.04354 J0.09002
G2 Y195.15738 I0.05 J0.0866
G2 X11.85702 Y195.07077 I0.05 J-0.0866
G2 X11.71348 Y194.98075 I-0.1 J0.0
G1 F300.0 Z-2.5
G2 F800.0 X11.70702 Y194.98417 I0.04354 J0.09002
G2 Y195.15738 I0.05 J0.0866
G2 X11.85702 Y195.07077 I0.05 J-0.0866
G2 X11.71348 Y194.98075 I-0.1 J0.0
G1 F300.0 Z-3.0
G2 F800.0 X11.70702 Y194.98417 I0.04354 J0.09002
G2 Y195.15738 I0.05 J0.0866
G2 X11.85702 Y195.07077 I0.05 J-0.0866
G2 X11.71348 Y194.98075 I-0.1 J0.0
G1 F300.0 Z-3.3
G2 F800.0 X11.70702 Y194.98417 I0.04354 J0.09002
G2 Y195.15738 I0.05 J0.0866
G2 X11.85702 Y195.07077 I0.05 J-0.0866
G2 X11.71348 Y194.98075 I-0.1 J0.0
G0 Z3.0
G0 X6.42544 Y204.93219
G0 Z1.0
G1 F300.0 Z-0.5
G2 F800.0 X6.32851 Y204.93389 I-0.04692 J0.08831
G2 Y205.1071 I0.05 J0.0866
G2 X6.47851 Y205.02049 I0.05 J-0.0866
G2 X6.42544 Y204.93219 I-0.1 J0.0
G1 F300.0 Z-1.0
G2 F800.0 X6.32851 Y204.93389 I-0.04692 J0.08831
G2 Y205.1071 I0.05 J0.0866
G2 X6.47851 Y205.02049 I0.05 J-0.0866
G2 X6.42544 Y204.93219 I-0.1 J0.0
G1 F300.0 Z-1.5
G2 F800.0 X6.32851 Y204.93389 I-0.04692 J0.08831
G2 Y205.1071 I0.05 J0.0866
G2 X6.47851 Y205.02049 I0.05 J-0.0866
G2 X6.42544 Y204.93219 I-0.1 J0.0
G1 F300.0 Z-2.0
G2 F800.0 X6.32851 Y204.93389 I-0.04692 J0.08831
G2 Y205.1071 I0.05 J0.0866
G2 X6.47851 Y205.02049 I0.05 J-0.0866
G2 X6.42544 Y204.93219 I-0.1 J0.0
G1 F300.0 Z-2.5
G2 F800.0 X6.32851 Y204.93389 I-0.04692 J0.08831
G2 Y205.1071 I0.05 J0.0866
G2 X6.47851 Y205.02049 I0.05 J-0.0866
G2 X6.42544 Y204.93219 I-0.1 J0.0
G1 F300.0 Z-3.0
G2 F800.0 X6.32851 Y204.93389 I-0.04692 J0.08831
G2 Y205.1071 I0.05 J0.0866
G2 X6.47851 Y205.02049 I0.05 J-0.0866
G2 X6.42544 Y204.93219 I-0.1 J0.0
G1 F300.0 Z-3.3
G2 F800.0 X6.32851 Y204.93389 I-0.04692 J0.08831
G2 Y205.1071 I0.05 J0.0866
G2 X6.47851 Y205.02049 I0.05 J-0.0866
G2 X6.42544 Y204.93219 I-0.1 J0.0
G0 Z3.0
G0 X6.37877 Y222.97077
G0 Z1.0
G1 F300.0 Z-0.5
G2 F800.0 X6.32851 Y222.98417 I-0.00026 J0.1
G2 Y223.15738 I0.05 J0.0866
G2 X6.47851 Y223.07077 I0.05 J-0.0866
G2 X6.37877 Y222.97077 I-0.1 J0.0
G1 F300.0 Z-1.0
G2 F800.0 X6.32851 Y222.98417 I-0.00026 J0.1
G2 Y223.15738 I0.05 J0.0866
G2 X6.47851 Y223.07077 I0.05 J-0.0866
G2 X6.37877 Y222.97077 I-0.1 J0.0
G1 F300.0 Z-1.5
G2 F800.0 X6.32851 Y222.98417 I-0.00026 J0.1
G2 Y223.15738 I0.05 J0.0866
G2 X6.47851 Y223.07077 I0.05 J-0.0866
G2 X6.37877 Y222.97077 I-0.1 J0.0
G1 F300.0 Z-2.0
G2 F800.0 X6.32851 Y222.98417 I-0.00026 J0.1
G2 Y223.15738 I0.05 J0.0866
G2 X6.47851 Y223.07077 I0.05 J-0.0866
G2 X6.37877 Y222.97077 I-0.1 J0.0
G1 F300.0 Z-2.5
G2 F800.0 X6.32851 Y222.98417 I-0.00026 J0.1
G2 Y223.15738 I0.05 J0.0866
G2 X6.47851 Y223.07077 I0.05 J-0.0866
G2 X6.37877 Y222.97077 I-0.1 J0.0
G1 F300.0 Z-3.0
G2 F800.0 X6.32851 Y222.98417 I-0.00026 J0.1
G2 Y223.15738 I0.05 J0.0866
G2 X6.47851 Y223.07077 I0.05 J-0.0866
G2 X6.37877 Y222.97077 I-0.1 J0.0
G1 F300.0 Z-3.3
G2 F800.0 X6.32851 Y222.98417 I-0.00026 J0.1
G2 Y223.15738 I0.05 J0.0866
G2 X6.47851 Y223.07077 I0.05 J-0.0866
G2 X6.37877 Y222.97077 I-0.1 J0.0
G0 Z3.0
G0 X6.37851 Y241.02106
G0 Z1.0
G1 F300.0 Z-0.5
G2 F800.0 X6.32851 Y241.03445 I0.0 J0.1
G2 Y241.20766 I0.05 J0.0866
G2 X6.47851 Y241.12106 I0.05 J-0.0866
G2 X6.37851 Y241.02106 I-0.1 J0.0
G1 F300.0 Z-1.0
G2 F800.0 X6.32851 Y241.03445 I0.0 J0.1
G2 Y241.20766 I0.05 J0.0866
G2 X6.47851 Y241.12106 I0.05 J-0.0866
G2 X6.37851 Y241.02106 I-0.1 J0.0
G1 F300.0 Z-1.5
G2 F800.0 X6.32851 Y241.03445 I0.0 J0.1
G2 Y241.20766 I0.05 J0.0866
G2 X6.47851 Y241.12106 I0.05 J-0.0866
G2 X6.37851 Y241.02106 I-0.1 J0.0
G1 F300.0 Z-2.0
G2 F800.0 X6.32851 Y241.03445 I0.0 J0.1
G2 Y241.20766 I0.05 J0.0866
G2 X6.47851 Y241.12106 I0.05 J-0.0866
G2 X6.37851 Y241.02106 I-0.1 J0.0
G1 F300.0 Z-2.5
G2 F800.0 X6.32851 Y241.03445 I0.0 J0.1
G2 Y241.20766 I0.05 J0.0866
G2 X6.47851 Y241.12106 I0.05 J-0.0866
G2 X6.37851 Y241.02106 I-0.1 J0.0
G1 F300.0 Z-3.0
G2 F800.0 X6.32851 Y241.03445 I0.0 J0.1
G2 Y241.20766 I0.05 J0.0866
G2 X6.47851 Y241.12106 I0.05 J-0.0866
G2 X6.37851 Y241.02106 I-0.1 J0.0
G1 F300.0 Z-3.3
G2 F800.0 X6.32851 Y241.03445 I0.0 J0.1
G2 Y241.20766 I0.05 J0.0866
G2 X6.47851 Y241.12106 I0.05 J-0.0866
G2 X6.37851 Y241.02106 I-0.1 J0.0
G0 Z3.0
G0 X11.70984 Y250.98261
G0 Z1.0
G1 F300.0 Z-0.5
G2 F800.0 X11.70702 Y250.98417 I0.04719 J0.08817
G2 Y251.15738 I0.05 J0.0866
G2 X11.85702 Y251.07077 I0.05 J-0.0866
G2 X11.70984 Y250.98261 I-0.1 J0.0
G1 F300.0 Z-1.0
G2 F800.0 X11.70702 Y250.98417 I0.04719 J0.08817
G2 Y251.15738 I0.05 J0.0866
G2 X11.85702 Y251.07077 I0.05 J-0.0866
G2 X11.70984 Y250.98261 I-0.1 J0.0
G1 F300.0 Z-1.5
G2 F800.0 X11.70702 Y250.98417 I0.04719 J0.08817
G2 Y251.15738 I0.05 J0.0866
G2 X11.85702 Y251.07077 I0.05 J-0.0866
G2 X11.70984 Y250.98261 I-0.1 J0.0
G1 F300.0 Z-2.0
G2 F800.0 X11.70702 Y250.98417 I0.04719 J0.08817
G2 Y251.15738 I0.05 J0.0866
G2 X11.85702 Y251.07077 I0.05 J-0.0866
G2 X11.70984 Y250.98261 I-0.1 J0.0
G1 F300.0 Z-2.5
G2 F800.0 X11.70702 Y250.98417 I0.04719 J0.08817
G2 Y251.15738 I0.05 J0.0866
G2 X11.85702 Y251.07077 I0.05 J-0.0866
G2 X11.70984 Y250.98261 I-0.1 J0.0
G1 F300.0 Z-3.0
G2 F800.0 X11.70702 Y250.98417 I0.04719 J0.08817
G2 Y251.15738 I0.05 J0.0866
G2 X11.85702 Y251.07077 I0.05 J-0.0866
G2 X11.70984 Y250.98261 I-0.1 J0.0
G1 F300.0 Z-3.3
G2 F800.0 X11.70702 Y250.98417 I0.04719 J0.08817
G2 Y251.15738 I0.05 J0.0866
G2 X11.85702 Y251.07077 I0.05 J-0.0866
G2 X11.70984 Y250.98261 I-0.1 J0.0
G0 Z3.0
G0 X6.42542 Y260.93218
G0 Z1.0
G1 F300.0 Z-0.5
G2 F800.0 X6.32851 Y260.93389 I-0.04691 J0.08832
G2 Y261.1071 I0.05 J0.0866
G2 X6.47851 Y261.02049 I0.05 J-0.0866
G2 X6.42542 Y260.93218 I-0.1 J0.0
G1 F300.0 Z-1.0
G2 F800.0 X6.32851 Y260.93389 I-0.04691 J0.08832
G2 Y261.1071 I0.05 J0.0866
G2 X6.47851 Y261.02049 I0.05 J-0.0866
G2 X6.42542 Y260.93218 I-0.1 J0.0
G1 F300.0 Z-1.5
G2 F800.0 X6.32851 Y260.93389 I-0.04691 J0.08832
G2 Y261.1071 I0.05 J0.0866
G2 X6.47851 Y261.02049 I0.05 J-0.0866
G2 X6.42542 Y260.93218 I-0.1 J0.0
G1 F300.0 Z-2.0
G2 F800.0 X6.32851 Y260.93389 I-0.04691 J0.08832
G2 Y261.1071 I0.05 J0.0866
G2 X6.47851 Y261.02049 I0.05 J-0.0866
G2 X6.42542 Y260.93218 I-0.1 J0.0
G1 F300.0 Z-2.5
G2 F800.0 X6.32851 Y260.93389 I-0.04691 J0.08832
G2 Y261.1071 I0.05 J0.0866
G2 X6.47851 Y261.02049 I0.05 J-0.0866
G2 X6.42542 Y260.93218 I-0.1 J0.0
G1 F300.0 Z-3.0
G2 F800.0 X6.32851 Y260.93389 I-0.04691 J0.08832
G2 Y261.1071 I0.05 J0.0866
G2 X6.47851 Y261.02049 I0.05 J-0.0866
G2 X6.42542 Y260.93218 I-0.1 J0.0
G1 F300.0 Z-3.3
G2 F800.0 X6.32851 Y260.93389 I-0.04691 J0.08832
G2 Y261.1071 I0.05 J0.0866
G2 X6.47851 Y261.02049 I0.05 J-0.0866
G2 X6.42542 Y260.93218 I-0.1 J0.0
G0 Z3.0
G0 X6.37877 Y278.97077
G0 Z1.0
G1 F300.0 Z-0.5
G2 F800.0 X6.32851 Y278.98417 I-0.00026 J0.1
G2 Y279.15738 I0.05 J0.0866
G2 X6.47851 Y279.07077 I0.05 J-0.0866
G2 X6.37877 Y278.97077 I-0.1 J0.0
G1 F300.0 Z-1.0
G2 F800.0 X6.32851 Y278.98417 I-0.00026 J0.1
G2 Y279.15738 I0.05 J0.0866
G2 X6.47851 Y279.07077 I0.05 J-0.0866
G2 X6.37877 Y278.97077 I-0.1 J0.0
G1 F300.0 Z-1.5
G2 F800.0 X6.32851 Y278.98417 I-0.00026 J0.1
G2 Y279.15738 I0.05 J0.0866
G2 X6.47851 Y279.07077 I0.05 J-0.0866
G2 X6.37877 Y278.97077 I-0.1 J0.0
G1 F300.0 Z-2.0
G2 F800.0 X6.32851 Y278.98417 I-0.00026 J0.1
G2 Y279.15738 I0.05 J0.0866
G2 X6.47851 Y279.07077 I0.05 J-0.0866
G2 X6.37877 Y278.97077 I-0.1 J0.0
G1 F300.0 Z-2.5
G2 F800.0 X6.32851 Y278.98417 I-0.00026 J0.1
G2 Y279.15738 I0.05 J0.0866
G2 X6.47851 Y279.07077 I0.05 J-0.0866
G2 X6.37877 Y278.97077 I-0.1 J0.0
G1 F300.0 Z-3.0
G2 F800.0 X6.32851 Y278.98417 I-0.00026 J0.1
G2 Y279.15738 I0.05 J0.0866
G2 X6.47851 Y279.07077 I0.05 J-0.0866
G2 X6.37877 Y278.97077 I-0.1 J0.0
G1 F300.0 Z-3.3
G2 F800.0 X6.32851 Y278.98417 I-0.00026 J0.1
G2 Y279.15738 I0.05 J0.0866
G2 X6.47851 Y279.07077 I0.05 J-0.0866
G2 X6.37877 Y278.97077 I-0.1 J0.0
G0 Z3.0
G0 X6.37851 Y297.02106
G0 Z1.0
G1 F300.0 Z-0.5
G2 F800.0 X6.32851 Y297.03445 I0.0 J0.1
G2 Y297.20766 I0.05 J0.0866
G2 X6.47851 Y297.12106 I0.05 J-0.0866
G2 X6.37851 Y297.02106 I-0.1 J0.0
G1 F300.0 Z-1.0
G2 F800.0 X6.32851 Y297.03445 I0.0 J0.1
G2 Y297.20766 I0.05 J0.0866
G2 X6.47851 Y297.12106 I0.05 J-0.0866
G2 X6.37851 Y297.02106 I-0.1 J0.0
G1 F300.0 Z-1.5
G2 F800.0 X6.32851 Y297.03445 I0.0 J0.1
G2 Y297.20766 I0.05 J0.0866
G2 X6.47851 Y297.12106 I0.05 J-0.0866
G2 X6.37851 Y297.02106 I-0.1 J0.0
G1 F300.0 Z-2.0
G2 F800.0 X6.32851 Y297.03445 I0.0 J0.1
G2 Y297.20766 I0.05 J0.0866
G2 X6.47851 Y297.12106 I0.05 J-0.0866
G2 X6.37851 Y297.02106 I-0.1 J0.0
G1 F300.0 Z-2.5
G2 F800.0 X6.32851 Y297.03445 I0.0 J0.1
G2 Y297.20766 I0.05 J0.0866
G2 X6.47851 Y297.12106 I0.05 J-0.0866
G2 X6.37851 Y297.02106 I-0.1 J0.0
G1 F300.0 Z-3.0
G2 F800.0 X6.32851 Y297.03445 I0.0 J0.1
G2 Y297.20766 I0.05 J0.0866
G2 X6.47851 Y297.12106 I0.05 J-0.0866
G2 X6.37851 Y297.02106 I-0.1 J0.0
G1 F300.0 Z-3.3
G2 F800.0 X6.32851 Y297.03445 I0.0 J0.1
G2 Y297.20766 I0.05 J0.0866
G2 X6.47851 Y297.12106 I0.05 J-0.0866
G2 X6.37851 Y297.02106 I-0.1 J0.0
G0 Z3.0
G0 X29.97142 Y287.57686
G0 Z1.0
G1 F300.0 Z-0.5
G2 F800.0 X30.01426 Y287.6263 I0.09284 J-0.03716
G2 X30.16426 Y287.5397 I0.05 J-0.0866
G2 X30.01426 Y287.4531 I-0.1 J0.0
G2 X29.97142 Y287.57686 I0.05 J0.0866
G1 F300.0 Z-1.0
G2 F800.0 X30.01426 Y287.6263 I0.09284 J-0.03716
G2 X30.16426 Y287.5397 I0.05 J-0.0866
G2 X30.01426 Y287.4531 I-0.1 J0.0
G2 X29.97142 Y287.57686 I0.05 J0.0866
G1 F300.0 Z-1.5
G2 F800.0 X30.01426 Y287.6263 I0.09284 J-0.03716
G2 X30.16426 Y287.5397 I0.05 J-0.0866
G2 X30.01426 Y287.4531 I-0.1 J0.0
G2 X29.97142 Y287.57686 I0.05 J0.0866
G1 F300.0 Z-2.0
G2 F800.0 X30.01426 Y287.6263 I0.09284 J-0.03716
G2 X30.16426 Y287.5397 I0.05 J-0.0866
G2 X30.01426 Y287.4531 I-0.1 J0.0
G2 X29.97142 Y287.57686 I0.05 J0.0866
G1 F300.0 Z-2.5
G2 F800.0 X30.01426 Y287.6263 I0.09284 J-0.03716
G2 X30.16426 Y287.5397 I0.05 J-0.0866
G2 X30.01426 Y287.4531 I-0.1 J0.0
G2 X29.97142 Y287.57686 I0.05 J0.0866
G1 F300.0 Z-3.0
G2 F800.0 X30.01426 Y287.6263 I0.09284 J-0.03716
G2 X30.16426 Y287.5397 I0.05 J-0.0866
G2 X30.01426 Y287.4531 I-0.1 J0.0
G2 X29.97142 Y287.57686 I0.05 J0.0866
G1 F300.0 Z-3.3
G2 F800.0 X30.01426 Y287.6263 I0.09284 J-0.03716
G2 X30.16426 Y287.5397 I0.05 J-0.0866
G2 X30.01426 Y287.4531 I-0.1 J0.0
G2 X29.97142 Y287.57686 I0.05 J0.0866
G0 Z3.0
G0 X30.06371 Y270.70185
G0 Z1.0
G1 F300.0 Z-0.5
G2 F800.0 X30.16426 Y270.60185 I0.00055 J-0.1
G2 X30.01426 Y270.51525 I-0.1 J0.0
G2 Y270.68845 I0.05 J0.0866
G2 X30.06371 Y270.70185 I0.05 J-0.0866
G1 F300.0 Z-1.0
G2 F800.0 X30.16426 Y270.60185 I0.00055 J-0.1
G2 X30.01426 Y270.51525 I-0.1 J0.0
G2 Y270.68845 I0.05 J0.0866
G2 X30.06371 Y270.70185 I0.05 J-0.0866
G1 F300.0 Z-1.5
G2 F800.0 X30.16426 Y270.60185 I0.00055 J-0.1
G2 X30.01426 Y270.51525 I-0.1 J0.0
G2 Y270.68845 I0.05 J0.0866
G2 X30.06371 Y270.70185 I0.05 J-0.0866
G1 F300.0 Z-2.0
G2 F800.0 X30.16426 Y270.60185 I0.00055 J-0.1
G2 X30.01426 Y270.51525 I-0.1 J0.0
G2 Y270.68845 I0.05 J0.0866
G2 X30.06371 Y270.70185 I0.05 J-0.0866
G1 F300.0 Z-2.5
G2 F800.0 X30.16426 Y270.60185 I0.00055 J-0.1
G2 X30.01426 Y270.51525 I-0.1 J0.0
G2 Y270.68845 I0.05 J0.0866
G2 X30.06371 Y270.70185 I0.05 J-0.0866
G1 F300.0 Z-3.0
G2 F800.0 X30.16426 Y270.60185 I0.00055 J-0.1
G2 X30.01426 Y270.51525 I-0.1 J0.0
G2 Y270.68845 I0.05 J0.0866
G2 X30.06371 Y270.70185 I0.05 J-0.0866
G1 F300.0 Z-3.3
G2 F800.0 X30.16426 Y270.60185 I0.00055 J-0.1
G2 X30.01426 Y270.51525 I-0.1 J0.0
G2 Y270.68845 I0.05 J0.0866
G2 X30.06371 Y270.70185 I0.05 J-0.0866
G0 Z3.0
G0 X32.66984 Y259.63704
G0 Z1.0
G1 F300.0 Z-0.5
G2 F800.0 X32.79277 Y259.5397 I0.02293 J-0.09734
G2 X32.64277 Y259.4531 I-0.1 J0.0
G2 Y259.6263 I0.05 J0.0866
G2 X32.66984 Y259.63704 I0.05 J-0.0866
G1 F300.0 Z-1.0
G2 F800.0 X32.79277 Y259.5397 I0.02293 J-0.09734
G2 X32.64277 Y259.4531 I-0.1 J0.0
G2 Y259.6263 I0.05 J0.0866
G2 X32.66984 Y259.63704 I0.05 J-0.0866
G1 F300.0 Z-1.5
G2 F800.0 X32.79277 Y259.5397 I0.02293 J-0.09734
G2 X32.64277 Y259.4531 I-0.1 J0.0
G2 Y259.6263 I0.05 J0.0866
G2 X32.66984 Y259.63704 I0.05 J-0.0866
G1 F300.0 Z-2.0
G2 F800.0 X32.79277 Y259.5397 I0.02293 J-0.09734
G2 X32.64277 Y259.4531 I-0.1 J0.0
G2 Y259.6263 I0.05 J0.0866
G2 X32.66984 Y259.63704 I0.05 J-0.0866
G1 F300.0 Z-2.5
G2 F800.0 X32.79277 Y259.5397 I0.02293 J-0.09734
G2 X32.64277 Y259.4531 I-0.1 J0.0
G2 Y259.6263 I0.05 J0.0866
G2 X32.66984 Y259.63704 I0.05 J-0.0866
G1 F300.0 Z-3.0
G2 F800.0 X32.79277 Y259.5397 I0.02293 J-0.09734
G2 X32.64277 Y259.4531 I-0.1 J0.0
G2 Y259.6263 I0.05 J0.0866
G2 X32.66984 Y259.63704 I0.05 J-0.0866
G1 F300.0 Z-3.3
G2 F800.0 X32.79277 Y259.5397 I0.02293 J-0.09734
G2 X32.64277 Y259.4531 I-0.1 J0.0
G2 Y259.6263 I0.05 J0.0866
G2 X32.66984 Y259.63704 I0.05 J-0.0866
G0 Z3.0
G0 X32.69263 Y242.70185
G0 Z1.0
G1 F300.0 Z-0.5
G2 F800.0 X32.79277 Y242.60185 I0.00013 J-0.1
G2 X32.64277 Y242.51525 I-0.1 J0.0
G2 Y242.68845 I0.05 J0.0866
G2 X32.69263 Y242.70185 I0.05 J-0.0866
G1 F300.0 Z-1.0
G2 F800.0 X32.79277 Y242.60185 I0.00013 J-0.1
G2 X32.64277 Y242.51525 I-0.1 J0.0
G2 Y242.68845 I0.05 J0.0866
G2 X32.69263 Y242.70185 I0.05 J-0.0866
G1 F300.0 Z-1.5
G2 F800.0 X32.79277 Y242.60185 I0.00013 J-0.1
G2 X32.64277 Y242.51525 I-0.1 J0.0
G2 Y242.68845 I0.05 J0.0866
G2 X32.69263 Y242.70185 I0.05 J-0.0866
G1 F300.0 Z-2.0
G2 F800.0 X32.79277 Y242.60185 I0.00013 J-0.1
G2 X32.64277 Y242.51525 I-0.1 J0.0
G2 Y242.68845 I0.05 J0.0866
G2 X32.69263 Y242.70185 I0.05 J-0.0866
G1 F300.0 Z-2.5
G2 F800.0 X32.79277 Y242.60185 I0.00013 J-0.1
G2 X32.64277 Y242.51525 I-0.1 J0.0
G2 Y242.68845 I0.05 J0.0866
G2 X32.69263 Y242.70185 I0.05 J-0.0866
G1 F300.0 Z-3.0
G2 F800.0 X32.79277 Y242.60185 I0.00013 J-0.1
G2 X32.64277 Y242.51525 I-0.1 J0.0
G2 Y242.68845 I0.05 J0.0866
G2 X32.69263 Y242.70185 I0.05 J-0.0866
G1 F300.0 Z-3.3
G2 F800.0 X32.79277 Y242.60185 I0.00013 J-0.1
G2 X32.64277 Y242.51525 I-0.1 J0.0
G2 Y242.68845 I0.05 J0.0866
G2 X32.69263 Y242.70185 I0.05 J-0.0866
G0 Z3.0
G0 X30.08718 Y231.63704
G0 Z1.0
G1 F300.0 Z-0.5
G2 F800.0 X30.16426 Y231.5397 I-0.02292 J-0.09734
G2 X30.01426 Y231.4531 I-0.1 J0.0
G2 Y231.6263 I0.05 J0.0866
G2 X30.08718 Y231.63704 I0.05 J-0.0866
G1 F300.0 Z-1.0
G2 F800.0 X30.16426 Y231.5397 I-0.02292 J-0.09734
G2 X30.01426 Y231.4531 I-0.1 J0.0
G2 Y231.6263 I0.05 J0.0866
G2 X30.08718 Y231.63704 I0.05 J-0.0866
G1 F300.0 Z-1.5
G2 F800.0 X30.16426 Y231.5397 I-0.02292 J-0.09734
G2 X30.01426 Y231.4531 I-0.1 J0.0
G2 Y231.6263 I0.05 J0.0866
G2 X30.08718 Y231.63704 I0.05 J-0.0866
G1 F300.0 Z-2.0
G2 F800.0 X30.16426 Y231.5397 I-0.02292 J-0.09734
G2 X30.01426 Y231.4531 I-0.1 J0.0
G2 Y231.6263 I0.05 J0.0866
G2 X30.08718 Y231.63704 I0.05 J-0.0866
G1 F300.0 Z-2.5
G2 F800.0 X30.16426 Y231.5397 I-0.02292 J-0.09734
G2 X30.01426 Y231.4531 I-0.1 J0.0
G2 Y231.6263 I0.05 J0.0866
G2 X30.08718 Y231.63704 I0.05 J-0.0866
G1 F300.0 Z-3.0
G2 F800.0 X30.16426 Y231.5397 I-0.02292 J-0.09734
G2 X30.01426 Y231.4531 I-0.1 J0.0
G2 Y231.6263 I0.05 J0.0866
G2 X30.08718 Y231.63704 I0.05 J-0.0866
G1 F300.0 Z-3.3
G2 F800.0 X30.16426 Y231.5397 I-0.02292 J-0.09734
G2 X30.01426 Y231.4531 I-0.1 J0.0
G2 Y231.6263 I0.05 J0.0866
G2 X30.08718 Y231.63704 I0.05 J-0.0866
G0 Z3.0
G0 X30.06439 Y214.70185
G0 Z1.0
G1 F300.0 Z-0.5
G2 F800.0 X30.16426 Y214.60185 I-0.00013 J-0.1
G2 X30.01426 Y214.51525 I-0.1 J0.0
G2 Y214.68845 I0.05 J0.0866
G2 X30.06439 Y214.70185 I0.05 J-0.0866
G1 F300.0 Z-1.0
G2 F800.0 X30.16426 Y214.60185 I-0.00013 J-0.1
G2 X30.01426 Y214.51525 I-0.1 J0.0
G2 Y214.68845 I0.05 J0.0866
G2 X30.06439 Y214.70185 I0.05 J-0.0866
G1 F300.0 Z-1.5
G2 F800.0 X30.16426 Y214.60185 I-0.00013 J-0.1
G2 X30.01426 Y214.51525 I-0.1 J0.0
G2 Y214.68845 I0.05 J0.0866
G2 X30.06439 Y214.70185 I0.05 J-0.0866
G1 F300.0 Z-2.0
G2 F800.0 X30.16426 Y214.60185 I-0.00013 J-0.1
G2 X30.01426 Y214.51525 I-0.1 J0.0
G2 Y214.68845 I0.05 J0.0866
G2 X30.06439 Y214.70185 I0.05 J-0.0866
G1 F300.0 Z-2.5
G2 F800.0 X30.16426 Y214.60185 I-0.00013 J-0.1
G2 X30.01426 Y214.51525 I-0.1 J0.0
G2 Y214.68845 I0.05 J0.0866
G2 X30.06439 Y214.70185 I0.05 J-0.0866
G1 F300.0 Z-3.0
G2 F800.0 X30.16426 Y214.60185 I-0.00013 J-0.1
G2 X30.01426 Y214.51525 I-0.1 J0.0
G2 Y214.68845 I0.05 J0.0866
G2 X30.06439 Y214.70185 I0.05 J-0.0866
G1 F300.0 Z-3.3
G2 F800.0 X30.16426 Y214.60185 I-0.00013 J-0.1
G2 X30.01426 Y214.51525 I-0.1 J0.0
G2 Y214.68845 I0.05 J0.0866
G2 X30.06439 Y214.70185 I0.05 J-0.0866
G0 Z3.0
G0 X32.66985 Y203.63704
G0 Z1.0
G1 F300.0 Z-0.5
G2 F800.0 X32.79277 Y203.5397 I0.02292 J-0.09734
G2 X32.64277 Y203.4531 I-0.1 J0.0
G2 Y203.6263 I0.05 J0.0866
G2 X32.66985 Y203.63704 I0.05 J-0.0866
G1 F300.0 Z-1.0
G2 F800.0 X32.79277 Y203.5397 I0.02292 J-0.09734
G2 X32.64277 Y203.4531 I-0.1 J0.0
G2 Y203.6263 I0.05 J0.0866
G2 X32.66985 Y203.63704 I0.05 J-0.0866
G1 F300.0 Z-1.5
G2 F800.0 X32.79277 Y203.5397 I0.02292 J-0.09734
G2 X32.64277 Y203.4531 I-0.1 J0.0
G2 Y203.6263 I0.05 J0.0866
G2 X32.66985 Y203.63704 I0.05 J-0.0866
G1 F300.0 Z-2.0
G2 F800.0 X32.79277 Y203.5397 I0.02292 J-0.09734
G2 X32.64277 Y203.4531 I-0.1 J0.0
G2 Y203.6263 I0.05 J0.0866
G2 X32.66985 Y203.63704 I0.05 J-0.0866
G1 F300.0 Z-2.5
G2 F800.0 X32.79277 Y203.5397 I0.02292 J-0.09734
G2 X32.64277 Y203.4531 I-0.1 J0.0
G2 Y203.6263 I0.05 J0.0866
G2 X32.66985 Y203.63704 I0.05 J-0.0866
G1 F300.0 Z-3.0
G2 F800.0 X32.79277 Y203.5397 I0.02292 J-0.09734
G2 X32.64277 Y203.4531 I-0.1 J0.0
G2 Y203.6263 I0.05 J0.0866
G2 X32.66985 Y203.63704 I0.05 J-0.0866
G1 F300.0 Z-3.3
G2 F800.0 X32.79277 Y203.5397 I0.02292 J-0.09734
G2 X32.64277 Y203.4531 I-0.1 J0.0
G2 Y203.6263 I0.05 J0.0866
G2 X32.66985 Y203.63704 I0.05 J-0.0866
G0 Z3.0
G0 X32.69263 Y186.70185
G0 Z1.0
G1 F300.0 Z-0.5
G2 F800.0 X32.79277 Y186.60185 I0.00013 J-0.1
G2 X32.64277 Y186.51525 I-0.1 J0.0
G2 Y186.68845 I0.05 J0.0866
G2 X32.69263 Y186.70185 I0.05 J-0.0866
G1 F300.0 Z-1.0
G2 F800.0 X32.79277 Y186.60185 I0.00013 J-0.1
G2 X32.64277 Y186.51525 I-0.1 J0.0
G2 Y186.68845 I0.05 J0.0866
G2 X32.69263 Y186.70185 I0.05 J-0.0866
G1 F300.0 Z-1.5
G2 F800.0 X32.79277 Y186.60185 I0.00013 J-0.1
G2 X32.64277 Y186.51525 I-0.1 J0.0
G2 Y186.68845 I0.05 J0.0866
G2 X32.69263 Y186.70185 I0.05 J-0.0866
G1 F300.0 Z-2.0
G2 F800.0 X32.79277 Y186.60185 I0.00013 J-0.1
G2 X32.64277 Y186.51525 I-0.1 J0.0
G2 Y186.68845 I0.05 J0.0866
G2 X32.69263 Y186.70185 I0.05 J-0.0866
G1 F300.0 Z-2.5
G2 F800.0 X32.79277 Y186.60185 I0.00013 J-0.1
G2 X32.64277 Y186.51525 I-0.1 J0.0
G2 Y186.68845 I0.05 J0.0866
G2 X32.69263 Y186.70185 I0.05 J-0.0866
G1 F300.0 Z-3.0
G2 F800.0 X32.79277 Y186.60185 I0.00013 J-0.1
G2 X32.64277 Y186.51525 I-0.1 J0.0
G2 Y186.68845 I0.05 J0.0866
G2 X32.69263 Y186.70185 I0.05 J-0.0866
G1 F300.0 Z-3.3
G2 F800.0 X32.79277 Y186.60185 I0.00013 J-0.1
G2 X32.64277 Y186.51525 I-0.1 J0.0
G2 Y186.68845 I0.05 J0.0866
G2 X32.69263 Y186.70185 I0.05 J-0.0866
G0 Z3.0
G0 X30.08526 Y174.56669
G0 Z1.0
G1 F300.0 Z-0.5
G2 F800.0 X30.16426 Y174.46893 I-0.02101 J-0.09777
G2 X30.01426 Y174.38232 I-0.1 J0.0
G2 Y174.55553 I0.05 J0.0866
G2 X30.08526 Y174.56669 I0.05 J-0.0866
G1 F300.0 Z-1.0
G2 F800.0 X30.16426 Y174.46893 I-0.02101 J-0.09777
G2 X30.01426 Y174.38232 I-0.1 J0.0
G2 Y174.55553 I0.05 J0.0866
G2 X30.08526 Y174.56669 I0.05 J-0.0866
G1 F300.0 Z-1.5
G2 F800.0 X30.16426 Y174.46893 I-0.02101 J-0.09777
G2 X30.01426 Y174.38232 I-0.1 J0.0
G2 Y174.55553 I0.05 J0.0866
G2 X30.08526 Y174.56669 I0.05 J-0.0866
G1 F300.0 Z-2.0
G2 F800.0 X30.16426 Y174.46893 I-0.02101 J-0.09777
G2 X30.01426 Y174.38232 I-0.1 J0.0
G2 Y174.55553 I0.05 J0.0866
G2 X30.08526 Y174.56669 I0.05 J-0.0866
G1 F300.0 Z-2.5
G2 F800.0 X30.16426 Y174.46893 I-0.02101 J-0.09777
G2 X30.01426 Y174.38232 I-0.1 J0.0
G2 Y174.55553 I0.05 J0.0866
G2 X30.08526 Y174.56669 I0.05 J-0.0866
G1 F300.0 Z-3.0
G2 F800.0 X30.16426 Y174.46893 I-0.02101 J-0.09777
G2 X30.01426 Y174.38232 I-0.1 J0.0
G2 Y174.55553 I0.05 J0.0866
G2 X30.08526 Y174.56669 I0.05 J-0.0866
G1 F300.0 Z-3.3
G2 F800.0 X30.16426 Y174.46893 I-0.02101 J-0.09777
G2 X30.01426 Y174.38232 I-0.1 J0.0
G2 Y174.55553 I0.05 J0.0866
G2 X30.08526 Y174.56669 I0.05 J-0.0866
G0 Z3.0
G0 X30.06438 Y157.63107
G0 Z1.0
G1 F300.0 Z-0.5
G2 F800.0 X30.16426 Y157.53107 I-0.00012 J-0.1
G2 X30.01426 Y157.44447 I-0.1 J0.0
G2 Y157.61768 I0.05 J0.0866
G2 X30.06438 Y157.63107 I0.05 J-0.0866
G1 F300.0 Z-1.0
G2 F800.0 X30.16426 Y157.53107 I-0.00012 J-0.1
G2 X30.01426 Y157.44447 I-0.1 J0.0
G2 Y157.61768 I0.05 J0.0866
G2 X30.06438 Y157.63107 I0.05 J-0.0866
G1 F300.0 Z-1.5
G2 F800.0 X30.16426 Y157.53107 I-0.00012 J-0.1
G2 X30.01426 Y157.44447 I-0.1 J0.0
G2 Y157.61768 I0.05 J0.0866
G2 X30.06438 Y157.63107 I0.05 J-0.0866
G1 F300.0 Z-2.0
G2 F800.0 X30.16426 Y157.53107 I-0.00012 J-0.1
G2 X30.01426 Y157.44447 I-0.1 J0.0
G2 Y157.61768 I0.05 J0.0866
G2 X30.06438 Y157.63107 I0.05 J-0.0866
G1 F300.0 Z-2.5
G2 F800.0 X30.16426 Y157.53107 I-0.00012 J-0.1
G2 X30.01426 Y157.44447 I-0.1 J0.0
G2 Y157.61768 I0.05 J0.0866
G2 X30.06438 Y157.63107 I0.05 J-0.0866
G1 F300.0 Z-3.0
G2 F800.0 X30.16426 Y157.53107 I-0.00012 J-0.1
G2 X30.01426 Y157.44447 I-0.1 J0.0
G2 Y157.61768 I0.05 J0.0866
G2 X30.06438 Y157.63107 I0.05 J-0.0866
G1 F300.0 Z-3.3
G2 F800.0 X30.16426 Y157.53107 I-0.00012 J-0.1
G2 X30.01426 Y157.44447 I-0.1 J0.0
G2 Y157.61768 I0.05 J0.0866
G2 X30.06438 Y157.63107 I0.05 J-0.0866
G0 Z3.0
G0 X32.29348 Y147.13752
G0 Z1.0
G1 F300.0 Z-0.5
G2 F800.0 X32.41426 Y147.0397 I0.02078 J-0.09782
G2 X32.26426 Y146.9531 I-0.1 J0.0
G2 Y147.1263 I0.05 J0.0866
G2 X32.29348 Y147.13752 I0.05 J-0.0866
G1 F300.0 Z-1.0
G2 F800.0 X32.41426 Y147.0397 I0.02078 J-0.09782
G2 X32.26426 Y146.9531 I-0.1 J0.0
G2 Y147.1263 I0.05 J0.0866
G2 X32.29348 Y147.13752 I0.05 J-0.0866
G1 F300.0 Z-1.5
G2 F800.0 X32.41426 Y147.0397 I0.02078 J-0.09782
G2 X32.26426 Y146.9531 I-0.1 J0.0
G2 Y147.1263 I0.05 J0.0866
G2 X32.29348 Y147.13752 I0.05 J-0.0866
G1 F300.0 Z-2.0
G2 F800.0 X32.41426 Y147.0397 I0.02078 J-0.09782
G2 X32.26426 Y146.9531 I-0.1 J0.0
G2 Y147.1263 I0.05 J0.0866
G2 X32.29348 Y147.13752 I0.05 J-0.0866
G1 F300.0 Z-2.5
G2 F800.0 X32.41426 Y147.0397 I0.02078 J-0.09782
G2 X32.26426 Y146.9531 I-0.1 J0.0
G2 Y147.1263 I0.05 J0.0866
G2 X32.29348 Y147.13752 I0.05 J-0.0866
G1 F300.0 Z-3.0
G2 F800.0 X32.41426 Y147.0397 I0.02078 J-0.09782
G2 X32.26426 Y146.9531 I-0.1 J0.0
G2 Y147.1263 I0.05 J0.0866
G2 X32.29348 Y147.13752 I0.05 J-0.0866
G1 F300.0 Z-3.3
G2 F800.0 X32.41426 Y147.0397 I0.02078 J-0.09782
G2 X32.26426 Y146.9531 I-0.1 J0.0
G2 Y147.1263 I0.05 J0.0866
G2 X32.29348 Y147.13752 I0.05 J-0.0866
G0 Z3.0
G0 X32.31413 Y130.20185
G0 Z1.0
G1 F300.0 Z-0.5
G2 F800.0 X32.41426 Y130.10185 I0.00012 J-0.1
G2 X32.26426 Y130.01525 I-0.1 J0.0
G2 Y130.18845 I0.05 J0.0866
G2 X32.31413 Y130.20185 I0.05 J-0.0866
G1 F300.0 Z-1.0
G2 F800.0 X32.41426 Y130.10185 I0.00012 J-0.1
G2 X32.26426 Y130.01525 I-0.1 J0.0
G2 Y130.18845 I0.05 J0.0866
G2 X32.31413 Y130.20185 I0.05 J-0.0866
G1 F300.0 Z-1.5
G2 F800.0 X32.41426 Y130.10185 I0.00012 J-0.1
G2 X32.26426 Y130.01525 I-0.1 J0.0
G2 Y130.18845 I0.05 J0.0866
G2 X32.31413 Y130.20185 I0.05 J-0.0866
G1 F300.0 Z-2.0
G2 F800.0 X32.41426 Y130.10185 I0.00012 J-0.1
G2 X32.26426 Y130.01525 I-0.1 J0.0
G2 Y130.18845 I0.05 J0.0866
G2 X32.31413 Y130.20185 I0.05 J-0.0866
G1 F300.0 Z-2.5
G2 F800.0 X32.41426 Y130.10185 I0.00012 J-0.1
G2 X32.26426 Y130.01525 I-0.1 J0.0
G2 Y130.18845 I0.05 J0.0866
G2 X32.31413 Y130.20185 I0.05 J-0.0866
G1 F300.0 Z-3.0
G2 F800.0 X32.41426 Y130.10185 I0.00012 J-0.1
G2 X32.26426 Y130.01525 I-0.1 J0.0
G2 Y130.18845 I0.05 J0.0866
G2 X32.31413 Y130.20185 I0.05 J-0.0866
G1 F300.0 Z-3.3
G2 F800.0 X32.41426 Y130.10185 I0.00012 J-0.1
G2 X32.26426 Y130.01525 I-0.1 J0.0
G2 Y130.18845 I0.05 J0.0866
G2 X32.31413 Y130.20185 I0.05 J-0.0866
G0 Z3.0
G0 X29.70675 Y118.06669
G0 Z1.0
G1 F300.0 Z-0.5
G2 F800.0 X29.78574 Y117.96893 I-0.02101 J-0.09777
G2 X29.63574 Y117.88232 I-0.1 J0.0
G2 Y118.05553 I0.05 J0.0866
G2 X29.70675 Y118.06669 I0.05 J-0.0866
G1 F300.0 Z-1.0
G2 F800.0 X29.78574 Y117.96893 I-0.02101 J-0.09777
G2 X29.63574 Y117.88232 I-0.1 J0.0
G2 Y118.05553 I0.05 J0.0866
G2 X29.70675 Y118.06669 I0.05 J-0.0866
G1 F300.0 Z-1.5
G2 F800.0 X29.78574 Y117.96893 I-0.02101 J-0.09777
G2 X29.63574 Y117.88232 I-0.1 J0.0
G2 Y118.05553 I0.05 J0.0866
G2 X29.70675 Y118.06669 I0.05 J-0.0866
G1 F300.0 Z-2.0
G2 F800.0 X29.78574 Y117.96893 I-0.02101 J-0.09777
G2 X29.63574 Y117.88232 I-0.1 J0.0
G2 Y118.05553 I0.05 J0.0866
G2 X29.70675 Y118.06669 I0.05 J-0.0866
G1 F300.0 Z-2.5
G2 F800.0 X29.78574 Y117.96893 I-0.02101 J-0.09777
G2 X29.63574 Y117.88232 I-0.1 J0.0
G2 Y118.05553 I0.05 J0.0866
G2 X29.70675 Y118.06669 I0.05 J-0.0866
G1 F300.0 Z-3.0
G2 F800.0 X29.78574 Y117.96893 I-0.02101 J-0.09777
G2 X29.63574 Y117.88232 I-0.1 J0.0
G2 Y118.05553 I0.05 J0.0866
G2 X29.70675 Y118.06669 I0.05 J-0.0866
G1 F300.0 Z-3.3
G2 F800.0 X29.78574 Y117.96893 I-0.02101 J-0.09777
G2 X29.63574 Y117.88232 I-0.1 J0.0
G2 Y118.05553 I0.05 J0.0866
G2 X29.70675 Y118.06669 I0.05 J-0.0866
G0 Z3.0
G0 X29.68587 Y101.13107
G0 Z1.0
G1 F300.0 Z-0.5
G2 F800.0 X29.78574 Y101.03107 I-0.00012 J-0.1
G2 X29.63574 Y100.94447 I-0.1 J0.0
G2 Y101.11768 I0.05 J0.0866
G2 X29.68587 Y101.13107 I0.05 J-0.0866
G1 F300.0 Z-1.0
G2 F800.0 X29.78574 Y101.03107 I-0.00012 J-0.1
G2 X29.63574 Y100.94447 I-0.1 J0.0
G2 Y101.11768 I0.05 J0.0866
G2 X29.68587 Y101.13107 I0.05 J-0.0866
G1 F300.0 Z-1.5
G2 F800.0 X29.78574 Y101.03107 I-0.00012 J-0.1
G2 X29.63574 Y100.94447 I-0.1 J0.0
G2 Y101.11768 I0.05 J0.0866
G2 X29.68587 Y101.13107 I0.05 J-0.0866
G1 F300.0 Z-2.0
G2 F800.0 X29.78574 Y101.03107 I-0.00012 J-0.1
G2 X29.63574 Y100.94447 I-0.1 J0.0
G2 Y101.11768 I0.05 J0.0866
G2 X29.68587 Y101.13107 I0.05 J-0.0866
G1 F300.0 Z-2.5
G2 F800.0 X29.78574 Y101.03107 I-0.00012 J-0.1
G2 X29.63574 Y100.94447 I-0.1 J0.0
G2 Y101.11768 I0.05 J0.0866
G2 X29.68587 Y101.13107 I0.05 J-0.0866
G1 F300.0 Z-3.0
G2 F800.0 X29.78574 Y101.03107 I-0.00012 J-0.1
G2 X29.63574 Y100.94447 I-0.1 J0.0
G2 Y101.11768 I0.05 J0.0866
G2 X29.68587 Y101.13107 I0.05 J-0.0866
G1 F300.0 Z-3.3
G2 F800.0 X29.78574 Y101.03107 I-0.00012 J-0.1
G2 X29.63574 Y100.94447 I-0.1 J0.0
G2 Y101.11768 I0.05 J0.0866
G2 X29.68587 Y101.13107 I0.05 J-0.0866
G0 Z3.0
G0 X32.29134 Y90.06626
G0 Z1.0
G1 F300.0 Z-0.5
G2 F800.0 X32.41426 Y89.96893 I0.02292 J-0.09734
G2 X32.26426 Y89.88232 I-0.1 J0.0
G2 Y90.05553 I0.05 J0.0866
G2 X32.29134 Y90.06626 I0.05 J-0.0866
G1 F300.0 Z-1.0
G2 F800.0 X32.41426 Y89.96893 I0.02292 J-0.09734
G2 X32.26426 Y89.88232 I-0.1 J0.0
G2 Y90.05553 I0.05 J0.0866
G2 X32.29134 Y90.06626 I0.05 J-0.0866
G1 F300.0 Z-1.5
G2 F800.0 X32.41426 Y89.96893 I0.02292 J-0.09734
G2 X32.26426 Y89.88232 I-0.1 J0.0
G2 Y90.05553 I0.05 J0.0866
G2 X32.29134 Y90.06626 I0.05 J-0.0866
G1 F300.0 Z-2.0
G2 F800.0 X32.41426 Y89.96893 I0.02292 J-0.09734
G2 X32.26426 Y89.88232 I-0.1 J0.0
G2 Y90.05553 I0.05 J0.0866
G2 X32.29134 Y90.06626 I0.05 J-0.0866
G1 F300.0 Z-2.5
G2 F800.0 X32.41426 Y89.96893 I0.02292 J-0.09734
G2 X32.26426 Y89.88232 I-0.1 J0.0
G2 Y90.05553 I0.05 J0.0866
G2 X32.29134 Y90.06626 I0.05 J-0.0866
G1 F300.0 Z-3.0
G2 F800.0 X32.41426 Y89.96893 I0.02292 J-0.09734
G2 X32.26426 Y89.88232 I-0.1 J0.0
G2 Y90.05553 I0.05 J0.0866
G2 X32.29134 Y90.06626 I0.05 J-0.0866
G1 F300.0 Z-3.3
G2 F800.0 X32.41426 Y89.96893 I0.02292 J-0.09734
G2 X32.26426 Y89.88232 I-0.1 J0.0
G2 Y90.05553 I0.05 J0.0866
G2 X32.29134 Y90.06626 I0.05 J-0.0866
G0 Z3.0
G0 X32.31412 Y73.13107
G0 Z1.0
G1 F300.0 Z-0.5
G2 F800.0 X32.41426 Y73.03107 I0.00013 J-0.1
G2 X32.26426 Y72.94447 I-0.1 J0.0
G2 Y73.11768 I0.05 J0.0866
G2 X32.31412 Y73.13107 I0.05 J-0.0866
G1 F300.0 Z-1.0
G2 F800.0 X32.41426 Y73.03107 I0.00013 J-0.1
G2 X32.26426 Y72.94447 I-0.1 J0.0
G2 Y73.11768 I0.05 J0.0866
G2 X32.31412 Y73.13107 I0.05 J-0.0866
G1 F300.0 Z-1.5
G2 F800.0 X32.41426 Y73.03107 I0.00013 J-0.1
G2 X32.26426 Y72.94447 I-0.1 J0.0
G2 Y73.11768 I0.05 J0.0866
G2 X32.31412 Y73.13107 I0.05 J-0.0866
G1 F300.0 Z-2.0
G2 F800.0 X32.41426 Y73.03107 I0.00013 J-0.1
G2 X32.26426 Y72.94447 I-0.1 J0.0
G2 Y73.11768 I0.05 J0.0866
G2 X32.31412 Y73.13107 I0.05 J-0.0866
G1 F300.0 Z-2.5
G2 F800.0 X32.41426 Y73.03107 I0.00013 J-0.1
G2 X32.26426 Y72.94447 I-0.1 J0.0
G2 Y73.11768 I0.05 J0.0866
G2 X32.31412 Y73.13107 I0.05 J-0.0866
G1 F300.0 Z-3.0
G2 F800.0 X32.41426 Y73.03107 I0.00013 J-0.1
G2 X32.26426 Y72.94447 I-0.1 J0.0
G2 Y73.11768 I0.05 J0.0866
G2 X32.31412 Y73.13107 I0.05 J-0.0866
G1 F300.0 Z-3.3
G2 F800.0 X32.41426 Y73.03107 I0.00013 J-0.1
G2 X32.26426 Y72.94447 I-0.1 J0.0
G2 Y73.11768 I0.05 J0.0866
G2 X32.31412 Y73.13107 I0.05 J-0.0866
G0 Z3.0
G0 X29.70866 Y62.06626
G0 Z1.0
G1 F300.0 Z-0.5
G2 F800.0 X29.78574 Y61.96893 I-0.02292 J-0.09734
G2 X29.63574 Y61.88232 I-0.1 J0.0
G2 Y62.05553 I0.05 J0.0866
G2 X29.70866 Y62.06626 I0.05 J-0.0866
G1 F300.0 Z-1.0
G2 F800.0 X29.78574 Y61.96893 I-0.02292 J-0.09734
G2 X29.63574 Y61.88232 I-0.1 J0.0
G2 Y62.05553 I0.05 J0.0866
G2 X29.70866 Y62.06626 I0.05 J-0.0866
G1 F300.0 Z-1.5
G2 F800.0 X29.78574 Y61.96893 I-0.02292 J-0.09734
G2 X29.63574 Y61.88232 I-0.1 J0.0
G2 Y62.05553 I0.05 J0.0866
G2 X29.70866 Y62.06626 I0.05 J-0.0866
G1 F300.0 Z-2.0
G2 F800.0 X29.78574 Y61.96893 I-0.02292 J-0.09734
G2 X29.63574 Y61.88232 I-0.1 J0.0
G2 Y62.05553 I0.05 J0.0866
G2 X29.70866 Y62.06626 I0.05 J-0.0866
G1 F300.0 Z-2.5
G2 F800.0 X29.78574 Y61.96893 I-0.02292 J-0.09734
G2 X29.63574 Y61.88232 I-0.1 J0.0
G2 Y62.05553 I0.05 J0.0866
G2 X29.70866 Y62.06626 I0.05 J-0.0866
G1 F300.0 Z-3.0
G2 F800.0 X29.78574 Y61.96893 I-0.02292 J-0.09734
G2 X29.63574 Y61.88232 I-0.1 J0.0
G2 Y62.05553 I0.05 J0.0866
G2 X29.70866 Y62.06626 I0.05 J-0.0866
G1 F300.0 Z-3.3
G2 F800.0 X29.78574 Y61.96893 I-0.02292 J-0.09734
G2 X29.63574 Y61.88232 I-0.1 J0.0
G2 Y62.05553 I0.05 J0.0866
G2 X29.70866 Y62.06626 I0.05 J-0.0866
G0 Z3.0
G0 X29.68588 Y45.13107
G0 Z1.0
G1 F300.0 Z-0.5
G2 F800.0 X29.78574 Y45.03107 I-0.00013 J-0.1
G2 X29.63574 Y44.94447 I-0.1 J0.0
G2 Y45.11768 I0.05 J0.0866
G2 X29.68588 Y45.13107 I0.05 J-0.0866
G1 F300.0 Z-1.0
G2 F800.0 X29.78574 Y45.03107 I-0.00013 J-0.1
G2 X29.63574 Y44.94447 I-0.1 J0.0
G2 Y45.11768 I0.05 J0.0866
G2 X29.68588 Y45.13107 I0.05 J-0.0866
G1 F300.0 Z-1.5
G2 F800.0 X29.78574 Y45.03107 I-0.00013 J-0.1
G2 X29.63574 Y44.94447 I-0.1 J0.0
G2 Y45.11768 I0.05 J0.0866
G2 X29.68588 Y45.13107 I0.05 J-0.0866
G1 F300.0 Z-2.0
G2 F800.0 X29.78574 Y45.03107 I-0.00013 J-0.1
G2 X29.63574 Y44.94447 I-0.1 J0.0
G2 Y45.11768 I0.05 J0.0866
G2 X29.68588 Y45.13107 I0.05 J-0.0866
G1 F300.0 Z-2.5
G2 F800.0 X29.78574 Y45.03107 I-0.00013 J-0.1
G2 X29.63574 Y44.94447 I-0.1 J0.0
G2 Y45.11768 I0.05 J0.0866
G2 X29.68588 Y45.13107 I0.05 J-0.0866
G1 F300.0 Z-3.0
G2 F800.0 X29.78574 Y45.03107 I-0.00013 J-0.1
G2 X29.63574 Y44.94447 I-0.1 J0.0
G2 Y45.11768 I0.05 J0.0866
G2 X29.68588 Y45.13107 I0.05 J-0.0866
G1 F300.0 Z-3.3
G2 F800.0 X29.78574 Y45.03107 I-0.00013 J-0.1
G2 X29.63574 Y44.94447 I-0.1 J0.0
G2 Y45.11768 I0.05 J0.0866
G2 X29.68588 Y45.13107 I0.05 J-0.0866
G0 Z3.0
G0 X32.29134 Y34.06626
G0 Z1.0
G1 F300.0 Z-0.5
G2 F800.0 X32.41426 Y33.96893 I0.02292 J-0.09734
G2 X32.26426 Y33.88232 I-0.1 J0.0
G2 Y34.05553 I0.05 J0.0866
G2 X32.29134 Y34.06626 I0.05 J-0.0866
G1 F300.0 Z-1.0
G2 F800.0 X32.41426 Y33.96893 I0.02292 J-0.09734
G2 X32.26426 Y33.88232 I-0.1 J0.0
G2 Y34.05553 I0.05 J0.0866
G2 X32.29134 Y34.06626 I0.05 J-0.0866
G1 F300.0 Z-1.5
G2 F800.0 X32.41426 Y33.96893 I0.02292 J-0.09734
G2 X32.26426 Y33.88232 I-0.1 J0.0
G2 Y34.05553 I0.05 J0.0866
G2 X32.29134 Y34.06626 I0.05 J-0.0866
G1 F300.0 Z-2.0
G2 F800.0 X32.41426 Y33.96893 I0.02292 J-0.09734
G2 X32.26426 Y33.88232 I-0.1 J0.0
G2 Y34.05553 I0.05 J0.0866
G2 X32.29134 Y34.06626 I0.05 J-0.0866
G1 F300.0 Z-2.5
G2 F800.0 X32.41426 Y33.96893 I0.02292 J-0.09734
G2 X32.26426 Y33.88232 I-0.1 J0.0
G2 Y34.05553 I0.05 J0.0866
G2 X32.29134 Y34.06626 I0.05 J-0.0866
G1 F300.0 Z-3.0
G2 F800.0 X32.41426 Y33.96893 I0.02292 J-0.09734
G2 X32.26426 Y33.88232 I-0.1 J0.0
G2 Y34.05553 I0.05 J0.0866
G2 X32.29134 Y34.06626 I0.05 J-0.0866
G1 F300.0 Z-3.3
G2 F800.0 X32.41426 Y33.96893 I0.02292 J-0.09734
G2 X32.26426 Y33.88232 I-0.1 J0.0
G2 Y34.05553 I0.05 J0.0866
G2 X32.29134 Y34.06626 I0.05 J-0.0866
G0 Z3.0
G0 X32.31412 Y17.13107
G0 Z1.0
G1 F300.0 Z-0.5
G2 F800.0 X32.41426 Y17.03107 I0.00013 J-0.1
G2 X32.26426 Y16.94447 I-0.1 J0.0
G2 Y17.11768 I0.05 J0.0866
G2 X32.31412 Y17.13107 I0.05 J-0.0866
G1 F300.0 Z-1.0
G2 F800.0 X32.41426 Y17.03107 I0.00013 J-0.1
G2 X32.26426 Y16.94447 I-0.1 J0.0
G2 Y17.11768 I0.05 J0.0866
G2 X32.31412 Y17.13107 I0.05 J-0.0866
G1 F300.0 Z-1.5
G2 F800.0 X32.41426 Y17.03107 I0.00013 J-0.1
G2 X32.26426 Y16.94447 I-0.1 J0.0
G2 Y17.11768 I0.05 J0.0866
G2 X32.31412 Y17.13107 I0.05 J-0.0866
G1 F300.0 Z-2.0
G2 F800.0 X32.41426 Y17.03107 I0.00013 J-0.1
G2 X32.26426 Y16.94447 I-0.1 J0.0
G2 Y17.11768 I0.05 J0.0866
G2 X32.31412 Y17.13107 I0.05 J-0.0866
G1 F300.0 Z-2.5
G2 F800.0 X32.41426 Y17.03107 I0.00013 J-0.1
G2 X32.26426 Y16.94447 I-0.1 J0.0
G2 Y17.11768 I0.05 J0.0866
G2 X32.31412 Y17.13107 I0.05 J-0.0866
G1 F300.0 Z-3.0
G2 F800.0 X32.41426 Y17.03107 I0.00013 J-0.1
G2 X32.26426 Y16.94447 I-0.1 J0.0
G2 Y17.11768 I0.05 J0.0866
G2 X32.31412 Y17.13107 I0.05 J-0.0866
G1 F300.0 Z-3.3
G2 F800.0 X32.41426 Y17.03107 I0.00013 J-0.1
G2 X32.26426 Y16.94447 I-0.1 J0.0
G2 Y17.11768 I0.05 J0.0866
G2 X32.31412 Y17.13107 I0.05 J-0.0866
G0 Z3.0
G0 X55.90571 Y25.46669
G0 Z1.0
G1 F300.0 Z-0.5
G2 F800.0 X55.95 Y25.5866 I0.09429 J0.03331
G2 X56.1 Y25.5 I0.05 J-0.0866
G2 X55.95 Y25.4134 I-0.1 J0.0
G2 X55.90571 Y25.46669 I0.05 J0.0866
G1 F300.0 Z-1.0
G2 F800.0 X55.95 Y25.5866 I0.09429 J0.03331
G2 X56.1 Y25.5 I0.05 J-0.0866
G2 X55.95 Y25.4134 I-0.1 J0.0
G2 X55.90571 Y25.46669 I0.05 J0.0866
G1 F300.0 Z-1.5
G2 F800.0 X55.95 Y25.5866 I0.09429 J0.03331
G2 X56.1 Y25.5 I0.05 J-0.0866
G2 X55.95 Y25.4134 I-0.1 J0.0
G2 X55.90571 Y25.46669 I0.05 J0.0866
G1 F300.0 Z-2.0
G2 F800.0 X55.95 Y25.5866 I0.09429 J0.03331
G2 X56.1 Y25.5 I0.05 J-0.0866
G2 X55.95 Y25.4134 I-0.1 J0.0
G2 X55.90571 Y25.46669 I0.05 J0.0866
G1 F300.0 Z-2.5
G2 F800.0 X55.95 Y25.5866 I0.09429 J0.03331
G2 X56.1 Y25.5 I0.05 J-0.0866
G2 X55.95 Y25.4134 I-0.1 J0.0
G2 X55.90571 Y25.46669 I0.05 J0.0866
G1 F300.0 Z-3.0
G2 F800.0 X55.95 Y25.5866 I0.09429 J0.03331
G2 X56.1 Y25.5 I0.05 J-0.0866
G2 X55.95 Y25.4134 I-0.1 J0.0
G2 X55.90571 Y25.46669 I0.05 J0.0866
G1 F300.0 Z-3.3
G2 F800.0 X55.95 Y25.5866 I0.09429 J0.03331
G2 X56.1 Y25.5 I0.05 J-0.0866
G2 X55.95 Y25.4134 I-0.1 J0.0
G2 X55.90571 Y25.46669 I0.05 J0.0866
G0 Z3.0
G0 X65.9372 Y35.37943
G0 Z1.0
G1 F300.0 Z-0.5
G2 F800.0 X65.95833 Y35.53632 I0.07113 J0.07029
G2 X66.10833 Y35.44972 I0.05 J-0.0866
G2 X65.95833 Y35.36312 I-0.1 J0.0
G2 X65.9372 Y35.37943 I0.05 J0.0866
G1 F300.0 Z-1.0
G2 F800.0 X65.95833 Y35.53632 I0.07113 J0.07029
G2 X66.10833 Y35.44972 I0.05 J-0.0866
G2 X65.95833 Y35.36312 I-0.1 J0.0
G2 X65.9372 Y35.37943 I0.05 J0.0866
G1 F300.0 Z-1.5
G2 F800.0 X65.95833 Y35.53632 I0.07113 J0.07029
G2 X66.10833 Y35.44972 I0.05 J-0.0866
G2 X65.95833 Y35.36312 I-0.1 J0.0
G2 X65.9372 Y35.37943 I0.05 J0.0866
G1 F300.0 Z-2.0
G2 F800.0 X65.95833 Y35.53632 I0.07113 J0.07029
G2 X66.10833 Y35.44972 I0.05 J-0.0866
G2 X65.95833 Y35.36312 I-0.1 J0.0
G2 X65.9372 Y35.37943 I0.05 J0.0866
G1 F300.0 Z-2.5
G2 F800.0 X65.95833 Y35.53632 I0.07113 J0.07029
G2 X66.10833 Y35.44972 I0.05 J-0.0866
G2 X65.95833 Y35.36312 I-0.1 J0.0
G2 X65.9372 Y35.37943 I0.05 J0.0866
G1 F300.0 Z-3.0
G2 F800.0 X65.95833 Y35.53632 I0.07113 J0.07029
G2 X66.10833 Y35.44972 I0.05 J-0.0866
G2 X65.95833 Y35.36312 I-0.1 J0.0
G2 X65.9372 Y35.37943 I0.05 J0.0866
G1 F300.0 Z-3.3
G2 F800.0 X65.95833 Y35.53632 I0.07113 J0.07029
G2 X66.10833 Y35.44972 I0.05 J-0.0866
G2 X65.95833 Y35.36312 I-0.1 J0.0
G2 X65.9372 Y35.37943 I0.05 J0.0866
G0 Z3.0
G0 X71.33854 Y25.58756
G0 Z1.0
G1 F300.0 Z-0.5
G2 F800.0 X71.48684 Y25.5 I0.0483 J-0.08756
G2 X71.33684 Y25.4134 I-0.1 J0.0
G2 Y25.5866 I0.05 J0.0866
G2 X71.33854 Y25.58756 I0.05 J-0.0866
G1 F300.0 Z-1.0
G2 F800.0 X71.48684 Y25.5 I0.0483 J-0.08756
G2 X71.33684 Y25.4134 I-0.1 J0.0
G2 Y25.5866 I0.05 J0.0866
G2 X71.33854 Y25.58756 I0.05 J-0.0866
G1 F300.0 Z-1.5
G2 F800.0 X71.48684 Y25.5 I0.0483 J-0.08756
G2 X71.33684 Y25.4134 I-0.1 J0.0
G2 Y25.5866 I0.05 J0.0866
G2 X71.33854 Y25.58756 I0.05 J-0.0866
G1 F300.0 Z-2.0
G2 F800.0 X71.48684 Y25.5 I0.0483 J-0.08756
G2 X71.33684 Y25.4134 I-0.1 J0.0
G2 Y25.5866 I0.05 J0.0866
G2 X71.33854 Y25.58756 I0.05 J-0.0866
G1 F300.0 Z-2.5
G2 F800.0 X71.48684 Y25.5 I0.0483 J-0.08756
G2 X71.33684 Y25.4134 I-0.1 J0.0
G2 Y25.5866 I0.05 J0.0866
G2 X71.33854 Y25.58756 I0.05 J-0.0866
G1 F300.0 Z-3.0
G2 F800.0 X71.48684 Y25.5 I0.0483 J-0.08756
G2 X71.33684 Y25.4134 I-0.1 J0.0
G2 Y25.5866 I0.05 J0.0866
G2 X71.33854 Y25.58756 I0.05 J-0.0866
G1 F300.0 Z-3.3
G2 F800.0 X71.48684 Y25.5 I0.0483 J-0.08756
G2 X71.33684 Y25.4134 I-0.1 J0.0
G2 Y25.5866 I0.05 J0.0866
G2 X71.33854 Y25.58756 I0.05 J-0.0866
G0 Z3.0
G0 X92.22972 Y33.93183
G0 Z1.0
G1 F300.0 Z-0.5
G2 F800.0 X92.27259 Y34.05553 I0.09287 J0.03709
G2 X92.42259 Y33.96893 I0.05 J-0.0866
G2 X92.27259 Y33.88232 I-0.1 J0.0
G2 X92.22972 Y33.93183 I0.05 J0.0866
G1 F300.0 Z-1.0
G2 F800.0 X92.27259 Y34.05553 I0.09287 J0.03709
G2 X92.42259 Y33.96893 I0.05 J-0.0866
G2 X92.27259 Y33.88232 I-0.1 J0.0
G2 X92.22972 Y33.93183 I0.05 J0.0866
G1 F300.0 Z-1.5
G2 F800.0 X92.27259 Y34.05553 I0.09287 J0.03709
G2 X92.42259 Y33.96893 I0.05 J-0.0866
G2 X92.27259 Y33.88232 I-0.1 J0.0
G2 X92.22972 Y33.93183 I0.05 J0.0866
G1 F300.0 Z-2.0
G2 F800.0 X92.27259 Y34.05553 I0.09287 J0.03709
G2 X92.42259 Y33.96893 I0.05 J-0.0866
G2 X92.27259 Y33.88232 I-0.1 J0.0
G2 X92.22972 Y33.93183 I0.05 J0.0866
G1 F300.0 Z-2.5
G2 F800.0 X92.27259 Y34.05553 I0.09287 J0.03709
G2 X92.42259 Y33.96893 I0.05 J-0.0866
G2 X92.27259 Y33.88232 I-0.1 J0.0
G2 X92.22972 Y33.93183 I0.05 J0.0866
G1 F300.0 Z-3.0
G2 F800.0 X92.27259 Y34.05553 I0.09287 J0.03709
G2 X92.42259 Y33.96893 I0.05 J-0.0866
G2 X92.27259 Y33.88232 I-0.1 J0.0
G2 X92.22972 Y33.93183 I0.05 J0.0866
G1 F300.0 Z-3.3
G2 F800.0 X92.27259 Y34.05553 I0.09287 J0.03709
G2 X92.42259 Y33.96893 I0.05 J-0.0866
G2 X92.27259 Y33.88232 I-0.1 J0.0
G2 X92.22972 Y33.93183 I0.05 J0.0866
G0 Z3.0
G0 X89.71635 Y44.93359
G0 Z1.0
G1 F300.0 Z-0.5
G2 F800.0 X89.64408 Y44.94447 I-0.02227 J0.09749
G2 Y45.11768 I0.05 J0.0866
G2 X89.79408 Y45.03107 I0.05 J-0.0866
G2 X89.71635 Y44.93359 I-0.1 J0.0
G1 F300.0 Z-1.0
G2 F800.0 X89.64408 Y44.94447 I-0.02227 J0.09749
G2 Y45.11768 I0.05 J0.0866
G2 X89.79408 Y45.03107 I0.05 J-0.0866
G2 X89.71635 Y44.93359 I-0.1 J0.0
G1 F300.0 Z-1.5
G2 F800.0 X89.64408 Y44.94447 I-0.02227 J0.09749
G2 Y45.11768 I0.05 J0.0866
G2 X89.79408 Y45.03107 I0.05 J-0.0866
G2 X89.71635 Y44.93359 I-0.1 J0.0
G1 F300.0 Z-2.0
G2 F800.0 X89.64408 Y44.94447 I-0.02227 J0.09749
G2 Y45.11768 I0.05 J0.0866
G2 X89.79408 Y45.03107 I0.05 J-0.0866
G2 X89.71635 Y44.93359 I-0.1 J0.0
G1 F300.0 Z-2.5
G2 F800.0 X89.64408 Y44.94447 I-0.02227 J0.09749
G2 Y45.11768 I0.05 J0.0866
G2 X89.79408 Y45.03107 I0.05 J-0.0866
G2 X89.71635 Y44.93359 I-0.1 J0.0
G1 F300.0 Z-3.0
G2 F800.0 X89.64408 Y44.94447 I-0.02227 J0.09749
G2 Y45.11768 I0.05 J0.0866
G2 X89.79408 Y45.03107 I0.05 J-0.0866
G2 X89.71635 Y44.93359 I-0.1 J0.0
G1 F300.0 Z-3.3
G2 F800.0 X89.64408 Y44.94447 I-0.02227 J0.09749
G2 Y45.11768 I0.05 J0.0866
G2 X89.79408 Y45.03107 I0.05 J-0.0866
G2 X89.71635 Y44.93359 I-0.1 J0.0
G0 Z3.0
G0 X89.69421 Y61.86893
G0 Z1.0
G1 F300.0 Z-0.5
G2 F800.0 X89.64408 Y61.88232 I-0.00013 J0.1
G2 Y62.05553 I0.05 J0.0866
G2 X89.79408 Y61.96893 I0.05 J-0.0866
G2 X89.69421 Y61.86893 I-0.1 J0.0
G1 F300.0 Z-1.0
G2 F800.0 X89.64408 Y61.88232 I-0.00013 J0.1
G2 Y62.05553 I0.05 J0.0866
G2 X89.79408 Y61.96893 I0.05 J-0.0866
G2 X89.69421 Y61.86893 I-0.1 J0.0
G1 F300.0 Z-1.5
G2 F800.0 X89.64408 Y61.88232 I-0.00013 J0.1
G2 Y62.05553 I0.05 J0.0866
G2 X89.79408 Y61.96893 I0.05 J-0.0866
G2 X89.69421 Y61.86893 I-0.1 J0.0
G1 F300.0 Z-2.0
G2 F800.0 X89.64408 Y61.88232 I-0.00013 J0.1
G2 Y62.05553 I0.05 J0.0866
G2 X89.79408 Y61.96893 I0.05 J-0.0866
G2 X89.69421 Y61.86893 I-0.1 J0.0
G1 F300.0 Z-2.5
G2 F800.0 X89.64408 Y61.88232 I-0.00013 J0.1
G2 Y62.05553 I0.05 J0.0866
G2 X89.79408 Y61.96893 I0.05 J-0.0866
G2 X89.69421 Y61.86893 I-0.1 J0.0
G1 F300.0 Z-3.0
G2 F800.0 X89.64408 Y61.88232 I-0.00013 J0.1
G2 Y62.05553 I0.05 J0.0866
G2 X89.79408 Y61.96893 I0.05 J-0.0866
G2 X89.69421 Y61.86893 I-0.1 J0.0
G1 F300.0 Z-3.3
G2 F800.0 X89.64408 Y61.88232 I-0.00013 J0.1
G2 Y62.05553 I0.05 J0.0866
G2 X89.79408 Y61.96893 I0.05 J-0.0866
G2 X89.69421 Y61.86893 I-0.1 J0.0
G0 Z3.0
G0 X92.29967 Y72.93374
G0 Z1.0
G1 F300.0 Z-0.5
G2 F800.0 X92.27259 Y72.94447 I0.02292 J0.09734
G2 Y73.11768 I0.05 J0.0866
G2 X92.42259 Y73.03107 I0.05 J-0.0866
G2 X92.29967 Y72.93374 I-0.1 J0.0
G1 F300.0 Z-1.0
G2 F800.0 X92.27259 Y72.94447 I0.02292 J0.09734
G2 Y73.11768 I0.05 J0.0866
G2 X92.42259 Y73.03107 I0.05 J-0.0866
G2 X92.29967 Y72.93374 I-0.1 J0.0
G1 F300.0 Z-1.5
G2 F800.0 X92.27259 Y72.94447 I0.02292 J0.09734
G2 Y73.11768 I0.05 J0.0866
G2 X92.42259 Y73.03107 I0.05 J-0.0866
G2 X92.29967 Y72.93374 I-0.1 J0.0
G1 F300.0 Z-2.0
G2 F800.0 X92.27259 Y72.94447 I0.02292 J0.09734
G2 Y73.11768 I0.05 J0.0866
G2 X92.42259 Y73.03107 I0.05 J-0.0866
G2 X92.29967 Y72.93374 I-0.1 J0.0
G1 F300.0 Z-2.5
G2 F800.0 X92.27259 Y72.94447 I0.02292 J0.09734
G2 Y73.11768 I0.05 J0.0866
G2 X92.42259 Y73.03107 I0.05 J-0.0866
G2 X92.29967 Y72.93374 I-0.1 J0.0
G1 F300.0 Z-3.0
G2 F800.0 X92.27259 Y72.94447 I0.02292 J0.09734
G2 Y73.11768 I0.05 J0.0866
G2 X92.42259 Y73.03107 I0.05 J-0.0866
G2 X92.29967 Y72.93374 I-0.1 J0.0
G1 F300.0 Z-3.3
G2 F800.0 X92.27259 Y72.94447 I0.02292 J0.09734
G2 Y73.11768 I0.05 J0.0866
G2 X92.42259 Y73.03107 I0.05 J-0.0866
G2 X92.29967 Y72.93374 I-0.1 J0.0
G0 Z3.0
G0 X92.32245 Y89.86893
G0 Z1.0
G1 F300.0 Z-0.5
G2 F800.0 X92.27259 Y89.88232 I0.00013 J0.1
G2 Y90.05553 I0.05 J0.0866
G2 X92.42259 Y89.96893 I0.05 J-0.0866
G2 X92.32245 Y89.86893 I-0.1 J0.0
G1 F300.0 Z-1.0
G2 F800.0 X92.27259 Y89.88232 I0.00013 J0.1
G2 Y90.05553 I0.05 J0.0866
G2 X92.42259 Y89.96893 I0.05 J-0.0866
G2 X92.32245 Y89.86893 I-0.1 J0.0
G1 F300.0 Z-1.5
G2 F800.0 X92.27259 Y89.88232 I0.00013 J0.1
G2 Y90.05553 I0.05 J0.0866
G2 X92.42259 Y89.96893 I0.05 J-0.0866
G2 X92.32245 Y89.86893 I-0.1 J0.0
G1 F300.0 Z-2.0
G2 F800.0 X92.27259 Y89.88232 I0.00013 J0.1
G2 Y90.05553 I0.05 J0.0866
G2 X92.42259 Y89.96893 I0.05 J-0.0866
G2 X92.32245 Y89.86893 I-0.1 J0.0
G1 F300.0 Z-2.5
G2 F800.0 X92.27259 Y89.88232 I0.00013 J0.1
G2 Y90.05553 I0.05 J0.0866
G2 X92.42259 Y89.96893 I0.05 J-0.0866
G2 X92.32245 Y89.86893 I-0.1 J0.0
G1 F300.0 Z-3.0
G2 F800.0 X92.27259 Y89.88232 I0.00013 J0.1
G2 Y90.05553 I0.05 J0.0866
G2 X92.42259 Y89.96893 I0.05 J-0.0866
G2 X92.32245 Y89.86893 I-0.1 J0.0
G1 F300.0 Z-3.3
G2 F800.0 X92.27259 Y89.88232 I0.00013 J0.1
G2 Y90.05553 I0.05 J0.0866
G2 X92.42259 Y89.96893 I0.05 J-0.0866
G2 X92.32245 Y89.86893 I-0.1 J0.0
G0 Z3.0
G0 X89.717 Y100.93374
G0 Z1.0
G1 F300.0 Z-0.5
G2 F800.0 X89.64408 Y100.94447 I-0.02292 J0.09734
G2 Y101.11768 I0.05 J0.0866
G2 X89.79408 Y101.03107 I0.05 J-0.0866
G2 X89.717 Y100.93374 I-0.1 J0.0
G1 F300.0 Z-1.0
G2 F800.0 X89.64408 Y100.94447 I-0.02292 J0.09734
G2 Y101.11768 I0.05 J0.0866
G2 X89.79408 Y101.03107 I0.05 J-0.0866
G2 X89.717 Y100.93374 I-0.1 J0.0
G1 F300.0 Z-1.5
G2 F800.0 X89.64408 Y100.94447 I-0.02292 J0.09734
G2 Y101.11768 I0.05 J0.0866
G2 X89.79408 Y101.03107 I0.05 J-0.0866
G2 X89.717 Y100.93374 I-0.1 J0.0
G1 F300.0 Z-2.0
G2 F800.0 X89.64408 Y100.94447 I-0.02292 J0.09734
G2 Y101.11768 I0.05 J0.0866
G2 X89.79408 Y101.03107 I0.05 J-0.0866
G2 X89.717 Y100.93374 I-0.1 J0.0
G1 F300.0 Z-2.5
G2 F800.0 X89.64408 Y100.94447 I-0.02292 J0.09734
G2 Y101.11768 I0.05 J0.0866
G2 X89.79408 Y101.03107 I0.05 J-0.0866
G2 X89.717 Y100.93374 I-0.1 J0.0
G1 F300.0 Z-3.0
G2 F800.0 X89.64408 Y100.94447 I-0.02292 J0.09734
G2 Y101.11768 I0.05 J0.0866
G2 X89.79408 Y101.03107 I0.05 J-0.0866
G2 X89.717 Y100.93374 I-0.1 J0.0
G1 F300.0 Z-3.3
G2 F800.0 X89.64408 Y100.94447 I-0.02292 J0.09734
G2 Y101.11768 I0.05 J0.0866
G2 X89.79408 Y101.03107 I0.05 J-0.0866
G2 X89.717 Y100.93374 I-0.1 J0.0
G0 Z3.0
G0 X89.69421 Y117.86893
G0 Z1.0
G1 F300.0 Z-0.5
G2 F800.0 X89.64408 Y117.88232 I-0.00013 J0.1
G2 Y118.05553 I0.05 J0.0866
G2 X89.79408 Y117.96893 I0.05 J-0.0866
G2 X89.69421 Y117.86893 I-0.1 J0.0
G1 F300.0 Z-1.0
G2 F800.0 X89.64408 Y117.88232 I-0.00013 J0.1
G2 Y118.05553 I0.05 J0.0866
G2 X89.79408 Y117.96893 I0.05 J-0.0866
G2 X89.69421 Y117.86893 I-0.1 J0.0
G1 F300.0 Z-1.5
G2 F800.0 X89.64408 Y117.88232 I-0.00013 J0.1
G2 Y118.05553 I0.05 J0.0866
G2 X89.79408 Y117.96893 I0.05 J-0.0866
G2 X89.69421 Y117.86893 I-0.1 J0.0
G1 F300.0 Z-2.0
G2 F800.0 X89.64408 Y117.88232 I-0.00013 J0.1
G2 Y118.05553 I0.05 J0.0866
G2 X89.79408 Y117.96893 I0.05 J-0.0866
G2 X89.69421 Y117.86893 I-0.1 J0.0
G1 F300.0 Z-2.5
G2 F800.0 X89.64408 Y117.88232 I-0.00013 J0.1
G2 Y118.05553 I0.05 J0.0866
G2 X89.79408 Y117.96893 I0.05 J-0.0866
G2 X89.69421 Y117.86893 I-0.1 J0.0
G1 F300.0 Z-3.0
G2 F800.0 X89.64408 Y117.88232 I-0.00013 J0.1
G2 Y118.05553 I0.05 J0.0866
G2 X89.79408 Y117.96893 I0.05 J-0.0866
G2 X89.69421 Y117.86893 I-0.1 J0.0
G1 F300.0 Z-3.3
G2 F800.0 X89.64408 Y117.88232 I-0.00013 J0.1
G2 Y118.05553 I0.05 J0.0866
G2 X89.79408 Y117.96893 I0.05 J-0.0866
G2 X89.69421 Y117.86893 I-0.1 J0.0
G0 Z3.0
G0 X92.30158 Y130.00408
G0 Z1.0
G1 F300.0 Z-0.5
G2 F800.0 X92.27259 Y130.01525 I0.02101 J0.09777
G2 Y130.18845 I0.05 J0.0866
G2 X92.42259 Y130.10185 I0.05 J-0.0866
G2 X92.30158 Y130.00408 I-0.1 J0.0
G1 F300.0 Z-1.0
G2 F800.0 X92.27259 Y130.01525 I0.02101 J0.09777
G2 Y130.18845 I0.05 J0.0866
G2 X92.42259 Y130.10185 I0.05 J-0.0866
G2 X92.30158 Y130.00408 I-0.1 J0.0
G1 F300.0 Z-1.5
G2 F800.0 X92.27259 Y130.01525 I0.02101 J0.09777
G2 Y130.18845 I0.05 J0.0866
G2 X92.42259 Y130.10185 I0.05 J-0.0866
G2 X92.30158 Y130.00408 I-0.1 J0.0
G1 F300.0 Z-2.0
G2 F800.0 X92.27259 Y130.01525 I0.02101 J0.09777
G2 Y130.18845 I0.05 J0.0866
G2 X92.42259 Y130.10185 I0.05 J-0.0866
G2 X92.30158 Y130.00408 I-0.1 J0.0
G1 F300.0 Z-2.5
G2 F800.0 X92.27259 Y130.01525 I0.02101 J0.09777
G2 Y130.18845 I0.05 J0.0866
G2 X92.42259 Y130.10185 I0.05 J-0.0866
G2 X92.30158 Y130.00408 I-0.1 J0.0
G1 F300.0 Z-3.0
G2 F800.0 X92.27259 Y130.01525 I0.02101 J0.09777
G2 Y130.18845 I0.05 J0.0866
G2 X92.42259 Y130.10185 I0.05 J-0.0866
G2 X92.30158 Y130.00408 I-0.1 J0.0
G1 F300.0 Z-3.3
G2 F800.0 X92.27259 Y130.01525 I0.02101 J0.09777
G2 Y130.18845 I0.05 J0.0866
G2 X92.42259 Y130.10185 I0.05 J-0.0866
G2 X92.30158 Y130.00408 I-0.1 J0.0
G0 Z3.0
G0 X92.32247 Y146.9397
G0 Z1.0
G1 F300.0 Z-0.5
G2 F800.0 X92.27259 Y146.9531 I0.00012 J0.1
G2 Y147.1263 I0.05 J0.0866
G2 X92.42259 Y147.0397 I0.05 J-0.0866
G2 X92.32247 Y146.9397 I-0.1 J0.0
G1 F300.0 Z-1.0
G2 F800.0 X92.27259 Y146.9531 I0.00012 J0.1
G2 Y147.1263 I0.05 J0.0866
G2 X92.42259 Y147.0397 I0.05 J-0.0866
G2 X92.32247 Y146.9397 I-0.1 J0.0
G1 F300.0 Z-1.5
G2 F800.0 X92.27259 Y146.9531 I0.00012 J0.1
G2 Y147.1263 I0.05 J0.0866
G2 X92.42259 Y147.0397 I0.05 J-0.0866
G2 X92.32247 Y146.9397 I-0.1 J0.0
G1 F300.0 Z-2.0
G2 F800.0 X92.27259 Y146.9531 I0.00012 J0.1
G2 Y147.1263 I0.05 J0.0866
G2 X92.42259 Y147.0397 I0.05 J-0.0866
G2 X92.32247 Y146.9397 I-0.1 J0.0
G1 F300.0 Z-2.5
G2 F800.0 X92.27259 Y146.9531 I0.00012 J0.1
G2 Y147.1263 I0.05 J0.0866
G2 X92.42259 Y147.0397 I0.05 J-0.0866
G2 X92.32247 Y146.9397 I-0.1 J0.0
G1 F300.0 Z-3.0
G2 F800.0 X92.27259 Y146.9531 I0.00012 J0.1
G2 Y147.1263 I0.05 J0.0866
G2 X92.42259 Y147.0397 I0.05 J-0.0866
G2 X92.32247 Y146.9397 I-0.1 J0.0
G1 F300.0 Z-3.3
G2 F800.0 X92.27259 Y146.9531 I0.00012 J0.1
G2 Y147.1263 I0.05 J0.0866
G2 X92.42259 Y147.0397 I0.05 J-0.0866
G2 X92.32247 Y146.9397 I-0.1 J0.0
G0 Z3.0
G0 X90.09337 Y157.43326
G0 Z1.0
G1 F300.0 Z-0.5
G2 F800.0 X90.02259 Y157.44447 I-0.02078 J0.09782
G2 Y157.61768 I0.05 J0.0866
G2 X90.17259 Y157.53107 I0.05 J-0.0866
G2 X90.09337 Y157.43326 I-0.1 J0.0
G1 F300.0 Z-1.0
G2 F800.0 X90.02259 Y157.44447 I-0.02078 J0.09782
G2 Y157.61768 I0.05 J0.0866
G2 X90.17259 Y157.53107 I0.05 J-0.0866
G2 X90.09337 Y157.43326 I-0.1 J0.0
G1 F300.0 Z-1.5
G2 F800.0 X90.02259 Y157.44447 I-0.02078 J0.09782
G2 Y157.61768 I0.05 J0.0866
G2 X90.17259 Y157.53107 I0.05 J-0.0866
G2 X90.09337 Y157.43326 I-0.1 J0.0
G1 F300.0 Z-2.0
G2 F800.0 X90.02259 Y157.44447 I-0.02078 J0.09782
G2 Y157.61768 I0.05 J0.0866
G2 X90.17259 Y157.53107 I0.05 J-0.0866
G2 X90.09337 Y157.43326 I-0.1 J0.0
G1 F300.0 Z-2.5
G2 F800.0 X90.02259 Y157.44447 I-0.02078 J0.09782
G2 Y157.61768 I0.05 J0.0866
G2 X90.17259 Y157.53107 I0.05 J-0.0866
G2 X90.09337 Y157.43326 I-0.1 J0.0
G1 F300.0 Z-3.0
G2 F800.0 X90.02259 Y157.44447 I-0.02078 J0.09782
G2 Y157.61768 I0.05 J0.0866
G2 X90.17259 Y157.53107 I0.05 J-0.0866
G2 X90.09337 Y157.43326 I-0.1 J0.0
G1 F300.0 Z-3.3
G2 F800.0 X90.02259 Y157.44447 I-0.02078 J0.09782
G2 Y157.61768 I0.05 J0.0866
G2 X90.17259 Y157.53107 I0.05 J-0.0866
G2 X90.09337 Y157.43326 I-0.1 J0.0
G0 Z3.0
G0 X90.07271 Y174.36893
G0 Z1.0
G1 F300.0 Z-0.5
G2 F800.0 X90.02259 Y174.38232 I-0.00012 J0.1
G2 Y174.55553 I0.05 J0.0866
G2 X90.17259 Y174.46893 I0.05 J-0.0866
G2 X90.07271 Y174.36893 I-0.1 J0.0
G1 F300.0 Z-1.0
G2 F800.0 X90.02259 Y174.38232 I-0.00012 J0.1
G2 Y174.55553 I0.05 J0.0866
G2 X90.17259 Y174.46893 I0.05 J-0.0866
G2 X90.07271 Y174.36893 I-0.1 J0.0
G1 F300.0 Z-1.5
G2 F800.0 X90.02259 Y174.38232 I-0.00012 J0.1
G2 Y174.55553 I0.05 J0.0866
G2 X90.17259 Y174.46893 I0.05 J-0.0866
G2 X90.07271 Y174.36893 I-0.1 J0.0
G1 F300.0 Z-2.0
G2 F800.0 X90.02259 Y174.38232 I-0.00012 J0.1
G2 Y174.55553 I0.05 J0.0866
G2 X90.17259 Y174.46893 I0.05 J-0.0866
G2 X90.07271 Y174.36893 I-0.1 J0.0
G1 F300.0 Z-2.5
G2 F800.0 X90.02259 Y174.38232 I-0.00012 J0.1
G2 Y174.55553 I0.05 J0.0866
G2 X90.17259 Y174.46893 I0.05 J-0.0866
G2 X90.07271 Y174.36893 I-0.1 J0.0
G1 F300.0 Z-3.0
G2 F800.0 X90.02259 Y174.38232 I-0.00012 J0.1
G2 Y174.55553 I0.05 J0.0866
G2 X90.17259 Y174.46893 I0.05 J-0.0866
G2 X90.07271 Y174.36893 I-0.1 J0.0
G1 F300.0 Z-3.3
G2 F800.0 X90.02259 Y174.38232 I-0.00012 J0.1
G2 Y174.55553 I0.05 J0.0866
G2 X90.17259 Y174.46893 I0.05 J-0.0866
G2 X90.07271 Y174.36893 I-0.1 J0.0
G0 Z3.0
G0 X92.68009 Y186.50408
G0 Z1.0
G1 F300.0 Z-0.5
G2 F800.0 X92.6511 Y186.51525 I0.02101 J0.09777
G2 Y186.68845 I0.05 J0.0866
G2 X92.8011 Y186.60185 I0.05 J-0.0866
G2 X92.68009 Y186.50408 I-0.1 J0.0
G1 F300.0 Z-1.0
G2 F800.0 X92.6511 Y186.51525 I0.02101 J0.09777
G2 Y186.68845 I0.05 J0.0866
G2 X92.8011 Y186.60185 I0.05 J-0.0866
G2 X92.68009 Y186.50408 I-0.1 J0.0
G1 F300.0 Z-1.5
G2 F800.0 X92.6511 Y186.51525 I0.02101 J0.09777
G2 Y186.68845 I0.05 J0.0866
G2 X92.8011 Y186.60185 I0.05 J-0.0866
G2 X92.68009 Y186.50408 I-0.1 J0.0
G1 F300.0 Z-2.0
G2 F800.0 X92.6511 Y186.51525 I0.02101 J0.09777
G2 Y186.68845 I0.05 J0.0866
G2 X92.8011 Y186.60185 I0.05 J-0.0866
G2 X92.68009 Y186.50408 I-0.1 J0.0
G1 F300.0 Z-2.5
G2 F800.0 X92.6511 Y186.51525 I0.02101 J0.09777
G2 Y186.68845 I0.05 J0.0866
G2 X92.8011 Y186.60185 I0.05 J-0.0866
G2 X92.68009 Y186.50408 I-0.1 J0.0
G1 F300.0 Z-3.0
G2 F800.0 X92.6511 Y186.51525 I0.02101 J0.09777
G2 Y186.68845 I0.05 J0.0866
G2 X92.8011 Y186.60185 I0.05 J-0.0866
G2 X92.68009 Y186.50408 I-0.1 J0.0
G1 F300.0 Z-3.3
G2 F800.0 X92.6511 Y186.51525 I0.02101 J0.09777
G2 Y186.68845 I0.05 J0.0866
G2 X92.8011 Y186.60185 I0.05 J-0.0866
G2 X92.68009 Y186.50408 I-0.1 J0.0
G0 Z3.0
G0 X92.70098 Y203.4397
G0 Z1.0
G1 F300.0 Z-0.5
G2 F800.0 X92.6511 Y203.4531 I0.00012 J0.1
G2 Y203.6263 I0.05 J0.0866
G2 X92.8011 Y203.5397 I0.05 J-0.0866
G2 X92.70098 Y203.4397 I-0.1 J0.0
G1 F300.0 Z-1.0
G2 F800.0 X92.6511 Y203.4531 I0.00012 J0.1
G2 Y203.6263 I0.05 J0.0866
G2 X92.8011 Y203.5397 I0.05 J-0.0866
G2 X92.70098 Y203.4397 I-0.1 J0.0
G1 F300.0 Z-1.5
G2 F800.0 X92.6511 Y203.4531 I0.00012 J0.1
G2 Y203.6263 I0.05 J0.0866
G2 X92.8011 Y203.5397 I0.05 J-0.0866
G2 X92.70098 Y203.4397 I-0.1 J0.0
G1 F300.0 Z-2.0
G2 F800.0 X92.6511 Y203.4531 I0.00012 J0.1
G2 Y203.6263 I0.05 J0.0866
G2 X92.8011 Y203.5397 I0.05 J-0.0866
G2 X92.70098 Y203.4397 I-0.1 J0.0
G1 F300.0 Z-2.5
G2 F800.0 X92.6511 Y203.4531 I0.00012 J0.1
G2 Y203.6263 I0.05 J0.0866
G2 X92.8011 Y203.5397 I0.05 J-0.0866
G2 X92.70098 Y203.4397 I-0.1 J0.0
G1 F300.0 Z-3.0
G2 F800.0 X92.6511 Y203.4531 I0.00012 J0.1
G2 Y203.6263 I0.05 J0.0866
G2 X92.8011 Y203.5397 I0.05 J-0.0866
G2 X92.70098 Y203.4397 I-0.1 J0.0
G1 F300.0 Z-3.3
G2 F800.0 X92.6511 Y203.4531 I0.00012 J0.1
G2 Y203.6263 I0.05 J0.0866
G2 X92.8011 Y203.5397 I0.05 J-0.0866
G2 X92.70098 Y203.4397 I-0.1 J0.0
G0 Z3.0
G0 X90.09551 Y214.50451
G0 Z1.0
G1 F300.0 Z-0.5
G2 F800.0 X90.02259 Y214.51525 I-0.02292 J0.09734
G2 Y214.68845 I0.05 J0.0866
G2 X90.17259 Y214.60185 I0.05 J-0.0866
G2 X90.09551 Y214.50451 I-0.1 J0.0
G1 F300.0 Z-1.0
G2 F800.0 X90.02259 Y214.51525 I-0.02292 J0.09734
G2 Y214.68845 I0.05 J0.0866
G2 X90.17259 Y214.60185 I0.05 J-0.0866
G2 X90.09551 Y214.50451 I-0.1 J0.0
G1 F300.0 Z-1.5
G2 F800.0 X90.02259 Y214.51525 I-0.02292 J0.09734
G2 Y214.68845 I0.05 J0.0866
G2 X90.17259 Y214.60185 I0.05 J-0.0866
G2 X90.09551 Y214.50451 I-0.1 J0.0
G1 F300.0 Z-2.0
G2 F800.0 X90.02259 Y214.51525 I-0.02292 J0.09734
G2 Y214.68845 I0.05 J0.0866
G2 X90.17259 Y214.60185 I0.05 J-0.0866
G2 X90.09551 Y214.50451 I-0.1 J0.0
G1 F300.0 Z-2.5
G2 F800.0 X90.02259 Y214.51525 I-0.02292 J0.09734
G2 Y214.68845 I0.05 J0.0866
G2 X90.17259 Y214.60185 I0.05 J-0.0866
G2 X90.09551 Y214.50451 I-0.1 J0.0
G1 F300.0 Z-3.0
G2 F800.0 X90.02259 Y214.51525 I-0.02292 J0.09734
G2 Y214.68845 I0.05 J0.0866
G2 X90.17259 Y214.60185 I0.05 J-0.0866
G2 X90.09551 Y214.50451 I-0.1 J0.0
G1 F300.0 Z-3.3
G2 F800.0 X90.02259 Y214.51525 I-0.02292 J0.09734
G2 Y214.68845 I0.05 J0.0866
G2 X90.17259 Y214.60185 I0.05 J-0.0866
G2 X90.09551 Y214.50451 I-0.1 J0.0
G0 Z3.0
G0 X90.07272 Y231.4397
G0 Z1.0
G1 F300.0 Z-0.5
G2 F800.0 X90.02259 Y231.4531 I-0.00013 J0.1
G2 Y231.6263 I0.05 J0.0866
G2 X90.17259 Y231.5397 I0.05 J-0.0866
G2 X90.07272 Y231.4397 I-0.1 J0.0
G1 F300.0 Z-1.0
G2 F800.0 X90.02259 Y231.4531 I-0.00013 J0.1
G2 Y231.6263 I0.05 J0.0866
G2 X90.17259 Y231.5397 I0.05 J-0.0866
G2 X90.07272 Y231.4397 I-0.1 J0.0
G1 F300.0 Z-1.5
G2 F800.0 X90.02259 Y231.4531 I-0.00013 J0.1
G2 Y231.6263 I0.05 J0.0866
G2 X90.17259 Y231.5397 I0.05 J-0.0866
G2 X90.07272 Y231.4397 I-0.1 J0.0
G1 F300.0 Z-2.0
G2 F800.0 X90.02259 Y231.4531 I-0.00013 J0.1
G2 Y231.6263 I0.05 J0.0866
G2 X90.17259 Y231.5397 I0.05 J-0.0866
G2 X90.07272 Y231.4397 I-0.1 J0.0
G1 F300.0 Z-2.5
G2 F800.0 X90.02259 Y231.4531 I-0.00013 J0.1
G2 Y231.6263 I0.05 J0.0866
G2 X90.17259 Y231.5397 I0.05 J-0.0866
G2 X90.07272 Y231.4397 I-0.1 J0.0
G1 F300.0 Z-3.0
G2 F800.0 X90.02259 Y231.4531 I-0.00013 J0.1
G2 Y231.6263 I0.05 J0.0866
G2 X90.17259 Y231.5397 I0.05 J-0.0866
G2 X90.07272 Y231.4397 I-0.1 J0.0
G1 F300.0 Z-3.3
G2 F800.0 X90.02259 Y231.4531 I-0.00013 J0.1
G2 Y231.6263 I0.05 J0.0866
G2 X90.17259 Y231.5397 I0.05 J-0.0866
G2 X90.07272 Y231.4397 I-0.1 J0.0
G0 Z3.0
G0 X92.67818 Y242.50451
G0 Z1.0
G1 F300.0 Z-0.5
G2 F800.0 X92.6511 Y242.51525 I0.02292 J0.09734
G2 Y242.68845 I0.05 J0.0866
G2 X92.8011 Y242.60185 I0.05 J-0.0866
G2 X92.67818 Y242.50451 I-0.1 J0.0
G1 F300.0 Z-1.0
G2 F800.0 X92.6511 Y242.51525 I0.02292 J0.09734
G2 Y242.68845 I0.05 J0.0866
G2 X92.8011 Y242.60185 I0.05 J-0.0866
G2 X92.67818 Y242.50451 I-0.1 J0.0
G1 F300.0 Z-1.5
G2 F800.0 X92.6511 Y242.51525 I0.02292 J0.09734
G2 Y242.68845 I0.05 J0.0866
G2 X92.8011 Y242.60185 I0.05 J-0.0866
G2 X92.67818 Y242.50451 I-0.1 J0.0
G1 F300.0 Z-2.0
G2 F800.0 X92.6511 Y242.51525 I0.02292 J0.09734
G2 Y242.68845 I0.05 J0.0866
G2 X92.8011 Y242.60185 I0.05 J-0.0866
G2 X92.67818 Y242.50451 I-0.1 J0.0
G1 F300.0 Z-2.5
G2 F800.0 X92.6511 Y242.51525 I0.02292 J0.09734
G2 Y242.68845 I0.05 J0.0866
G2 X92.8011 Y242.60185 I0.05 J-0.0866
G2 X92.67818 Y242.50451 I-0.1 J0.0
G1 F300.0 Z-3.0
G2 F800.0 X92.6511 Y242.51525 I0.02292 J0.09734
G2 Y242.68845 I0.05 J0.0866
G2 X92.8011 Y242.60185 I0.05 J-0.0866
G2 X92.67818 Y242.50451 I-0.1 J0.0
G1 F300.0 Z-3.3
G2 F800.0 X92.6511 Y242.51525 I0.02292 J0.09734
G2 Y242.68845 I0.05 J0.0866
G2 X92.8011 Y242.60185 I0.05 J-0.0866
G2 X92.67818 Y242.50451 I-0.1 J0.0
G0 Z3.0
G0 X92.70097 Y259.4397
G0 Z1.0
G1 F300.0 Z-0.5
G2 F800.0 X92.6511 Y259.4531 I0.00013 J0.1
G2 Y259.6263 I0.05 J0.0866
G2 X92.8011 Y259.5397 I0.05 J-0.0866
G2 X92.70097 Y259.4397 I-0.1 J0.0
G1 F300.0 Z-1.0
G2 F800.0 X92.6511 Y259.4531 I0.00013 J0.1
G2 Y259.6263 I0.05 J0.0866
G2 X92.8011 Y259.5397 I0.05 J-0.0866
G2 X92.70097 Y259.4397 I-0.1 J0.0
G1 F300.0 Z-1.5
G2 F800.0 X92.6511 Y259.4531 I0.00013 J0.1
G2 Y259.6263 I0.05 J0.0866
G2 X92.8011 Y259.5397 I0.05 J-0.0866
G2 X92.70097 Y259.4397 I-0.1 J0.0
G1 F300.0 Z-2.0
G2 F800.0 X92.6511 Y259.4531 I0.00013 J0.1
G2 Y259.6263 I0.05 J0.0866
G2 X92.8011 Y259.5397 I0.05 J-0.0866
G2 X92.70097 Y259.4397 I-0.1 J0.0
G1 F300.0 Z-2.5
G2 F800.0 X92.6511 Y259.4531 I0.00013 J0.1
G2 Y259.6263 I0.05 J0.0866
G2 X92.8011 Y259.5397 I0.05 J-0.0866
G2 X92.70097 Y259.4397 I-0.1 J0.0
G1 F300.0 Z-3.0
G2 F800.0 X92.6511 Y259.4531 I0.00013 J0.1
G2 Y259.6263 I0.05 J0.0866
G2 X92.8011 Y259.5397 I0.05 J-0.0866
G2 X92.70097 Y259.4397 I-0.1 J0.0
G1 F300.0 Z-3.3
G2 F800.0 X92.6511 Y259.4531 I0.00013 J0.1
G2 Y259.6263 I0.05 J0.0866
G2 X92.8011 Y259.5397 I0.05 J-0.0866
G2 X92.70097 Y259.4397 I-0.1 J0.0
G0 Z3.0
G0 X90.09551 Y270.50451
G0 Z1.0
G1 F300.0 Z-0.5
G2 F800.0 X90.02259 Y270.51525 I-0.02292 J0.09734
G2 Y270.68845 I0.05 J0.0866
G2 X90.17259 Y270.60185 I0.05 J-0.0866
G2 X90.09551 Y270.50451 I-0.1 J0.0
G1 F300.0 Z-1.0
G2 F800.0 X90.02259 Y270.51525 I-0.02292 J0.09734
G2 Y270.68845 I0.05 J0.0866
G2 X90.17259 Y270.60185 I0.05 J-0.0866
G2 X90.09551 Y270.50451 I-0.1 J0.0
G1 F300.0 Z-1.5
G2 F800.0 X90.02259 Y270.51525 I-0.02292 J0.09734
G2 Y270.68845 I0.05 J0.0866
G2 X90.17259 Y270.60185 I0.05 J-0.0866
G2 X90.09551 Y270.50451 I-0.1 J0.0
G1 F300.0 Z-2.0
G2 F800.0 X90.02259 Y270.51525 I-0.02292 J0.09734
G2 Y270.68845 I0.05 J0.0866
G2 X90.17259 Y270.60185 I0.05 J-0.0866
G2 X90.09551 Y270.50451 I-0.1 J0.0
G1 F300.0 Z-2.5
G2 F800.0 X90.02259 Y270.51525 I-0.02292 J0.09734
G2 Y270.68845 I0.05 J0.0866
G2 X90.17259 Y270.60185 I0.05 J-0.0866
G2 X90.09551 Y270.50451 I-0.1 J0.0
G1 F300.0 Z-3.0
G2 F800.0 X90.02259 Y270.51525 I-0.02292 J0.09734
G2 Y270.68845 I0.05 J0.0866
G2 X90.17259 Y270.60185 I0.05 J-0.0866
G2 X90.09551 Y270.50451 I-0.1 J0.0
G1 F300.0 Z-3.3
G2 F800.0 X90.02259 Y270.51525 I-0.02292 J0.09734
G2 Y270.68845 I0.05 J0.0866
G2 X90.17259 Y270.60185 I0.05 J-0.0866
G2 X90.09551 Y270.50451 I-0.1 J0.0
G0 Z3.0
G0 X90.07272 Y287.4397
G0 Z1.0
G1 F300.0 Z-0.5
G2 F800.0 X90.02259 Y287.4531 I-0.00013 J0.1
G2 Y287.6263 I0.05 J0.0866
G2 X90.17259 Y287.5397 I0.05 J-0.0866
G2 X90.07272 Y287.4397 I-0.1 J0.0
G1 F300.0 Z-1.0
G2 F800.0 X90.02259 Y287.4531 I-0.00013 J0.1
G2 Y287.6263 I0.05 J0.0866
G2 X90.17259 Y287.5397 I0.05 J-0.0866
G2 X90.07272 Y287.4397 I-0.1 J0.0
G1 F300.0 Z-1.5
G2 F800.0 X90.02259 Y287.4531 I-0.00013 J0.1
G2 Y287.6263 I0.05 J0.0866
G2 X90.17259 Y287.5397 I0.05 J-0.0866
G2 X90.07272 Y287.4397 I-0.1 J0.0
G1 F300.0 Z-2.0
G2 F800.0 X90.02259 Y287.4531 I-0.00013 J0.1
G2 Y287.6263 I0.05 J0.0866
G2 X90.17259 Y287.5397 I0.05 J-0.0866
G2 X90.07272 Y287.4397 I-0.1 J0.0
G1 F300.0 Z-2.5
G2 F800.0 X90.02259 Y287.4531 I-0.00013 J0.1
G2 Y287.6263 I0.05 J0.0866
G2 X90.17259 Y287.5397 I0.05 J-0.0866
G2 X90.07272 Y287.4397 I-0.1 J0.0
G1 F300.0 Z-3.0
G2 F800.0 X90.02259 Y287.4531 I-0.00013 J0.1
G2 Y287.6263 I0.05 J0.0866
G2 X90.17259 Y287.5397 I0.05 J-0.0866
G2 X90.07272 Y287.4397 I-0.1 J0.0
G1 F300.0 Z-3.3
G2 F800.0 X90.02259 Y287.4531 I-0.00013 J0.1
G2 Y287.6263 I0.05 J0.0866
G2 X90.17259 Y287.5397 I0.05 J-0.0866
G2 X90.07272 Y287.4397 I-0.1 J0.0
G0 Z3.0
G0 X110.91548 Y279.10789
G0 Z1.0
G1 F300.0 Z-0.5
G2 F800.0 X110.95833 Y279.15738 I0.09286 J-0.03712
G2 X111.10833 Y279.07077 I0.05 J-0.0866
G2 X110.95833 Y278.98417 I-0.1 J0.0
G2 X110.91548 Y279.10789 I0.05 J0.0866
G1 F300.0 Z-1.0
G2 F800.0 X110.95833 Y279.15738 I0.09286 J-0.03712
G2 X111.10833 Y279.07077 I0.05 J-0.0866
G2 X110.95833 Y278.98417 I-0.1 J0.0
G2 X110.91548 Y279.10789 I0.05 J0.0866
G1 F300.0 Z-1.5
G2 F800.0 X110.95833 Y279.15738 I0.09286 J-0.03712
G2 X111.10833 Y279.07077 I0.05 J-0.0866
G2 X110.95833 Y278.98417 I-0.1 J0.0
G2 X110.91548 Y279.10789 I0.05 J0.0866
G1 F300.0 Z-2.0
G2 F800.0 X110.95833 Y279.15738 I0.09286 J-0.03712
G2 X111.10833 Y279.07077 I0.05 J-0.0866
G2 X110.95833 Y278.98417 I-0.1 J0.0
G2 X110.91548 Y279.10789 I0.05 J0.0866
G1 F300.0 Z-2.5
G2 F800.0 X110.95833 Y279.15738 I0.09286 J-0.03712
G2 X111.10833 Y279.07077 I0.05 J-0.0866
G2 X110.95833 Y278.98417 I-0.1 J0.0
G2 X110.91548 Y279.10789 I0.05 J0.0866
G1 F300.0 Z-3.0
G2 F800.0 X110.95833 Y279.15738 I0.09286 J-0.03712
G2 X111.10833 Y279.07077 I0.05 J-0.0866
G2 X110.95833 Y278.98417 I-0.1 J0.0
G2 X110.91548 Y279.10789 I0.05 J0.0866
G1 F300.0 Z-3.3
G2 F800.0 X110.95833 Y279.15738 I0.09286 J-0.03712
G2 X111.10833 Y279.07077 I0.05 J-0.0866
G2 X110.95833 Y278.98417 I-0.1 J0.0
G2 X110.91548 Y279.10789 I0.05 J0.0866
G0 Z3.0
G0 X116.3388 Y269.20876
G0 Z1.0
G1 F300.0 Z-0.5
G2 F800.0 X116.48684 Y269.12106 I0.04805 J-0.0877
G2 X116.33684 Y269.03445 I-0.1 J0.0
G2 Y269.20766 I0.05 J0.0866
G2 X116.3388 Y269.20876 I0.05 J-0.0866
G1 F300.0 Z-1.0
G2 F800.0 X116.48684 Y269.12106 I0.04805 J-0.0877
G2 X116.33684 Y269.03445 I-0.1 J0.0
G2 Y269.20766 I0.05 J0.0866
G2 X116.3388 Y269.20876 I0.05 J-0.0866
G1 F300.0 Z-1.5
G2 F800.0 X116.48684 Y269.12106 I0.04805 J-0.0877
G2 X116.33684 Y269.03445 I-0.1 J0.0
G2 Y269.20766 I0.05 J0.0866
G2 X116.3388 Y269.20876 I0.05 J-0.0866
G1 F300.0 Z-2.0
G2 F800.0 X116.48684 Y269.12106 I0.04805 J-0.0877
G2 X116.33684 Y269.03445 I-0.1 J0.0
G2 Y269.20766 I0.05 J0.0866
G2 X116.3388 Y269.20876 I0.05 J-0.0866
G1 F300.0 Z-2.5
G2 F800.0 X116.48684 Y269.12106 I0.04805 J-0.0877
G2 X116.33684 Y269.03445 I-0.1 J0.0
G2 Y269.20766 I0.05 J0.0866
G2 X116.3388 Y269.20876 I0.05 J-0.0866
G1 F300.0 Z-3.0
G2 F800.0 X116.48684 Y269.12106 I0.04805 J-0.0877
G2 X116.33684 Y269.03445 I-0.1 J0.0
G2 Y269.20766 I0.05 J0.0866
G2 X116.3388 Y269.20876 I0.05 J-0.0866
G1 F300.0 Z-3.3
G2 F800.0 X116.48684 Y269.12106 I0.04805 J-0.0877
G2 X116.33684 Y269.03445 I-0.1 J0.0
G2 Y269.20766 I0.05 J0.0866
G2 X116.3388 Y269.20876 I0.05 J-0.0866
G0 Z3.0
G0 X128.36124 Y261.07652
G0 Z1.0
G1 F300.0 Z-0.5
G2 F800.0 X128.39407 Y261.1071 I0.08283 J-0.05603
G2 X128.54407 Y261.02049 I0.05 J-0.0866
G2 X128.39407 Y260.93389 I-0.1 J0.0
G2 X128.36124 Y261.07652 I0.05 J0.0866
G1 F300.0 Z-1.0
G2 F800.0 X128.39407 Y261.1071 I0.08283 J-0.05603
G2 X128.54407 Y261.02049 I0.05 J-0.0866
G2 X128.39407 Y260.93389 I-0.1 J0.0
G2 X128.36124 Y261.07652 I0.05 J0.0866
G1 F300.0 Z-1.5
G2 F800.0 X128.39407 Y261.1071 I0.08283 J-0.05603
G2 X128.54407 Y261.02049 I0.05 J-0.0866
G2 X128.39407 Y260.93389 I-0.1 J0.0
G2 X128.36124 Y261.07652 I0.05 J0.0866
G1 F300.0 Z-2.0
G2 F800.0 X128.39407 Y261.1071 I0.08283 J-0.05603
G2 X128.54407 Y261.02049 I0.05 J-0.0866
G2 X128.39407 Y260.93389 I-0.1 J0.0
G2 X128.36124 Y261.07652 I0.05 J0.0866
G1 F300.0 Z-2.5
G2 F800.0 X128.39407 Y261.1071 I0.08283 J-0.05603
G2 X128.54407 Y261.02049 I0.05 J-0.0866
G2 X128.39407 Y260.93389 I-0.1 J0.0
G2 X128.36124 Y261.07652 I0.05 J0.0866
G1 F300.0 Z-3.0
G2 F800.0 X128.39407 Y261.1071 I0.08283 J-0.05603
G2 X128.54407 Y261.02049 I0.05 J-0.0866
G2 X128.39407 Y260.93389 I-0.1 J0.0
G2 X128.36124 Y261.07652 I0.05 J0.0866
G1 F300.0 Z-3.3
G2 F800.0 X128.39407 Y261.1071 I0.08283 J-0.05603
G2 X128.54407 Y261.02049 I0.05 J-0.0866
G2 X128.39407 Y260.93389 I-0.1 J0.0
G2 X128.36124 Y261.07652 I0.05 J0.0866
G0 Z3.0
G0 X133.77467 Y251.15855
G0 Z1.0
G1 F300.0 Z-0.5
G2 F800.0 X133.92258 Y251.07077 I0.04791 J-0.08778
G2 X133.77258 Y250.98417 I-0.1 J0.0
G2 Y251.15738 I0.05 J0.0866
G2 X133.77467 Y251.15855 I0.05 J-0.0866
G1 F300.0 Z-1.0
G2 F800.0 X133.92258 Y251.07077 I0.04791 J-0.08778
G2 X133.77258 Y250.98417 I-0.1 J0.0
G2 Y251.15738 I0.05 J0.0866
G2 X133.77467 Y251.15855 I0.05 J-0.0866
G1 F300.0 Z-1.5
G2 F800.0 X133.92258 Y251.07077 I0.04791 J-0.08778
G2 X133.77258 Y250.98417 I-0.1 J0.0
G2 Y251.15738 I0.05 J0.0866
G2 X133.77467 Y251.15855 I0.05 J-0.0866
G1 F300.0 Z-2.0
G2 F800.0 X133.92258 Y251.07077 I0.04791 J-0.08778
G2 X133.77258 Y250.98417 I-0.1 J0.0
G2 Y251.15738 I0.05 J0.0866
G2 X133.77467 Y251.15855 I0.05 J-0.0866
G1 F300.0 Z-2.5
G2 F800.0 X133.92258 Y251.07077 I0.04791 J-0.08778
G2 X133.77258 Y250.98417 I-0.1 J0.0
G2 Y251.15738 I0.05 J0.0866
G2 X133.77467 Y251.15855 I0.05 J-0.0866
G1 F300.0 Z-3.0
G2 F800.0 X133.92258 Y251.07077 I0.04791 J-0.08778
G2 X133.77258 Y250.98417 I-0.1 J0.0
G2 Y251.15738 I0.05 J0.0866
G2 X133.77467 Y251.15855 I0.05 J-0.0866
G1 F300.0 Z-3.3
G2 F800.0 X133.92258 Y251.07077 I0.04791 J-0.08778
G2 X133.77258 Y250.98417 I-0.1 J0.0
G2 Y251.15738 I0.05 J0.0866
G2 X133.77467 Y251.15855 I0.05 J-0.0866
G0 Z3.0
G0 X128.49097 Y241.20937
G0 Z1.0
G1 F300.0 Z-0.5
G2 F800.0 X128.54407 Y241.12106 I-0.0469 J-0.08832
G2 X128.39407 Y241.03445 I-0.1 J0.0
G2 Y241.20766 I0.05 J0.0866
G2 X128.49097 Y241.20937 I0.05 J-0.0866
G1 F300.0 Z-1.0
G2 F800.0 X128.54407 Y241.12106 I-0.0469 J-0.08832
G2 X128.39407 Y241.03445 I-0.1 J0.0
G2 Y241.20766 I0.05 J0.0866
G2 X128.49097 Y241.20937 I0.05 J-0.0866
G1 F300.0 Z-1.5
G2 F800.0 X128.54407 Y241.12106 I-0.0469 J-0.08832
G2 X128.39407 Y241.03445 I-0.1 J0.0
G2 Y241.20766 I0.05 J0.0866
G2 X128.49097 Y241.20937 I0.05 J-0.0866
G1 F300.0 Z-2.0
G2 F800.0 X128.54407 Y241.12106 I-0.0469 J-0.08832
G2 X128.39407 Y241.03445 I-0.1 J0.0
G2 Y241.20766 I0.05 J0.0866
G2 X128.49097 Y241.20937 I0.05 J-0.0866
G1 F300.0 Z-2.5
G2 F800.0 X128.54407 Y241.12106 I-0.0469 J-0.08832
G2 X128.39407 Y241.03445 I-0.1 J0.0
G2 Y241.20766 I0.05 J0.0866
G2 X128.49097 Y241.20937 I0.05 J-0.0866
G1 F300.0 Z-3.0
G2 F800.0 X128.54407 Y241.12106 I-0.0469 J-0.08832
G2 X128.39407 Y241.03445 I-0.1 J0.0
G2 Y241.20766 I0.05 J0.0866
G2 X128.49097 Y241.20937 I0.05 J-0.0866
G1 F300.0 Z-3.3
G2 F800.0 X128.54407 Y241.12106 I-0.0469 J-0.08832
G2 X128.39407 Y241.03445 I-0.1 J0.0
G2 Y241.20766 I0.05 J0.0866
G2 X128.49097 Y241.20937 I0.05 J-0.0866
G0 Z3.0
G0 X116.46967 Y233.07653
G0 Z1.0
G1 F300.0 Z-0.5
G2 F800.0 X116.48684 Y233.02049 I-0.08283 J-0.05603
G2 X116.33684 Y232.93389 I-0.1 J0.0
G2 Y233.1071 I0.05 J0.0866
G2 X116.46967 Y233.07653 I0.05 J-0.0866
G1 F300.0 Z-1.0
G2 F800.0 X116.48684 Y233.02049 I-0.08283 J-0.05603
G2 X116.33684 Y232.93389 I-0.1 J0.0
G2 Y233.1071 I0.05 J0.0866
G2 X116.46967 Y233.07653 I0.05 J-0.0866
G1 F300.0 Z-1.5
G2 F800.0 X116.48684 Y233.02049 I-0.08283 J-0.05603
G2 X116.33684 Y232.93389 I-0.1 J0.0
G2 Y233.1071 I0.05 J0.0866
G2 X116.46967 Y233.07653 I0.05 J-0.0866
G1 F300.0 Z-2.0
G2 F800.0 X116.48684 Y233.02049 I-0.08283 J-0.05603
G2 X116.33684 Y232.93389 I-0.1 J0.0
G2 Y233.1071 I0.05 J0.0866
G2 X116.46967 Y233.07653 I0.05 J-0.0866
G1 F300.0 Z-2.5
G2 F800.0 X116.48684 Y233.02049 I-0.08283 J-0.05603
G2 X116.33684 Y232.93389 I-0.1 J0.0
G2 Y233.1071 I0.05 J0.0866
G2 X116.46967 Y233.07653 I0.05 J-0.0866
G1 F300.0 Z-3.0
G2 F800.0 X116.48684 Y233.02049 I-0.08283 J-0.05603
G2 X116.33684 Y232.93389 I-0.1 J0.0
G2 Y233.1071 I0.05 J0.0866
G2 X116.46967 Y233.07653 I0.05 J-0.0866
G1 F300.0 Z-3.3
G2 F800.0 X116.48684 Y233.02049 I-0.08283 J-0.05603
G2 X116.33684 Y232.93389 I-0.1 J0.0
G2 Y233.1071 I0.05 J0.0866
G2 X116.46967 Y233.07653 I0.05 J-0.0866
G0 Z3.0
G0 X111.05624 Y223.15855
G0 Z1.0
G1 F300.0 Z-0.5
G2 F800.0 X111.10833 Y223.07077 I-0.04791 J-0.08778
G2 X110.95833 Y222.98417 I-0.1 J0.0
G2 Y223.15738 I0.05 J0.0866
G2 X111.05624 Y223.15855 I0.05 J-0.0866
G1 F300.0 Z-1.0
G2 F800.0 X111.10833 Y223.07077 I-0.04791 J-0.08778
G2 X110.95833 Y222.98417 I-0.1 J0.0
G2 Y223.15738 I0.05 J0.0866
G2 X111.05624 Y223.15855 I0.05 J-0.0866
G1 F300.0 Z-1.5
G2 F800.0 X111.10833 Y223.07077 I-0.04791 J-0.08778
G2 X110.95833 Y222.98417 I-0.1 J0.0
G2 Y223.15738 I0.05 J0.0866
G2 X111.05624 Y223.15855 I0.05 J-0.0866
G1 F300.0 Z-2.0
G2 F800.0 X111.10833 Y223.07077 I-0.04791 J-0.08778
G2 X110.95833 Y222.98417 I-0.1 J0.0
G2 Y223.15738 I0.05 J0.0866
G2 X111.05624 Y223.15855 I0.05 J-0.0866
G1 F300.0 Z-2.5
G2 F800.0 X111.10833 Y223.07077 I-0.04791 J-0.08778
G2 X110.95833 Y222.98417 I-0.1 J0.0
G2 Y223.15738 I0.05 J0.0866
G2 X111.05624 Y223.15855 I0.05 J-0.0866
G1 F300.0 Z-3.0
G2 F800.0 X111.10833 Y223.07077 I-0.04791 J-0.08778
G2 X110.95833 Y222.98417 I-0.1 J0.0
G2 Y223.15738 I0.05 J0.0866
G2 X111.05624 Y223.15855 I0.05 J-0.0866
G1 F300.0 Z-3.3
G2 F800.0 X111.10833 Y223.07077 I-0.04791 J-0.08778
G2 X110.95833 Y222.98417 I-0.1 J0.0
G2 Y223.15738 I0.05 J0.0866
G2 X111.05624 Y223.15855 I0.05 J-0.0866
G0 Z3.0
G0 X116.33994 Y213.20937
G0 Z1.0
G1 F300.0 Z-0.5
G2 F800.0 X116.48684 Y213.12106 I0.0469 J-0.08832
G2 X116.33684 Y213.03445 I-0.1 J0.0
G2 Y213.20766 I0.05 J0.0866
G2 X116.33994 Y213.20937 I0.05 J-0.0866
G1 F300.0 Z-1.0
G2 F800.0 X116.48684 Y213.12106 I0.0469 J-0.08832
G2 X116.33684 Y213.03445 I-0.1 J0.0
G2 Y213.20766 I0.05 J0.0866
G2 X116.33994 Y213.20937 I0.05 J-0.0866
G1 F300.0 Z-1.5
G2 F800.0 X116.48684 Y213.12106 I0.0469 J-0.08832
G2 X116.33684 Y213.03445 I-0.1 J0.0
G2 Y213.20766 I0.05 J0.0866
G2 X116.33994 Y213.20937 I0.05 J-0.0866
G1 F300.0 Z-2.0
G2 F800.0 X116.48684 Y213.12106 I0.0469 J-0.08832
G2 X116.33684 Y213.03445 I-0.1 J0.0
G2 Y213.20766 I0.05 J0.0866
G2 X116.33994 Y213.20937 I0.05 J-0.0866
G1 F300.0 Z-2.5
G2 F800.0 X116.48684 Y213.12106 I0.0469 J-0.08832
G2 X116.33684 Y213.03445 I-0.1 J0.0
G2 Y213.20766 I0.05 J0.0866
G2 X116.33994 Y213.20937 I0.05 J-0.0866
G1 F300.0 Z-3.0
G2 F800.0 X116.48684 Y213.12106 I0.0469 J-0.08832
G2 X116.33684 Y213.03445 I-0.1 J0.0
G2 Y213.20766 I0.05 J0.0866
G2 X116.33994 Y213.20937 I0.05 J-0.0866
G1 F300.0 Z-3.3
G2 F800.0 X116.48684 Y213.12106 I0.0469 J-0.08832
G2 X116.33684 Y213.03445 I-0.1 J0.0
G2 Y213.20766 I0.05 J0.0866
G2 X116.33994 Y213.20937 I0.05 J-0.0866
G0 Z3.0
G0 X128.36124 Y205.07653
G0 Z1.0
G1 F300.0 Z-0.5
G2 F800.0 X128.39407 Y205.1071 I0.08283 J-0.05603
G2 X128.54407 Y205.02049 I0.05 J-0.0866
G2 X128.39407 Y204.93389 I-0.1 J0.0
G2 X128.36124 Y205.07653 I0.05 J0.0866
G1 F300.0 Z-1.0
G2 F800.0 X128.39407 Y205.1071 I0.08283 J-0.05603
G2 X128.54407 Y205.02049 I0.05 J-0.0866
G2 X128.39407 Y204.93389 I-0.1 J0.0
G2 X128.36124 Y205.07653 I0.05 J0.0866
G1 F300.0 Z-1.5
G2 F800.0 X128.39407 Y205.1071 I0.08283 J-0.05603
G2 X128.54407 Y205.02049 I0.05 J-0.0866
G2 X128.39407 Y204.93389 I-0.1 J0.0
G2 X128.36124 Y205.07653 I0.05 J0.0866
G1 F300.0 Z-2.0
G2 F800.0 X128.39407 Y205.1071 I0.08283 J-0.05603
G2 X128.54407 Y205.02049 I0.05 J-0.0866
G2 X128.39407 Y204.93389 I-0.1 J0.0
G2 X128.36124 Y205.07653 I0.05 J0.0866
G1 F300.0 Z-2.5
G2 F800.0 X128.39407 Y205.1071 I0.08283 J-0.05603
G2 X128.54407 Y205.02049 I0.05 J-0.0866
G2 X128.39407 Y204.93389 I-0.1 J0.0
G2 X128.36124 Y205.07653 I0.05 J0.0866
G1 F300.0 Z-3.0
G2 F800.0 X128.39407 Y205.1071 I0.08283 J-0.05603
G2 X128.54407 Y205.02049 I0.05 J-0.0866
G2 X128.39407 Y204.93389 I-0.1 J0.0
G2 X128.36124 Y205.07653 I0.05 J0.0866
G1 F300.0 Z-3.3
G2 F800.0 X128.39407 Y205.1071 I0.08283 J-0.05603
G2 X128.54407 Y205.02049 I0.05 J-0.0866
G2 X128.39407 Y204.93389 I-0.1 J0.0
G2 X128.36124 Y205.07653 I0.05 J0.0866
G0 Z3.0
G0 X133.77467 Y195.15855
G0 Z1.0
G1 F300.0 Z-0.5
G2 F800.0 X133.92258 Y195.07077 I0.04791 J-0.08778
G2 X133.77258 Y194.98417 I-0.1 J0.0
G2 Y195.15738 I0.05 J0.0866
G2 X133.77467 Y195.15855 I0.05 J-0.0866
G1 F300.0 Z-1.0
G2 F800.0 X133.92258 Y195.07077 I0.04791 J-0.08778
G2 X133.77258 Y194.98417 I-0.1 J0.0
G2 Y195.15738 I0.05 J0.0866
G2 X133.77467 Y195.15855 I0.05 J-0.0866
G1 F300.0 Z-1.5
G2 F800.0 X133.92258 Y195.07077 I0.04791 J-0.08778
G2 X133.77258 Y194.98417 I-0.1 J0.0
G2 Y195.15738 I0.05 J0.0866
G2 X133.77467 Y195.15855 I0.05 J-0.0866
G1 F300.0 Z-2.0
G2 F800.0 X133.92258 Y195.07077 I0.04791 J-0.08778
G2 X133.77258 Y194.98417 I-0.1 J0.0
G2 Y195.15738 I0.05 J0.0866
G2 X133.77467 Y195.15855 I0.05 J-0.0866
G1 F300.0 Z-2.5
G2 F800.0 X133.92258 Y195.07077 I0.04791 J-0.08778
G2 X133.77258 Y194.98417 I-0.1 J0.0
G2 Y195.15738 I0.05 J0.0866
G2 X133.77467 Y195.15855 I0.05 J-0.0866
G1 F300.0 Z-3.0
G2 F800.0 X133.92258 Y195.07077 I0.04791 J-0.08778
G2 X133.77258 Y194.98417 I-0.1 J0.0
G2 Y195.15738 I0.05 J0.0866
G2 X133.77467 Y195.15855 I0.05 J-0.0866
G1 F300.0 Z-3.3
G2 F800.0 X133.92258 Y195.07077 I0.04791 J-0.08778
G2 X133.77258 Y194.98417 I-0.1 J0.0
G2 Y195.15738 I0.05 J0.0866
G2 X133.77467 Y195.15855 I0.05 J-0.0866
G0 Z3.0
G0 X128.48733 Y184.14044
G0 Z1.0
G1 F300.0 Z-0.5
G2 F800.0 X128.54407 Y184.05028 I-0.04326 J-0.09016
G2 X128.39407 Y183.96368 I-0.1 J0.0
G2 Y184.13688 I0.05 J0.0866
G2 X128.48733 Y184.14044 I0.05 J-0.0866
G1 F300.0 Z-1.0
G2 F800.0 X128.54407 Y184.05028 I-0.04326 J-0.09016
G2 X128.39407 Y183.96368 I-0.1 J0.0
G2 Y184.13688 I0.05 J0.0866
G2 X128.48733 Y184.14044 I0.05 J-0.0866
G1 F300.0 Z-1.5
G2 F800.0 X128.54407 Y184.05028 I-0.04326 J-0.09016
G2 X128.39407 Y183.96368 I-0.1 J0.0
G2 Y184.13688 I0.05 J0.0866
G2 X128.48733 Y184.14044 I0.05 J-0.0866
G1 F300.0 Z-2.0
G2 F800.0 X128.54407 Y184.05028 I-0.04326 J-0.09016
G2 X128.39407 Y183.96368 I-0.1 J0.0
G2 Y184.13688 I0.05 J0.0866
G2 X128.48733 Y184.14044 I0.05 J-0.0866
G1 F300.0 Z-2.5
G2 F800.0 X128.54407 Y184.05028 I-0.04326 J-0.09016
G2 X128.39407 Y183.96368 I-0.1 J0.0
G2 Y184.13688 I0.05 J0.0866
G2 X128.48733 Y184.14044 I0.05 J-0.0866
G1 F300.0 Z-3.0
G2 F800.0 X128.54407 Y184.05028 I-0.04326 J-0.09016
G2 X128.39407 Y183.96368 I-0.1 J0.0
G2 Y184.13688 I0.05 J0.0866
G2 X128.48733 Y184.14044 I0.05 J-0.0866
G1 F300.0 Z-3.3
G2 F800.0 X128.54407 Y184.05028 I-0.04326 J-0.09016
G2 X128.39407 Y183.96368 I-0.1 J0.0
G2 Y184.13688 I0.05 J0.0866
G2 X128.48733 Y184.14044 I0.05 J-0.0866
G0 Z3.0
G0 X116.47303 Y177.07121
G0 Z1.0
G1 F300.0 Z-0.5
G2 F800.0 X116.48684 Y177.02049 I-0.08619 J-0.05071
G2 X116.33684 Y176.93389 I-0.1 J0.0
G2 Y177.1071 I0.05 J0.0866
G2 X116.47303 Y177.07121 I0.05 J-0.0866
G1 F300.0 Z-1.0
G2 F800.0 X116.48684 Y177.02049 I-0.08619 J-0.05071
G2 X116.33684 Y176.93389 I-0.1 J0.0
G2 Y177.1071 I0.05 J0.0866
G2 X116.47303 Y177.07121 I0.05 J-0.0866
G1 F300.0 Z-1.5
G2 F800.0 X116.48684 Y177.02049 I-0.08619 J-0.05071
G2 X116.33684 Y176.93389 I-0.1 J0.0
G2 Y177.1071 I0.05 J0.0866
G2 X116.47303 Y177.07121 I0.05 J-0.0866
G1 F300.0 Z-2.0
G2 F800.0 X116.48684 Y177.02049 I-0.08619 J-0.05071
G2 X116.33684 Y176.93389 I-0.1 J0.0
G2 Y177.1071 I0.05 J0.0866
G2 X116.47303 Y177.07121 I0.05 J-0.0866
G1 F300.0 Z-2.5
G2 F800.0 X116.48684 Y177.02049 I-0.08619 J-0.05071
G2 X116.33684 Y176.93389 I-0.1 J0.0
G2 Y177.1071 I0.05 J0.0866
G2 X116.47303 Y177.07121 I0.05 J-0.0866
G1 F300.0 Z-3.0
G2 F800.0 X116.48684 Y177.02049 I-0.08619 J-0.05071
G2 X116.33684 Y176.93389 I-0.1 J0.0
G2 Y177.1071 I0.05 J0.0866
G2 X116.47303 Y177.07121 I0.05 J-0.0866
G1 F300.0 Z-3.3
G2 F800.0 X116.48684 Y177.02049 I-0.08619 J-0.05071
G2 X116.33684 Y176.93389 I-0.1 J0.0
G2 Y177.1071 I0.05 J0.0866
G2 X116.47303 Y177.07121 I0.05 J-0.0866
G0 Z3.0
G0 X111.05259 Y166.08967
G0 Z1.0
G1 F300.0 Z-0.5
G2 F800.0 X111.10833 Y166.0 I-0.04426 J-0.08967
G2 X110.95833 Y165.9134 I-0.1 J0.0
G2 Y166.0866 I0.05 J0.0866
G2 X111.05259 Y166.08967 I0.05 J-0.0866
G1 F300.0 Z-1.0
G2 F800.0 X111.10833 Y166.0 I-0.04426 J-0.08967
G2 X110.95833 Y165.9134 I-0.1 J0.0
G2 Y166.0866 I0.05 J0.0866
G2 X111.05259 Y166.08967 I0.05 J-0.0866
G1 F300.0 Z-1.5
G2 F800.0 X111.10833 Y166.0 I-0.04426 J-0.08967
G2 X110.95833 Y165.9134 I-0.1 J0.0
G2 Y166.0866 I0.05 J0.0866
G2 X111.05259 Y166.08967 I0.05 J-0.0866
G1 F300.0 Z-2.0
G2 F800.0 X111.10833 Y166.0 I-0.04426 J-0.08967
G2 X110.95833 Y165.9134 I-0.1 J0.0
G2 Y166.0866 I0.05 J0.0866
G2 X111.05259 Y166.08967 I0.05 J-0.0866
G1 F300.0 Z-2.5
G2 F800.0 X111.10833 Y166.0 I-0.04426 J-0.08967
G2 X110.95833 Y165.9134 I-0.1 J0.0
G2 Y166.0866 I0.05 J0.0866
G2 X111.05259 Y166.08967 I0.05 J-0.0866
G1 F300.0 Z-3.0
G2 F800.0 X111.10833 Y166.0 I-0.04426 J-0.08967
G2 X110.95833 Y165.9134 I-0.1 J0.0
G2 Y166.0866 I0.05 J0.0866
G2 X111.05259 Y166.08967 I0.05 J-0.0866
G1 F300.0 Z-3.3
G2 F800.0 X111.10833 Y166.0 I-0.04426 J-0.08967
G2 X110.95833 Y165.9134 I-0.1 J0.0
G2 Y166.0866 I0.05 J0.0866
G2 X111.05259 Y166.08967 I0.05 J-0.0866
G0 Z3.0
G0 X115.96196 Y156.70965
G0 Z1.0
G1 F300.0 Z-0.5
G2 F800.0 X116.10833 Y156.62106 I0.04637 J-0.0886
G2 X115.95833 Y156.53445 I-0.1 J0.0
G2 Y156.70766 I0.05 J0.0866
G2 X115.96196 Y156.70965 I0.05 J-0.0866
G1 F300.0 Z-1.0
G2 F800.0 X116.10833 Y156.62106 I0.04637 J-0.0886
G2 X115.95833 Y156.53445 I-0.1 J0.0
G2 Y156.70766 I0.05 J0.0866
G2 X115.96196 Y156.70965 I0.05 J-0.0866
G1 F300.0 Z-1.5
G2 F800.0 X116.10833 Y156.62106 I0.04637 J-0.0886
G2 X115.95833 Y156.53445 I-0.1 J0.0
G2 Y156.70766 I0.05 J0.0866
G2 X115.96196 Y156.70965 I0.05 J-0.0866
G1 F300.0 Z-2.0
G2 F800.0 X116.10833 Y156.62106 I0.04637 J-0.0886
G2 X115.95833 Y156.53445 I-0.1 J0.0
G2 Y156.70766 I0.05 J0.0866
G2 X115.96196 Y156.70965 I0.05 J-0.0866
G1 F300.0 Z-2.5
G2 F800.0 X116.10833 Y156.62106 I0.04637 J-0.0886
G2 X115.95833 Y156.53445 I-0.1 J0.0
G2 Y156.70766 I0.05 J0.0866
G2 X115.96196 Y156.70965 I0.05 J-0.0866
G1 F300.0 Z-3.0
G2 F800.0 X116.10833 Y156.62106 I0.04637 J-0.0886
G2 X115.95833 Y156.53445 I-0.1 J0.0
G2 Y156.70766 I0.05 J0.0866
G2 X115.96196 Y156.70965 I0.05 J-0.0866
G1 F300.0 Z-3.3
G2 F800.0 X116.10833 Y156.62106 I0.04637 J-0.0886
G2 X115.95833 Y156.53445 I-0.1 J0.0
G2 Y156.70766 I0.05 J0.0866
G2 X115.96196 Y156.70965 I0.05 J-0.0866
G0 Z3.0
G0 X128.36221 Y148.00716
G0 Z1.0
G1 F300.0 Z-0.5
G2 F800.0 X128.39407 Y148.03632 I0.08185 J-0.05745
G2 X128.54407 Y147.94972 I0.05 J-0.0866
G2 X128.39407 Y147.86312 I-0.1 J0.0
G2 X128.36221 Y148.00716 I0.05 J0.0866
G1 F300.0 Z-1.0
G2 F800.0 X128.39407 Y148.03632 I0.08185 J-0.05745
G2 X128.54407 Y147.94972 I0.05 J-0.0866
G2 X128.39407 Y147.86312 I-0.1 J0.0
G2 X128.36221 Y148.00716 I0.05 J0.0866
G1 F300.0 Z-1.5
G2 F800.0 X128.39407 Y148.03632 I0.08185 J-0.05745
G2 X128.54407 Y147.94972 I0.05 J-0.0866
G2 X128.39407 Y147.86312 I-0.1 J0.0
G2 X128.36221 Y148.00716 I0.05 J0.0866
G1 F300.0 Z-2.0
G2 F800.0 X128.39407 Y148.03632 I0.08185 J-0.05745
G2 X128.54407 Y147.94972 I0.05 J-0.0866
G2 X128.39407 Y147.86312 I-0.1 J0.0
G2 X128.36221 Y148.00716 I0.05 J0.0866
G1 F300.0 Z-2.5
G2 F800.0 X128.39407 Y148.03632 I0.08185 J-0.05745
G2 X128.54407 Y147.94972 I0.05 J-0.0866
G2 X128.39407 Y147.86312 I-0.1 J0.0
G2 X128.36221 Y148.00716 I0.05 J0.0866
G1 F300.0 Z-3.0
G2 F800.0 X128.39407 Y148.03632 I0.08185 J-0.05745
G2 X128.54407 Y147.94972 I0.05 J-0.0866
G2 X128.39407 Y147.86312 I-0.1 J0.0
G2 X128.36221 Y148.00716 I0.05 J0.0866
G1 F300.0 Z-3.3
G2 F800.0 X128.39407 Y148.03632 I0.08185 J-0.05745
G2 X128.54407 Y147.94972 I0.05 J-0.0866
G2 X128.39407 Y147.86312 I-0.1 J0.0
G2 X128.36221 Y148.00716 I0.05 J0.0866
G0 Z3.0
G0 X133.39665 Y138.65882
G0 Z1.0
G1 F300.0 Z-0.5
G2 F800.0 X133.54407 Y138.57077 I0.04742 J-0.08804
G2 X133.39407 Y138.48417 I-0.1 J0.0
G2 Y138.65738 I0.05 J0.0866
G2 X133.39665 Y138.65882 I0.05 J-0.0866
G1 F300.0 Z-1.0
G2 F800.0 X133.54407 Y138.57077 I0.04742 J-0.08804
G2 X133.39407 Y138.48417 I-0.1 J0.0
G2 Y138.65738 I0.05 J0.0866
G2 X133.39665 Y138.65882 I0.05 J-0.0866
G1 F300.0 Z-1.5
G2 F800.0 X133.54407 Y138.57077 I0.04742 J-0.08804
G2 X133.39407 Y138.48417 I-0.1 J0.0
G2 Y138.65738 I0.05 J0.0866
G2 X133.39665 Y138.65882 I0.05 J-0.0866
G1 F300.0 Z-2.0
G2 F800.0 X133.54407 Y138.57077 I0.04742 J-0.08804
G2 X133.39407 Y138.48417 I-0.1 J0.0
G2 Y138.65738 I0.05 J0.0866
G2 X133.39665 Y138.65882 I0.05 J-0.0866
G1 F300.0 Z-2.5
G2 F800.0 X133.54407 Y138.57077 I0.04742 J-0.08804
G2 X133.39407 Y138.48417 I-0.1 J0.0
G2 Y138.65738 I0.05 J0.0866
G2 X133.39665 Y138.65882 I0.05 J-0.0866
G1 F300.0 Z-3.0
G2 F800.0 X133.54407 Y138.57077 I0.04742 J-0.08804
G2 X133.39407 Y138.48417 I-0.1 J0.0
G2 Y138.65738 I0.05 J0.0866
G2 X133.39665 Y138.65882 I0.05 J-0.0866
G1 F300.0 Z-3.3
G2 F800.0 X133.54407 Y138.57077 I0.04742 J-0.08804
G2 X133.39407 Y138.48417 I-0.1 J0.0
G2 Y138.65738 I0.05 J0.0866
G2 X133.39665 Y138.65882 I0.05 J-0.0866
G0 Z3.0
G0 X128.10882 Y127.64044
G0 Z1.0
G1 F300.0 Z-0.5
G2 F800.0 X128.16556 Y127.55028 I-0.04327 J-0.09016
G2 X128.01556 Y127.46368 I-0.1 J0.0
G2 Y127.63688 I0.05 J0.0866
G2 X128.10882 Y127.64044 I0.05 J-0.0866
G1 F300.0 Z-1.0
G2 F800.0 X128.16556 Y127.55028 I-0.04327 J-0.09016
G2 X128.01556 Y127.46368 I-0.1 J0.0
G2 Y127.63688 I0.05 J0.0866
G2 X128.10882 Y127.64044 I0.05 J-0.0866
G1 F300.0 Z-1.5
G2 F800.0 X128.16556 Y127.55028 I-0.04327 J-0.09016
G2 X128.01556 Y127.46368 I-0.1 J0.0
G2 Y127.63688 I0.05 J0.0866
G2 X128.10882 Y127.64044 I0.05 J-0.0866
G1 F300.0 Z-2.0
G2 F800.0 X128.16556 Y127.55028 I-0.04327 J-0.09016
G2 X128.01556 Y127.46368 I-0.1 J0.0
G2 Y127.63688 I0.05 J0.0866
G2 X128.10882 Y127.64044 I0.05 J-0.0866
G1 F300.0 Z-2.5
G2 F800.0 X128.16556 Y127.55028 I-0.04327 J-0.09016
G2 X128.01556 Y127.46368 I-0.1 J0.0
G2 Y127.63688 I0.05 J0.0866
G2 X128.10882 Y127.64044 I0.05 J-0.0866
G1 F300.0 Z-3.0
G2 F800.0 X128.16556 Y127.55028 I-0.04327 J-0.09016
G2 X128.01556 Y127.46368 I-0.1 J0.0
G2 Y127.63688 I0.05 J0.0866
G2 X128.10882 Y127.64044 I0.05 J-0.0866
G1 F300.0 Z-3.3
G2 F800.0 X128.16556 Y127.55028 I-0.04327 J-0.09016
G2 X128.01556 Y127.46368 I-0.1 J0.0
G2 Y127.63688 I0.05 J0.0866
G2 X128.10882 Y127.64044 I0.05 J-0.0866
G0 Z3.0
G0 X116.09452 Y120.57121
G0 Z1.0
G1 F300.0 Z-0.5
G2 F800.0 X116.10833 Y120.52049 I-0.08619 J-0.05071
G2 X115.95833 Y120.43389 I-0.1 J0.0
G2 Y120.6071 I0.05 J0.0866
G2 X116.09452 Y120.57121 I0.05 J-0.0866
G1 F300.0 Z-1.0
G2 F800.0 X116.10833 Y120.52049 I-0.08619 J-0.05071
G2 X115.95833 Y120.43389 I-0.1 J0.0
G2 Y120.6071 I0.05 J0.0866
G2 X116.09452 Y120.57121 I0.05 J-0.0866
G1 F300.0 Z-1.5
G2 F800.0 X116.10833 Y120.52049 I-0.08619 J-0.05071
G2 X115.95833 Y120.43389 I-0.1 J0.0
G2 Y120.6071 I0.05 J0.0866
G2 X116.09452 Y120.57121 I0.05 J-0.0866
G1 F300.0 Z-2.0
G2 F800.0 X116.10833 Y120.52049 I-0.08619 J-0.05071
G2 X115.95833 Y120.43389 I-0.1 J0.0
G2 Y120.6071 I0.05 J0.0866
G2 X116.09452 Y120.57121 I0.05 J-0.0866
G1 F300.0 Z-2.5
G2 F800.0 X116.10833 Y120.52049 I-0.08619 J-0.05071
G2 X115.95833 Y120.43389 I-0.1 J0.0
G2 Y120.6071 I0.05 J0.0866
G2 X116.09452 Y120.57121 I0.05 J-0.0866
G1 F300.0 Z-3.0
G2 F800.0 X116.10833 Y120.52049 I-0.08619 J-0.05071
G2 X115.95833 Y120.43389 I-0.1 J0.0
G2 Y120.6071 I0.05 J0.0866
G2 X116.09452 Y120.57121 I0.05 J-0.0866
G1 F300.0 Z-3.3
G2 F800.0 X116.10833 Y120.52049 I-0.08619 J-0.05071
G2 X115.95833 Y120.43389 I-0.1 J0.0
G2 Y120.6071 I0.05 J0.0866
G2 X116.09452 Y120.57121 I0.05 J-0.0866
G0 Z3.0
G0 X110.67408 Y109.58967
G0 Z1.0
G1 F300.0 Z-0.5
G2 F800.0 X110.72982 Y109.5 I-0.04426 J-0.08967
G2 X110.57982 Y109.4134 I-0.1 J0.0
G2 Y109.5866 I0.05 J0.0866
G2 X110.67408 Y109.58967 I0.05 J-0.0866
G1 F300.0 Z-1.0
G2 F800.0 X110.72982 Y109.5 I-0.04426 J-0.08967
G2 X110.57982 Y109.4134 I-0.1 J0.0
G2 Y109.5866 I0.05 J0.0866
G2 X110.67408 Y109.58967 I0.05 J-0.0866
G1 F300.0 Z-1.5
G2 F800.0 X110.72982 Y109.5 I-0.04426 J-0.08967
G2 X110.57982 Y109.4134 I-0.1 J0.0
G2 Y109.5866 I0.05 J0.0866
G2 X110.67408 Y109.58967 I0.05 J-0.0866
G1 F300.0 Z-2.0
G2 F800.0 X110.72982 Y109.5 I-0.04426 J-0.08967
G2 X110.57982 Y109.4134 I-0.1 J0.0
G2 Y109.5866 I0.05 J0.0866
G2 X110.67408 Y109.58967 I0.05 J-0.0866
G1 F300.0 Z-2.5
G2 F800.0 X110.72982 Y109.5 I-0.04426 J-0.08967
G2 X110.57982 Y109.4134 I-0.1 J0.0
G2 Y109.5866 I0.05 J0.0866
G2 X110.67408 Y109.58967 I0.05 J-0.0866
G1 F300.0 Z-3.0
G2 F800.0 X110.72982 Y109.5 I-0.04426 J-0.08967
G2 X110.57982 Y109.4134 I-0.1 J0.0
G2 Y109.5866 I0.05 J0.0866
G2 X110.67408 Y109.58967 I0.05 J-0.0866
G1 F300.0 Z-3.3
G2 F800.0 X110.72982 Y109.5 I-0.04426 J-0.08967
G2 X110.57982 Y109.4134 I-0.1 J0.0
G2 Y109.5866 I0.05 J0.0866
G2 X110.67408 Y109.58967 I0.05 J-0.0866
G0 Z3.0
G0 X115.96141 Y99.63859
G0 Z1.0
G1 F300.0 Z-0.5
G2 F800.0 X116.10833 Y99.55028 I0.04692 J-0.08831
G2 X115.95833 Y99.46368 I-0.1 J0.0
G2 Y99.63688 I0.05 J0.0866
G2 X115.96141 Y99.63859 I0.05 J-0.0866
G1 F300.0 Z-1.0
G2 F800.0 X116.10833 Y99.55028 I0.04692 J-0.08831
G2 X115.95833 Y99.46368 I-0.1 J0.0
G2 Y99.63688 I0.05 J0.0866
G2 X115.96141 Y99.63859 I0.05 J-0.0866
G1 F300.0 Z-1.5
G2 F800.0 X116.10833 Y99.55028 I0.04692 J-0.08831
G2 X115.95833 Y99.46368 I-0.1 J0.0
G2 Y99.63688 I0.05 J0.0866
G2 X115.96141 Y99.63859 I0.05 J-0.0866
G1 F300.0 Z-2.0
G2 F800.0 X116.10833 Y99.55028 I0.04692 J-0.08831
G2 X115.95833 Y99.46368 I-0.1 J0.0
G2 Y99.63688 I0.05 J0.0866
G2 X115.96141 Y99.63859 I0.05 J-0.0866
G1 F300.0 Z-2.5
G2 F800.0 X116.10833 Y99.55028 I0.04692 J-0.08831
G2 X115.95833 Y99.46368 I-0.1 J0.0
G2 Y99.63688 I0.05 J0.0866
G2 X115.96141 Y99.63859 I0.05 J-0.0866
G1 F300.0 Z-3.0
G2 F800.0 X116.10833 Y99.55028 I0.04692 J-0.08831
G2 X115.95833 Y99.46368 I-0.1 J0.0
G2 Y99.63688 I0.05 J0.0866
G2 X115.96141 Y99.63859 I0.05 J-0.0866
G1 F300.0 Z-3.3
G2 F800.0 X116.10833 Y99.55028 I0.04692 J-0.08831
G2 X115.95833 Y99.46368 I-0.1 J0.0
G2 Y99.63688 I0.05 J0.0866
G2 X115.96141 Y99.63859 I0.05 J-0.0866
G0 Z3.0
G0 X127.98273 Y91.50575
G0 Z1.0
G1 F300.0 Z-0.5
G2 F800.0 X128.01556 Y91.53632 I0.08283 J-0.05603
G2 X128.16556 Y91.44972 I0.05 J-0.0866
G2 X128.01556 Y91.36312 I-0.1 J0.0
G2 X127.98273 Y91.50575 I0.05 J0.0866
G1 F300.0 Z-1.0
G2 F800.0 X128.01556 Y91.53632 I0.08283 J-0.05603
G2 X128.16556 Y91.44972 I0.05 J-0.0866
G2 X128.01556 Y91.36312 I-0.1 J0.0
G2 X127.98273 Y91.50575 I0.05 J0.0866
G1 F300.0 Z-1.5
G2 F800.0 X128.01556 Y91.53632 I0.08283 J-0.05603
G2 X128.16556 Y91.44972 I0.05 J-0.0866
G2 X128.01556 Y91.36312 I-0.1 J0.0
G2 X127.98273 Y91.50575 I0.05 J0.0866
G1 F300.0 Z-2.0
G2 F800.0 X128.01556 Y91.53632 I0.08283 J-0.05603
G2 X128.16556 Y91.44972 I0.05 J-0.0866
G2 X128.01556 Y91.36312 I-0.1 J0.0
G2 X127.98273 Y91.50575 I0.05 J0.0866
G1 F300.0 Z-2.5
G2 F800.0 X128.01556 Y91.53632 I0.08283 J-0.05603
G2 X128.16556 Y91.44972 I0.05 J-0.0866
G2 X128.01556 Y91.36312 I-0.1 J0.0
G2 X127.98273 Y91.50575 I0.05 J0.0866
G1 F300.0 Z-3.0
G2 F800.0 X128.01556 Y91.53632 I0.08283 J-0.05603
G2 X128.16556 Y91.44972 I0.05 J-0.0866
G2 X128.01556 Y91.36312 I-0.1 J0.0
G2 X127.98273 Y91.50575 I0.05 J0.0866
G1 F300.0 Z-3.3
G2 F800.0 X128.01556 Y91.53632 I0.08283 J-0.05603
G2 X128.16556 Y91.44972 I0.05 J-0.0866
G2 X128.01556 Y91.36312 I-0.1 J0.0
G2 X127.98273 Y91.50575 I0.05 J0.0866
G0 Z3.0
G0 X133.39616 Y81.58778
G0 Z1.0
G1 F300.0 Z-0.5
G2 F800.0 X133.54407 Y81.5 I0.04791 J-0.08778
G2 X133.39407 Y81.4134 I-0.1 J0.0
G2 Y81.5866 I0.05 J0.0866
G2 X133.39616 Y81.58778 I0.05 J-0.0866
G1 F300.0 Z-1.0
G2 F800.0 X133.54407 Y81.5 I0.04791 J-0.08778
G2 X133.39407 Y81.4134 I-0.1 J0.0
G2 Y81.5866 I0.05 J0.0866
G2 X133.39616 Y81.58778 I0.05 J-0.0866
G1 F300.0 Z-1.5
G2 F800.0 X133.54407 Y81.5 I0.04791 J-0.08778
G2 X133.39407 Y81.4134 I-0.1 J0.0
G2 Y81.5866 I0.05 J0.0866
G2 X133.39616 Y81.58778 I0.05 J-0.0866
G1 F300.0 Z-2.0
G2 F800.0 X133.54407 Y81.5 I0.04791 J-0.08778
G2 X133.39407 Y81.4134 I-0.1 J0.0
G2 Y81.5866 I0.05 J0.0866
G2 X133.39616 Y81.58778 I0.05 J-0.0866
G1 F300.0 Z-2.5
G2 F800.0 X133.54407 Y81.5 I0.04791 J-0.08778
G2 X133.39407 Y81.4134 I-0.1 J0.0
G2 Y81.5866 I0.05 J0.0866
G2 X133.39616 Y81.58778 I0.05 J-0.0866
G1 F300.0 Z-3.0
G2 F800.0 X133.54407 Y81.5 I0.04791 J-0.08778
G2 X133.39407 Y81.4134 I-0.1 J0.0
G2 Y81.5866 I0.05 J0.0866
G2 X133.39616 Y81.58778 I0.05 J-0.0866
G1 F300.0 Z-3.3
G2 F800.0 X133.54407 Y81.5 I0.04791 J-0.08778
G2 X133.39407 Y81.4134 I-0.1 J0.0
G2 Y81.5866 I0.05 J0.0866
G2 X133.39616 Y81.58778 I0.05 J-0.0866
G0 Z3.0
G0 X128.11246 Y71.6386
G0 Z1.0
G1 F300.0 Z-0.5
G2 F800.0 X128.16556 Y71.55028 I-0.0469 J-0.08832
G2 X128.01556 Y71.46368 I-0.1 J0.0
G2 Y71.63688 I0.05 J0.0866
